aXce1-z/LLMSpeculativeSampling-model-pair-search-v2/outputs/run_20260313_114150_none_none/trial_results.csv
pair_name,family,approx_model_name,target_model_name,task,prompt_id,gamma,top_k,top_p,temperature,max_tokens,approx_quant,target_quant,baseline_large_tps,baseline_large_elapsed_ms,avg_target_baseline_generate_ms_per_token,baseline_small_tps,speculative_tps,speedup,rounds,generated_tokens,accepted_count,resample_count,target_sample_count,proposed_draft_tokens,acceptance_rate,all_accept_round_rate,resample_round_rate,avg_accepted_per_round,avg_contributed_per_round,avg_draft_generate_ms_per_round,avg_target_verify_ms_per_round,draft_generate_ms_total,target_verify_ms_total
llama32_1b_to_31_8b,llama_cross,meta-llama/Llama-3.2-1B,meta-llama/Llama-3.1-8B,continuation,continuation_0,4,50,0.0,1.0,64,none,none,16.282523,4114.841359,61.415543,,28.169675,1.730056,15,67,52,5,10,60,0.866667,0.666667,0.333333,3.466667,4.466667,86.718551,69.569858,1300.778271,1043.547866
llama32_1b_to_31_8b,llama_cross,meta-llama/Llama-3.2-1B,meta-llama/Llama-3.1-8B,continuation,continuation_0,4,50,0.9,1.0,64,none,none,16.066778,4170.095703,62.240234,,29.128636,1.812973,14,67,53,1,13,56,0.946429,0.928571,0.071429,3.785714,4.785714,89.871033,72.175988,1258.194462,1010.463826
llama32_1b_to_31_8b,llama_cross,meta-llama/Llama-3.2-1B,meta-llama/Llama-3.1-8B,continuation,continuation_0,4,100,0.0,1.0,64,none,none,16.003671,4124.053702,62.485662,,29.561152,1.847148,14,66,52,1,13,56,0.928571,0.928571,0.071429,3.714286,4.714286,87.491558,69.787047,1224.881811,977.018665
llama32_1b_to_31_8b,llama_cross,meta-llama/Llama-3.2-1B,meta-llama/Llama-3.1-8B,continuation,continuation_0,4,100,0.9,1.0,64,none,none,15.466207,4138.054147,64.657096,,27.407265,1.772074,14,64,50,3,11,56,0.892857,0.785714,0.214286,3.571429,4.571429,91.869428,72.540828,1286.171989,1015.571594
llama32_1b_to_31_8b,llama_cross,meta-llama/Llama-3.2-1B,meta-llama/Llama-3.1-8B,continuation,continuation_0,4,150,0.0,1.0,64,none,none,15.504744,4127.768807,64.496388,,28.506611,1.838573,14,64,50,3,11,56,0.892857,0.785714,0.214286,3.571429,4.571429,88.11656,69.927045,1233.631846,978.978634
llama32_1b_to_31_8b,llama_cross,meta-llama/Llama-3.2-1B,meta-llama/Llama-3.1-8B,continuation,continuation_0,4,150,0.9,1.0,64,none,none,16.136246,4152.142871,61.972282,,24.088899,1.492844,17,67,50,8,9,68,0.735294,0.529412,0.470588,2.941176,3.941176,89.314622,72.048224,1518.348577,1224.819804
llama32_1b_to_31_8b,llama_cross,meta-llama/Llama-3.2-1B,meta-llama/Llama-3.1-8B,continuation,continuation_0,4,200,0.0,1.0,64,none,none,15.726016,4133.278299,63.588897,,29.227576,1.858549,14,65,51,2,12,56,0.910714,0.857143,0.142857,3.642857,4.642857,86.733648,69.905809,1214.271065,978.68133
llama32_1b_to_31_8b,llama_cross,meta-llama/Llama-3.2-1B,meta-llama/Llama-3.1-8B,continuation,continuation_0,4,200,0.9,1.0,64,none,none,15.620727,4161.138071,64.017509,,26.211974,1.678025,15,65,50,6,9,60,0.833333,0.6,0.4,3.333333,4.333333,90.507366,72.425273,1357.610483,1086.379097
llama32_1b_to_31_8b,llama_cross,meta-llama/Llama-3.2-1B,meta-llama/Llama-3.1-8B,continuation,continuation_0,6,50,0.0,1.0,64,none,none,16.487365,4124.370288,60.652504,,25.871294,1.569159,13,68,55,6,7,78,0.705128,0.538462,0.461538,4.230769,5.230769,128.610429,70.899545,1671.935573,921.694082
llama32_1b_to_31_8b,llama_cross,meta-llama/Llama-3.2-1B,meta-llama/Llama-3.1-8B,continuation,continuation_0,6,50,0.9,1.0,64,none,none,15.65029,4153.277544,63.896578,,25.958969,1.658689,12,65,53,5,7,72,0.736111,0.583333,0.416667,4.416667,5.416667,131.902871,74.084968,1582.83445,889.019615
llama32_1b_to_31_8b,llama_cross,meta-llama/Llama-3.2-1B,meta-llama/Llama-3.1-8B,continuation,continuation_0,6,100,0.0,1.0,64,none,none,16.730704,4124.154073,59.770349,,28.20439,1.685786,12,69,57,4,8,72,0.791667,0.666667,0.333333,4.75,5.75,130.004775,71.082686,1560.057296,852.992235
llama32_1b_to_31_8b,llama_cross,meta-llama/Llama-3.2-1B,meta-llama/Llama-3.1-8B,continuation,continuation_0,6,100,0.9,1.0,64,none,none,15.430264,4147.693084,64.807704,,25.308048,1.640157,12,64,52,6,6,72,0.722222,0.5,0.5,4.333333,5.333333,133.654534,74.295264,1603.854407,891.543172
llama32_1b_to_31_8b,llama_cross,meta-llama/Llama-3.2-1B,meta-llama/Llama-3.1-8B,continuation,continuation_0,6,150,0.0,1.0,64,none,none,16.42563,4139.871617,60.880465,,32.656772,1.988159,10,68,58,1,9,60,0.966667,0.9,0.1,5.8,6.8,133.462727,71.675345,1334.627271,716.753452
llama32_1b_to_31_8b,llama_cross,meta-llama/Llama-3.2-1B,meta-llama/Llama-3.1-8B,continuation,continuation_0,6,150,0.9,1.0,64,none,none,16.831864,4158.77887,59.411127,,27.526232,1.635364,12,70,58,4,8,72,0.805556,0.666667,0.333333,4.833333,5.833333,134.673748,74.396623,1616.084977,892.759477
llama32_1b_to_31_8b,llama_cross,meta-llama/Llama-3.2-1B,meta-llama/Llama-3.1-8B,continuation,continuation_0,6,200,0.0,1.0,64,none,none,15.451985,4141.862607,64.716603,,30.623182,1.981828,10,64,54,1,9,60,0.9,0.9,0.1,5.4,6.4,134.111235,71.845789,1341.112353,718.45789
llama32_1b_to_31_8b,llama_cross,meta-llama/Llama-3.2-1B,meta-llama/Llama-3.1-8B,continuation,continuation_0,6,200,0.9,1.0,64,none,none,16.0837,4165.708124,62.174748,,25.870134,1.608469,12,67,55,5,7,72,0.763889,0.583333,0.416667,4.583333,5.583333,138.332163,74.584385,1659.985956,895.012624
llama32_1b_to_31_8b,llama_cross,meta-llama/Llama-3.2-1B,meta-llama/Llama-3.1-8B,continuation,continuation_0,8,50,0.0,1.0,64,none,none,15.930781,4142.92311,62.771562,,23.899732,1.500224,11,66,55,7,4,88,0.625,0.363636,0.636364,5,6,175.383043,72.387777,1929.213472,796.265551
llama32_1b_to_31_8b,llama_cross,meta-llama/Llama-3.2-1B,meta-llama/Llama-3.1-8B,continuation,continuation_0,8,50,0.9,1.0,64,none,none,17.319201,4157.235652,57.739384,,30.98103,1.788826,9,72,63,2,7,72,0.875,0.777778,0.222222,7,8,177.869322,76.895771,1600.823897,692.061942
llama32_1b_to_31_8b,llama_cross,meta-llama/Llama-3.2-1B,meta-llama/Llama-3.1-8B,continuation,continuation_0,8,100,0.0,1.0,64,none,none,15.504989,4127.703697,64.49537,,31.086266,2.00492,8,64,56,2,6,64,0.875,0.75,0.25,7,8,180.635562,73.129285,1445.084498,585.034282
llama32_1b_to_31_8b,llama_cross,meta-llama/Llama-3.2-1B,meta-llama/Llama-3.1-8B,continuation,continuation_0,8,100,0.9,1.0,64,none,none,16.82044,4161.603396,59.451477,,22.72861,1.351249,12,70,58,8,4,96,0.604167,0.333333,0.666667,4.833333,5.833333,177.768836,75.822738,2133.226032,909.872851
llama32_1b_to_31_8b,llama_cross,meta-llama/Llama-3.2-1B,meta-llama/Llama-3.1-8B,continuation,continuation_0,8,150,0.0,1.0,64,none,none,17.435058,4129.610634,57.355703,,31.973202,1.833845,9,72,63,3,6,72,0.875,0.666667,0.333333,7,8,173.856418,72.736031,1564.707761,654.62428
llama32_1b_to_31_8b,llama_cross,meta-llama/Llama-3.2-1B,meta-llama/Llama-3.1-8B,continuation,continuation_0,8,150,0.9,1.0,64,none,none,17.332948,4153.938572,57.693591,,25.869357,1.492496,11,72,61,7,4,88,0.693182,0.363636,0.636364,5.545455,6.545455,174.152262,75.725353,1915.674877,832.978888
llama32_1b_to_31_8b,llama_cross,meta-llama/Llama-3.2-1B,meta-llama/Llama-3.1-8B,continuation,continuation_0,8,200,0.0,1.0,64,none,none,16.225278,4129.359207,61.632227,,29.854157,1.839978,9,67,58,4,5,72,0.805556,0.555556,0.444444,6.444444,7.444444,173.328319,72.591119,1559.954868,653.320075
llama32_1b_to_31_8b,llama_cross,meta-llama/Llama-3.2-1B,meta-llama/Llama-3.1-8B,continuation,continuation_0,8,200,0.9,1.0,64,none,none,15.421688,4149.999669,64.843745,,25.143317,1.630387,10,64,54,5,5,80,0.675,0.5,0.5,5.4,6.4,175.327161,76.148966,1753.27161,761.489664
llama32_1b_to_31_8b,llama_cross,meta-llama/Llama-3.2-1B,meta-llama/Llama-3.1-8B,continuation,continuation_0,10,50,0.0,1.0,64,none,none,16.456083,4132.210545,60.767802,,25.263727,1.535221,9,68,59,5,4,90,0.655556,0.444444,0.555556,6.555556,7.555556,221.906496,73.543537,1997.158465,661.891832
llama32_1b_to_31_8b,llama_cross,meta-llama/Llama-3.2-1B,meta-llama/Llama-3.1-8B,continuation,continuation_0,10,50,0.9,1.0,64,none,none,15.65998,4150.707662,63.857041,,30.267197,1.932774,7,65,58,3,4,70,0.828571,0.571429,0.428571,8.285714,9.285714,223.543003,79.257355,1564.80102,554.801485
llama32_1b_to_31_8b,llama_cross,meta-llama/Llama-3.2-1B,meta-llama/Llama-3.1-8B,continuation,continuation_0,10,100,0.0,1.0,64,none,none,16.468906,4128.993163,60.720488,,29.096633,1.766762,8,68,60,3,5,80,0.75,0.625,0.375,7.5,8.5,214.928866,73.497915,1719.43093,587.98332
llama32_1b_to_31_8b,llama_cross,meta-llama/Llama-3.2-1B,meta-llama/Llama-3.1-8B,continuation,continuation_0,10,100,0.9,1.0,64,none,none,15.936952,4141.318794,62.747254,,24.261428,1.522338,9,66,57,5,4,90,0.633333,0.444444,0.555556,6.333333,7.333333,220.840266,77.979149,1987.56239,701.812345
llama32_1b_to_31_8b,llama_cross,meta-llama/Llama-3.2-1B,meta-llama/Llama-3.1-8B,continuation,continuation_0,10,150,0.0,1.0,64,none,none,16.21965,4130.792013,61.653612,,32.536848,2.006014,7,67,60,1,6,70,0.857143,0.857143,0.142857,8.571429,9.571429,216.324591,73.985887,1514.272136,517.901207
llama32_1b_to_31_8b,llama_cross,meta-llama/Llama-3.2-1B,meta-llama/Llama-3.1-8B,continuation,continuation_0,10,150,0.9,1.0,64,none,none,16.154973,4147.329775,61.900444,,21.843987,1.352153,10,67,57,7,3,100,0.57,0.3,0.7,5.7,6.7,225.788685,77.59182,2257.886853,775.9182
llama32_1b_to_31_8b,llama_cross,meta-llama/Llama-3.2-1B,meta-llama/Llama-3.1-8B,continuation,continuation_0,10,200,0.0,1.0,64,none,none,15.989702,4127.656695,62.540253,,24.930868,1.559183,9,66,57,5,4,90,0.633333,0.444444,0.555556,6.333333,7.333333,217.211736,73.401156,1954.90562,660.610408
llama32_1b_to_31_8b,llama_cross,meta-llama/Llama-3.2-1B,meta-llama/Llama-3.1-8B,continuation,continuation_0,10,200,0.9,1.0,64,none,none,15.894745,4152.315784,62.913876,,19.861186,1.249544,11,66,55,9,2,110,0.5,0.181818,0.818182,5,6,221.795547,77.128304,2439.75102,848.41134
llama32_1b_to_31_8b,llama_cross,meta-llama/Llama-3.2-1B,meta-llama/Llama-3.1-8B,continuation,continuation_1,4,50,0.0,1.0,64,none,none,16.437048,4136.995951,60.838176,,28.101049,1.709617,15,68,53,3,12,60,0.883333,0.8,0.2,3.533333,4.533333,89.034737,69.936983,1335.521055,1049.054744
llama32_1b_to_31_8b,llama_cross,meta-llama/Llama-3.2-1B,meta-llama/Llama-3.1-8B,continuation,continuation_1,4,50,0.9,1.0,64,none,none,15.888424,4153.967714,62.938905,,25.070628,1.577918,16,66,50,7,9,64,0.78125,0.5625,0.4375,3.125,4.125,90.102948,72.090814,1441.647169,1153.453026
llama32_1b_to_31_8b,llama_cross,meta-llama/Llama-3.2-1B,meta-llama/Llama-3.1-8B,continuation,continuation_1,4,100,0.0,1.0,64,none,none,16.186821,4139.169815,61.778654,,26.123318,1.613863,16,67,51,6,10,64,0.796875,0.625,0.375,3.1875,4.1875,88.229753,69.741458,1411.676052,1115.863326
llama32_1b_to_31_8b,llama_cross,meta-llama/Llama-3.2-1B,meta-llama/Llama-3.1-8B,continuation,continuation_1,4,100,0.9,1.0,64,none,none,15.652074,4152.804197,63.889295,,24.675158,1.576478,16,65,49,4,12,64,0.765625,0.75,0.25,3.0625,4.0625,90.366075,72.076325,1445.857206,1153.221193
llama32_1b_to_31_8b,llama_cross,meta-llama/Llama-3.2-1B,meta-llama/Llama-3.1-8B,continuation,continuation_1,4,150,0.0,1.0,64,none,none,16.187651,4138.957475,61.775485,,24.607928,1.520167,17,67,50,6,11,68,0.735294,0.647059,0.352941,2.941176,3.941176,88.268064,69.686528,1500.557087,1184.670976
llama32_1b_to_31_8b,llama_cross,meta-llama/Llama-3.2-1B,meta-llama/Llama-3.1-8B,continuation,continuation_1,4,150,0.9,1.0,64,none,none,15.636899,4156.8343,63.951297,,24.493919,1.566418,16,65,49,4,12,64,0.765625,0.75,0.25,3.0625,4.0625,91.445349,72.194084,1463.125576,1155.10535
llama32_1b_to_31_8b,llama_cross,meta-llama/Llama-3.2-1B,meta-llama/Llama-3.1-8B,continuation,continuation_1,4,200,0.0,1.0,64,none,none,16.193727,4137.404451,61.752305,,29.772203,1.838502,14,67,53,1,13,56,0.946429,0.928571,0.071429,3.785714,4.785714,88.56588,69.852598,1239.922318,977.936366
llama32_1b_to_31_8b,llama_cross,meta-llama/Llama-3.2-1B,meta-llama/Llama-3.1-8B,continuation,continuation_1,4,200,0.9,1.0,64,none,none,15.912989,4147.555212,62.841746,,23.371112,1.468681,17,66,49,6,11,68,0.720588,0.647059,0.352941,2.882353,3.882353,91.799947,72.072272,1560.599107,1225.228624
llama32_1b_to_31_8b,llama_cross,meta-llama/Llama-3.2-1B,meta-llama/Llama-3.1-8B,continuation,continuation_1,6,50,0.0,1.0,64,none,none,16.471834,4128.259235,60.709695,,23.852065,1.448052,14,68,54,6,8,84,0.642857,0.571429,0.428571,3.857143,4.857143,130.28682,70.811392,1824.015486,991.359494
llama32_1b_to_31_8b,llama_cross,meta-llama/Llama-3.2-1B,meta-llama/Llama-3.1-8B,continuation,continuation_1,6,50,0.9,1.0,64,none,none,15.645393,4154.577769,63.916581,,23.442096,1.498339,13,65,52,7,6,78,0.666667,0.461538,0.538462,4,5,136.311672,74.250686,1772.05174,965.258912
llama32_1b_to_31_8b,llama_cross,meta-llama/Llama-3.2-1B,meta-llama/Llama-3.1-8B,continuation,continuation_1,6,100,0.0,1.0,64,none,none,16.477485,4126.84335,60.688873,,27.815521,1.688093,12,68,56,4,8,72,0.777778,0.666667,0.333333,4.666667,5.666667,129.895384,71.065768,1558.744611,852.789212
llama32_1b_to_31_8b,llama_cross,meta-llama/Llama-3.2-1B,meta-llama/Llama-3.1-8B,continuation,continuation_1,6,100,0.9,1.0,64,none,none,16.844806,4155.58352,59.365479,,27.804812,1.650646,12,70,58,5,7,72,0.805556,0.583333,0.416667,4.833333,5.833333,132.715783,74.238728,1592.589391,890.864733
llama32_1b_to_31_8b,llama_cross,meta-llama/Llama-3.2-1B,meta-llama/Llama-3.1-8B,continuation,continuation_1,6,150,0.0,1.0,64,none,none,15.990183,4127.532407,62.53837,,27.015046,1.689477,12,66,54,5,7,72,0.75,0.583333,0.416667,4.5,5.5,129.84034,71.021998,1558.084084,852.263979
llama32_1b_to_31_8b,llama_cross,meta-llama/Llama-3.2-1B,meta-llama/Llama-3.1-8B,continuation,continuation_1,6,150,0.9,1.0,64,none,none,16.151833,4148.136078,61.912479,,28.76956,1.781195,11,67,56,2,9,66,0.848485,0.818182,0.181818,5.090909,6.090909,134.685401,74.285803,1481.539407,817.143837
llama32_1b_to_31_8b,llama_cross,meta-llama/Llama-3.2-1B,meta-llama/Llama-3.1-8B,continuation,continuation_1,6,200,0.0,1.0,64,none,none,15.747838,4127.55078,63.500781,,31.349833,1.990739,10,65,55,1,9,60,0.916667,0.9,0.1,5.5,6.5,132.878107,71.546695,1328.781066,715.466949
llama32_1b_to_31_8b,llama_cross,meta-llama/Llama-3.2-1B,meta-llama/Llama-3.1-8B,continuation,continuation_1,6,200,0.9,1.0,64,none,none,15.652956,4152.570306,63.885697,,23.462604,1.498925,13,65,52,6,7,78,0.666667,0.538462,0.461538,4,5,136.00307,74.452614,1768.039911,967.883984
llama32_1b_to_31_8b,llama_cross,meta-llama/Llama-3.2-1B,meta-llama/Llama-3.1-8B,continuation,continuation_1,8,50,0.0,1.0,64,none,none,17.1708,4134.926632,58.238403,,31.574785,1.838865,9,71,62,2,7,72,0.861111,0.777778,0.222222,6.888889,7.888889,173.8027,72.608267,1564.224299,653.4744
llama32_1b_to_31_8b,llama_cross,meta-llama/Llama-3.2-1B,meta-llama/Llama-3.1-8B,continuation,continuation_1,8,50,0.9,1.0,64,none,none,16.142312,4150.582617,61.948994,,26.16722,1.621033,10,67,57,4,6,80,0.7125,0.6,0.4,5.7,6.7,176.772267,76.143466,1767.722668,761.434661
llama32_1b_to_31_8b,llama_cross,meta-llama/Llama-3.2-1B,meta-llama/Llama-3.1-8B,continuation,continuation_1,8,100,0.0,1.0,64,none,none,16.467776,4129.276361,60.724652,,27.513455,1.670745,10,68,58,5,5,80,0.725,0.5,0.5,5.8,6.8,171.650557,72.287764,1716.505572,722.877645
llama32_1b_to_31_8b,llama_cross,meta-llama/Llama-3.2-1B,meta-llama/Llama-3.1-8B,continuation,continuation_1,8,100,0.9,1.0,64,none,none,16.852171,4153.767532,59.339536,,21.131381,1.253926,13,70,57,8,5,104,0.548077,0.384615,0.615385,4.384615,5.384615,176.658795,75.327705,2296.564332,979.260165
llama32_1b_to_31_8b,llama_cross,meta-llama/Llama-3.2-1B,meta-llama/Llama-3.1-8B,continuation,continuation_1,8,150,0.0,1.0,64,none,none,16.709719,4129.333433,59.845412,,34.438117,2.060963,8,69,61,1,7,64,0.953125,0.875,0.125,7.625,8.625,174.029925,72.869016,1392.239399,582.952131
llama32_1b_to_31_8b,llama_cross,meta-llama/Llama-3.2-1B,meta-llama/Llama-3.1-8B,continuation,continuation_1,8,150,0.9,1.0,64,none,none,17.111529,4149.249414,58.440133,,27.314265,1.596249,10,71,61,4,6,80,0.7625,0.6,0.4,6.1,7.1,180.264251,76.296109,1802.642508,762.961085
llama32_1b_to_31_8b,llama_cross,meta-llama/Llama-3.2-1B,meta-llama/Llama-3.1-8B,continuation,continuation_1,8,200,0.0,1.0,64,none,none,16.233589,4127.244952,61.600671,,22.392787,1.379411,12,67,55,7,5,96,0.572917,0.416667,0.583333,4.583333,5.583333,174.533967,71.900562,2094.407601,862.806742
llama32_1b_to_31_8b,llama_cross,meta-llama/Llama-3.2-1B,meta-llama/Llama-3.1-8B,continuation,continuation_1,8,200,0.9,1.0,64,none,none,16.862083,4151.325909,59.304656,,30.222216,1.792318,9,70,61,4,5,72,0.847222,0.555556,0.444444,6.777778,7.777778,177.272398,76.606658,1595.451579,689.459924
llama32_1b_to_31_8b,llama_cross,meta-llama/Llama-3.2-1B,meta-llama/Llama-3.1-8B,continuation,continuation_1,10,50,0.0,1.0,64,none,none,17.698105,4124.735479,56.503226,,24.877889,1.405681,10,73,63,6,4,100,0.63,0.4,0.6,6.3,7.3,216.915929,73.047597,2169.159288,730.475971
llama32_1b_to_31_8b,llama_cross,meta-llama/Llama-3.2-1B,meta-llama/Llama-3.1-8B,continuation,continuation_1,10,50,0.9,1.0,64,none,none,16.358283,4156.915402,61.131109,,22.575914,1.380091,10,68,58,8,2,100,0.58,0.2,0.8,5.8,6.8,220.450825,77.375481,2204.50825,773.754815
llama32_1b_to_31_8b,llama_cross,meta-llama/Llama-3.2-1B,meta-llama/Llama-3.1-8B,continuation,continuation_1,10,100,0.0,1.0,64,none,none,15.731158,4131.927094,63.568109,,31.104828,1.977275,7,65,58,3,4,70,0.828571,0.571429,0.428571,8.285714,9.285714,219.821444,74.514609,1538.750108,521.602261
llama32_1b_to_31_8b,llama_cross,meta-llama/Llama-3.2-1B,meta-llama/Llama-3.1-8B,continuation,continuation_1,10,100,0.9,1.0,64,none,none,17.565734,4155.818294,56.929018,,24.392609,1.388647,10,73,63,7,3,100,0.63,0.3,0.7,6.3,7.3,218.33764,77.456752,2183.376398,774.567516
llama32_1b_to_31_8b,llama_cross,meta-llama/Llama-3.2-1B,meta-llama/Llama-3.1-8B,continuation,continuation_1,10,150,0.0,1.0,64,none,none,16.436741,4137.073277,60.839313,,32.648629,1.98632,7,68,61,2,5,70,0.871429,0.714286,0.285714,8.714286,9.714286,219.310086,74.12101,1535.170599,518.847073
llama32_1b_to_31_8b,llama_cross,meta-llama/Llama-3.2-1B,meta-llama/Llama-3.1-8B,continuation,continuation_1,10,150,0.9,1.0,64,none,none,15.367047,4164.75585,65.07431,,23.563105,1.533353,9,64,55,7,2,90,0.611111,0.222222,0.777778,6.111111,7.111111,220.410223,77.918724,1983.69201,701.268514
llama32_1b_to_31_8b,llama_cross,meta-llama/Llama-3.2-1B,meta-llama/Llama-3.1-8B,continuation,continuation_1,10,200,0.0,1.0,64,none,none,17.637018,4139.021664,56.698927,,20.899276,1.184966,12,73,61,8,4,120,0.508333,0.333333,0.666667,5.083333,6.083333,215.401357,72.585978,2584.816279,871.03174
llama32_1b_to_31_8b,llama_cross,meta-llama/Llama-3.2-1B,meta-llama/Llama-3.1-8B,continuation,continuation_1,10,200,0.9,1.0,64,none,none,15.409815,4153.197156,64.893706,,23.471886,1.523178,9,64,55,7,2,90,0.611111,0.222222,0.777778,6.111111,7.111111,221.456763,77.999135,1993.110867,701.992218
llama32_1b_to_31_8b,llama_cross,meta-llama/Llama-3.2-1B,meta-llama/Llama-3.1-8B,code_completion,code_completion_0,4,50,0.0,1.0,64,none,none,16.468414,4129.116587,60.722303,,30.236771,1.836046,14,68,54,1,13,56,0.964286,0.928571,0.071429,3.857143,4.857143,88.443686,69.829496,1238.211601,977.612943
llama32_1b_to_31_8b,llama_cross,meta-llama/Llama-3.2-1B,meta-llama/Llama-3.1-8B,code_completion,code_completion_0,4,50,0.9,1.0,64,none,none,15.421363,4150.087063,64.84511,,27.61162,1.790479,14,64,50,2,12,56,0.892857,0.857143,0.142857,3.571429,4.571429,90.999317,72.240852,1273.990444,1011.371932
llama32_1b_to_31_8b,llama_cross,meta-llama/Llama-3.2-1B,meta-llama/Llama-3.1-8B,code_completion,code_completion_0,4,100,0.0,1.0,64,none,none,16.44552,4134.864574,60.806832,,30.065716,1.828201,14,68,54,1,13,56,0.964286,0.928571,0.071429,3.857143,4.857143,89.337191,69.858548,1250.72067,978.019673
llama32_1b_to_31_8b,llama_cross,meta-llama/Llama-3.2-1B,meta-llama/Llama-3.1-8B,code_completion,code_completion_0,4,100,0.9,1.0,64,none,none,15.870606,4158.631245,63.009564,,24.934699,1.571125,16,66,50,5,11,64,0.78125,0.6875,0.3125,3.125,4.125,90.811771,72.30997,1452.988333,1156.959524
llama32_1b_to_31_8b,llama_cross,meta-llama/Llama-3.2-1B,meta-llama/Llama-3.1-8B,code_completion,code_completion_0,4,150,0.0,1.0,64,none,none,16.461085,4130.954838,60.749336,,29.927222,1.818059,14,68,54,1,13,56,0.964286,0.928571,0.071429,3.857143,4.857143,89.930493,69.924358,1259.026906,978.941017
llama32_1b_to_31_8b,llama_cross,meta-llama/Llama-3.2-1B,meta-llama/Llama-3.1-8B,code_completion,code_completion_0,4,150,0.9,1.0,64,none,none,15.883461,4155.265565,62.958569,,26.412619,1.662901,15,66,51,3,12,60,0.85,0.8,0.2,3.4,4.4,91.925523,72.33197,1378.882843,1084.979547
llama32_1b_to_31_8b,llama_cross,meta-llama/Llama-3.2-1B,meta-llama/Llama-3.1-8B,code_completion,code_completion_0,4,200,0.0,1.0,64,none,none,16.447361,4134.401786,60.800026,,30.21235,1.836912,14,68,54,1,13,56,0.964286,0.928571,0.071429,3.857143,4.857143,88.609934,69.806977,1240.539083,977.297685
llama32_1b_to_31_8b,llama_cross,meta-llama/Llama-3.2-1B,meta-llama/Llama-3.1-8B,code_completion,code_completion_0,4,200,0.9,1.0,64,none,none,15.921339,4145.379899,62.808786,,26.487244,1.663632,15,66,51,3,12,60,0.85,0.8,0.2,3.4,4.4,91.584975,72.18315,1373.774621,1082.747246
llama32_1b_to_31_8b,llama_cross,meta-llama/Llama-3.2-1B,meta-llama/Llama-3.1-8B,code_completion,code_completion_0,6,50,0.0,1.0,64,none,none,15.505821,4127.482192,64.491909,,21.178993,1.365874,15,64,49,8,7,90,0.544444,0.466667,0.533333,3.266667,4.266667,128.687682,70.38149,1930.315235,1055.722352
llama32_1b_to_31_8b,llama_cross,meta-llama/Llama-3.2-1B,meta-llama/Llama-3.1-8B,code_completion,code_completion_0,6,50,0.9,1.0,64,none,none,15.88756,4154.193714,62.942329,,26.245828,1.651974,12,66,54,5,7,72,0.75,0.583333,0.416667,4.5,5.5,132.929702,73.864672,1595.15642,886.376058
llama32_1b_to_31_8b,llama_cross,meta-llama/Llama-3.2-1B,meta-llama/Llama-3.1-8B,code_completion,code_completion_0,6,100,0.0,1.0,64,none,none,15.986862,4128.389995,62.551364,,31.574733,1.975043,10,66,56,1,9,60,0.933333,0.9,0.1,5.6,6.6,134.631325,71.340147,1346.313253,713.401466
llama32_1b_to_31_8b,llama_cross,meta-llama/Llama-3.2-1B,meta-llama/Llama-3.1-8B,code_completion,code_completion_0,6,100,0.9,1.0,64,none,none,16.626948,4149.88979,60.14333,,27.189703,1.635279,12,69,57,3,9,72,0.791667,0.75,0.25,4.75,5.75,134.710276,74.01753,1616.523317,888.210363
llama32_1b_to_31_8b,llama_cross,meta-llama/Llama-3.2-1B,meta-llama/Llama-3.1-8B,code_completion,code_completion_0,6,150,0.0,1.0,64,none,none,16.961763,4126.929581,58.956137,,31.103375,1.833735,11,70,59,2,9,66,0.893939,0.818182,0.181818,5.363636,6.363636,130.766544,70.92829,1438.43198,780.211194
llama32_1b_to_31_8b,llama_cross,meta-llama/Llama-3.2-1B,meta-llama/Llama-3.1-8B,code_completion,code_completion_0,6,150,0.9,1.0,64,none,none,16.629416,4149.273873,60.134404,,27.162674,1.633411,12,69,57,3,9,72,0.791667,0.75,0.25,4.75,5.75,134.930428,74.032251,1619.16514,888.387016
llama32_1b_to_31_8b,llama_cross,meta-llama/Llama-3.2-1B,meta-llama/Llama-3.1-8B,code_completion,code_completion_0,6,200,0.0,1.0,64,none,none,16.961248,4127.054796,58.957926,,30.949729,1.824732,11,70,59,2,9,66,0.893939,0.818182,0.181818,5.363636,6.363636,131.739459,70.961974,1449.13405,780.581719
llama32_1b_to_31_8b,llama_cross,meta-llama/Llama-3.2-1B,meta-llama/Llama-3.1-8B,code_completion,code_completion_0,6,200,0.9,1.0,64,none,none,16.605175,4155.331164,60.222191,,27.38925,1.649441,12,69,57,3,9,72,0.791667,0.75,0.25,4.75,5.75,133.347305,73.877015,1600.167664,886.524184
llama32_1b_to_31_8b,llama_cross,meta-llama/Llama-3.2-1B,meta-llama/Llama-3.1-8B,code_completion,code_completion_0,8,50,0.0,1.0,64,none,none,16.452363,4133.144795,60.781541,,30.375149,1.846248,9,68,59,2,7,72,0.819444,0.777778,0.222222,6.555556,7.555556,172.988784,72.425115,1556.899056,651.826031
llama32_1b_to_31_8b,llama_cross,meta-llama/Llama-3.2-1B,meta-llama/Llama-3.1-8B,code_completion,code_completion_0,8,50,0.9,1.0,64,none,none,16.629973,4149.134727,60.132387,,24.677757,1.483932,11,69,58,5,6,88,0.659091,0.545455,0.454545,5.272727,6.272727,175.508817,75.701448,1930.596984,832.715924
llama32_1b_to_31_8b,llama_cross,meta-llama/Llama-3.2-1B,meta-llama/Llama-3.1-8B,code_completion,code_completion_0,8,100,0.0,1.0,64,none,none,16.484651,4125.049531,60.662493,,29.890057,1.813205,9,68,59,2,7,72,0.819444,0.777778,0.222222,6.555556,7.555556,176.815786,72.500046,1591.342072,652.500416
llama32_1b_to_31_8b,llama_cross,meta-llama/Llama-3.2-1B,meta-llama/Llama-3.1-8B,code_completion,code_completion_0,8,100,0.9,1.0,64,none,none,16.647765,4144.700539,60.068124,,26.771646,1.608123,10,69,59,3,7,80,0.7375,0.7,0.3,5.9,6.9,178.624963,75.982626,1786.249629,759.826258
llama32_1b_to_31_8b,llama_cross,meta-llama/Llama-3.2-1B,meta-llama/Llama-3.1-8B,code_completion,code_completion_0,8,150,0.0,1.0,64,none,none,16.488139,4124.176674,60.649657,,30.288135,1.836965,9,68,59,2,7,72,0.819444,0.777778,0.222222,6.555556,7.555556,173.786867,72.31499,1564.0818,650.834907
llama32_1b_to_31_8b,llama_cross,meta-llama/Llama-3.2-1B,meta-llama/Llama-3.1-8B,code_completion,code_completion_0,8,150,0.9,1.0,64,none,none,16.610328,4154.042087,60.203509,,27.13415,1.633571,10,69,59,3,7,80,0.7375,0.7,0.3,5.9,6.9,175.182015,75.960722,1751.820154,759.607216
llama32_1b_to_31_8b,llama_cross,meta-llama/Llama-3.2-1B,meta-llama/Llama-3.1-8B,code_completion,code_completion_0,8,200,0.0,1.0,64,none,none,16.490702,4123.535761,60.640232,,30.553246,1.852756,9,68,59,2,7,72,0.819444,0.777778,0.222222,6.555556,7.555556,171.68196,72.333498,1545.137642,651.001479
llama32_1b_to_31_8b,llama_cross,meta-llama/Llama-3.2-1B,meta-llama/Llama-3.1-8B,code_completion,code_completion_0,8,200,0.9,1.0,64,none,none,16.632715,4148.450781,60.122475,,26.16465,1.573084,10,69,59,3,7,80,0.7375,0.7,0.3,5.9,6.9,184.421854,76.124276,1844.218539,761.242759
llama32_1b_to_31_8b,llama_cross,meta-llama/Llama-3.2-1B,meta-llama/Llama-3.1-8B,code_completion,code_completion_0,10,50,0.0,1.0,64,none,none,16.722781,4126.107946,59.798666,,29.190654,1.745562,8,69,61,3,5,80,0.7625,0.625,0.375,7.625,8.625,218.500538,73.269193,1748.0043,586.153547
llama32_1b_to_31_8b,llama_cross,meta-llama/Llama-3.2-1B,meta-llama/Llama-3.1-8B,code_completion,code_completion_0,10,50,0.9,1.0,64,none,none,15.449839,4142.437985,64.725594,,26.325155,1.703911,8,64,56,4,4,80,0.7,0.5,0.5,7,8,222.275852,78.043083,1778.206813,624.344668
llama32_1b_to_31_8b,llama_cross,meta-llama/Llama-3.2-1B,meta-llama/Llama-3.1-8B,code_completion,code_completion_0,10,100,0.0,1.0,64,none,none,16.720219,4126.740283,59.80783,,29.192218,1.745923,8,69,61,3,5,80,0.7625,0.625,0.375,7.625,8.625,218.254381,73.424292,1746.035049,587.394338
llama32_1b_to_31_8b,llama_cross,meta-llama/Llama-3.2-1B,meta-llama/Llama-3.1-8B,code_completion,code_completion_0,10,100,0.9,1.0,64,none,none,17.352889,4149.165105,57.627293,,26.288298,1.514923,9,72,63,3,6,90,0.7,0.666667,0.333333,7,8,223.054395,77.774437,2007.489553,699.969929
llama32_1b_to_31_8b,llama_cross,meta-llama/Llama-3.2-1B,meta-llama/Llama-3.1-8B,code_completion,code_completion_0,10,150,0.0,1.0,64,none,none,16.712694,4128.598223,59.834757,,29.450331,1.762153,8,69,61,3,5,80,0.7625,0.625,0.375,7.625,8.625,215.783617,73.371628,1726.268938,586.973027
llama32_1b_to_31_8b,llama_cross,meta-llama/Llama-3.2-1B,meta-llama/Llama-3.1-8B,code_completion,code_completion_0,10,150,0.9,1.0,64,none,none,17.352062,4149.362741,57.630038,,26.057118,1.501673,9,72,63,3,6,90,0.7,0.666667,0.333333,7,8,225.694554,77.786035,2031.250983,700.074311
llama32_1b_to_31_8b,llama_cross,meta-llama/Llama-3.2-1B,meta-llama/Llama-3.1-8B,code_completion,code_completion_0,10,200,0.0,1.0,64,none,none,16.727696,4124.895732,59.781098,,28.93279,1.729634,8,69,61,3,5,80,0.7625,0.625,0.375,7.625,8.625,220.714308,73.58515,1765.714465,588.681199
llama32_1b_to_31_8b,llama_cross,meta-llama/Llama-3.2-1B,meta-llama/Llama-3.1-8B,code_completion,code_completion_0,10,200,0.9,1.0,64,none,none,17.598647,4148.0461,56.822549,,24.223867,1.376462,10,73,63,4,6,100,0.63,0.6,0.4,6.3,7.3,220.710386,77.350784,2207.103862,773.507836
llama32_1b_to_31_8b,llama_cross,meta-llama/Llama-3.2-1B,meta-llama/Llama-3.1-8B,code_completion,code_completion_1,4,50,0.0,1.0,64,none,none,15.769965,4121.759258,63.411681,,22.677262,1.438003,18,65,47,8,10,72,0.652778,0.555556,0.444444,2.611111,3.611111,87.974237,69.103024,1583.536266,1243.854425
llama32_1b_to_31_8b,llama_cross,meta-llama/Llama-3.2-1B,meta-llama/Llama-3.1-8B,code_completion,code_completion_1,4,50,0.9,1.0,64,none,none,16.390105,4148.844789,61.012423,,22.25913,1.358083,19,68,49,8,11,76,0.644737,0.578947,0.421053,2.578947,3.578947,87.842481,70.846115,1669.007142,1346.076182
llama32_1b_to_31_8b,llama_cross,meta-llama/Llama-3.2-1B,meta-llama/Llama-3.1-8B,code_completion,code_completion_1,4,100,0.0,1.0,64,none,none,15.530663,4120.880103,64.388752,,23.802419,1.532608,17,64,47,8,9,68,0.691176,0.529412,0.470588,2.764706,3.764706,86.844202,69.108112,1476.351434,1174.837906
llama32_1b_to_31_8b,llama_cross,meta-llama/Llama-3.2-1B,meta-llama/Llama-3.1-8B,code_completion,code_completion_1,4,100,0.9,1.0,64,none,none,16.193174,4137.54578,61.754415,,24.217928,1.495564,17,67,50,5,12,68,0.735294,0.705882,0.294118,2.941176,3.941176,89.495013,71.106401,1521.415229,1208.808825
llama32_1b_to_31_8b,llama_cross,meta-llama/Llama-3.2-1B,meta-llama/Llama-3.1-8B,code_completion,code_completion_1,4,150,0.0,1.0,64,none,none,15.756935,4125.167803,63.46412,,29.315513,1.860483,14,65,51,2,12,56,0.910714,0.857143,0.142857,3.642857,4.642857,86.801048,69.306293,1215.214672,970.288104
llama32_1b_to_31_8b,llama_cross,meta-llama/Llama-3.2-1B,meta-llama/Llama-3.1-8B,code_completion,code_completion_1,4,150,0.9,1.0,64,none,none,16.141349,4150.830199,61.95269,,24.100365,1.493082,17,67,50,5,12,68,0.735294,0.705882,0.294118,2.941176,3.941176,89.901423,71.476689,1528.324192,1215.103709
llama32_1b_to_31_8b,llama_cross,meta-llama/Llama-3.2-1B,meta-llama/Llama-3.1-8B,code_completion,code_completion_1,4,200,0.0,1.0,64,none,none,15.772323,4121.143123,63.402202,,29.302698,1.857856,14,65,51,2,12,56,0.910714,0.857143,0.142857,3.642857,4.642857,86.902962,69.275127,1216.641464,969.851778
llama32_1b_to_31_8b,llama_cross,meta-llama/Llama-3.2-1B,meta-llama/Llama-3.1-8B,code_completion,code_completion_1,4,200,0.9,1.0,64,none,none,16.165483,4144.633364,61.860199,,24.179485,1.495748,17,67,50,5,12,68,0.735294,0.705882,0.294118,2.941176,3.941176,89.70337,71.117063,1524.957298,1208.990065
llama32_1b_to_31_8b,llama_cross,meta-llama/Llama-3.2-1B,meta-llama/Llama-3.1-8B,code_completion,code_completion_1,6,50,0.0,1.0,64,none,none,16.491332,4123.378152,60.637914,,27.769775,1.683901,12,68,56,3,9,72,0.777778,0.75,0.25,4.666667,5.666667,131.038622,70.304715,1572.463465,843.656576
llama32_1b_to_31_8b,llama_cross,meta-llama/Llama-3.2-1B,meta-llama/Llama-3.1-8B,code_completion,code_completion_1,6,50,0.9,1.0,64,none,none,16.171889,4142.991481,61.835694,,24.801393,1.533611,13,67,54,5,8,78,0.692308,0.615385,0.384615,4.153846,5.153846,132.326039,72.868079,1720.238511,947.28503
llama32_1b_to_31_8b,llama_cross,meta-llama/Llama-3.2-1B,meta-llama/Llama-3.1-8B,code_completion,code_completion_1,6,100,0.0,1.0,64,none,none,15.761891,4123.870658,63.444164,,26.439754,1.677448,12,65,53,4,8,72,0.736111,0.666667,0.333333,4.416667,5.416667,131.88056,70.314865,1582.566716,843.778381
llama32_1b_to_31_8b,llama_cross,meta-llama/Llama-3.2-1B,meta-llama/Llama-3.1-8B,code_completion,code_completion_1,6,100,0.9,1.0,64,none,none,16.64337,4145.794986,60.083985,,23.798399,1.429903,14,69,55,7,7,84,0.654762,0.5,0.5,3.928571,4.928571,131.724795,72.748354,1844.147134,1018.476953
llama32_1b_to_31_8b,llama_cross,meta-llama/Llama-3.2-1B,meta-llama/Llama-3.1-8B,code_completion,code_completion_1,6,150,0.0,1.0,64,none,none,16.481586,4125.816596,60.673773,,33.371928,2.024801,10,68,58,1,9,60,0.966667,0.9,0.1,5.8,6.8,130.390328,70.448662,1303.903283,704.486621
llama32_1b_to_31_8b,llama_cross,meta-llama/Llama-3.2-1B,meta-llama/Llama-3.1-8B,code_completion,code_completion_1,6,150,0.9,1.0,64,none,none,16.648655,4144.478894,60.064912,,23.451394,1.408606,14,69,55,7,7,84,0.654762,0.5,0.5,3.928571,4.928571,134.710609,72.795625,1885.948528,1019.138749
llama32_1b_to_31_8b,llama_cross,meta-llama/Llama-3.2-1B,meta-llama/Llama-3.1-8B,code_completion,code_completion_1,6,200,0.0,1.0,64,none,none,16.494716,4122.532208,60.625474,,33.279262,2.017571,10,68,58,1,9,60,0.966667,0.9,0.1,5.8,6.8,130.713902,70.62448,1307.13902,706.244797
llama32_1b_to_31_8b,llama_cross,meta-llama/Llama-3.2-1B,meta-llama/Llama-3.1-8B,code_completion,code_completion_1,6,200,0.9,1.0,64,none,none,16.673269,4138.360539,59.97624,,20.874704,1.251986,16,69,53,9,7,96,0.552083,0.4375,0.5625,3.3125,4.3125,131.679501,72.495596,2106.872014,1159.929542
llama32_1b_to_31_8b,llama_cross,meta-llama/Llama-3.2-1B,meta-llama/Llama-3.1-8B,code_completion,code_completion_1,8,50,0.0,1.0,64,none,none,16.514097,4117.694131,60.554325,,27.623415,1.672717,10,68,58,3,7,80,0.725,0.7,0.3,5.8,6.8,171.84515,71.25336,1718.451503,712.533599
llama32_1b_to_31_8b,llama_cross,meta-llama/Llama-3.2-1B,meta-llama/Llama-3.1-8B,code_completion,code_completion_1,8,50,0.9,1.0,64,none,none,15.439038,4145.33588,64.770873,,21.339223,1.38216,12,64,52,9,3,96,0.541667,0.25,0.75,4.333333,5.333333,172.894617,74.18527,2074.735406,890.223246
llama32_1b_to_31_8b,llama_cross,meta-llama/Llama-3.2-1B,meta-llama/Llama-3.1-8B,code_completion,code_completion_1,8,100,0.0,1.0,64,none,none,16.033466,4116.389993,62.369545,,24.396698,1.521611,11,66,55,5,6,88,0.625,0.545455,0.454545,5,6,171.818241,71.200016,1890.000652,783.200177
llama32_1b_to_31_8b,llama_cross,meta-llama/Llama-3.2-1B,meta-llama/Llama-3.1-8B,code_completion,code_completion_1,8,100,0.9,1.0,64,none,none,16.651318,4143.816143,60.055306,,24.547121,1.474185,11,69,58,4,7,88,0.659091,0.636364,0.363636,5.272727,6.272727,178.007625,74.578952,1958.083878,820.368471
llama32_1b_to_31_8b,llama_cross,meta-llama/Llama-3.2-1B,meta-llama/Llama-3.1-8B,code_completion,code_completion_1,8,150,0.0,1.0,64,none,none,15.780227,4119.078994,63.370446,,25.944,1.644083,10,65,55,4,6,80,0.6875,0.6,0.4,5.5,6.5,175.939015,71.509624,1759.390155,715.096239
llama32_1b_to_31_8b,llama_cross,meta-llama/Llama-3.2-1B,meta-llama/Llama-3.1-8B,code_completion,code_completion_1,8,150,0.9,1.0,64,none,none,16.66589,4140.192903,60.002796,,25.007729,1.500534,11,69,58,4,7,88,0.659091,0.636364,0.363636,5.272727,6.272727,173.616569,74.353506,1909.782258,817.888569
llama32_1b_to_31_8b,llama_cross,meta-llama/Llama-3.2-1B,meta-llama/Llama-3.1-8B,code_completion,code_completion_1,8,200,0.0,1.0,64,none,none,15.769922,4121.770498,63.411854,,26.312349,1.668515,10,65,55,4,6,80,0.6875,0.6,0.4,5.5,6.5,172.662136,71.326583,1726.621363,713.265825
llama32_1b_to_31_8b,llama_cross,meta-llama/Llama-3.2-1B,meta-llama/Llama-3.1-8B,code_completion,code_completion_1,8,200,0.9,1.0,64,none,none,16.663727,4140.730311,60.010584,,22.756113,1.365608,12,69,57,6,6,96,0.59375,0.5,0.5,4.75,5.75,175.618033,74.248941,2107.416397,890.987296
llama32_1b_to_31_8b,llama_cross,meta-llama/Llama-3.2-1B,meta-llama/Llama-3.1-8B,code_completion,code_completion_1,10,50,0.0,1.0,64,none,none,17.220496,4122.993823,58.070336,,26.611105,1.545316,9,71,62,3,6,90,0.688889,0.666667,0.333333,6.888889,7.888889,220.2714,72.63092,1982.442596,653.678281
llama32_1b_to_31_8b,llama_cross,meta-llama/Llama-3.2-1B,meta-llama/Llama-3.1-8B,code_completion,code_completion_1,10,50,0.9,1.0,64,none,none,15.949579,4138.040375,62.697581,,20.0205,1.255237,11,66,55,8,3,110,0.5,0.272727,0.727273,5,6,220.421363,76.118462,2424.63499,837.303077
llama32_1b_to_31_8b,llama_cross,meta-llama/Llama-3.2-1B,meta-llama/Llama-3.1-8B,code_completion,code_completion_1,10,100,0.0,1.0,64,none,none,17.224352,4122.070816,58.057335,,27.081473,1.572278,9,71,62,3,6,90,0.688889,0.666667,0.333333,6.888889,7.888889,215.780311,72.114333,1942.022796,649.028999
llama32_1b_to_31_8b,llama_cross,meta-llama/Llama-3.2-1B,meta-llama/Llama-3.1-8B,code_completion,code_completion_1,10,100,0.9,1.0,64,none,none,17.116232,4148.109162,58.424073,,18.315747,1.070081,13,71,58,10,3,130,0.446154,0.230769,0.769231,4.461538,5.461538,219.870985,75.382377,2858.322803,979.970903
llama32_1b_to_31_8b,llama_cross,meta-llama/Llama-3.2-1B,meta-llama/Llama-3.1-8B,code_completion,code_completion_1,10,150,0.0,1.0,64,none,none,15.999651,4125.089962,62.501363,,31.831794,1.989531,7,66,59,2,5,70,0.842857,0.714286,0.285714,8.428571,9.428571,219.421826,72.786243,1535.952782,509.503702
llama32_1b_to_31_8b,llama_cross,meta-llama/Llama-3.2-1B,meta-llama/Llama-3.1-8B,code_completion,code_completion_1,10,150,0.9,1.0,64,none,none,17.134753,4143.625499,58.360923,,19.884061,1.160452,12,71,59,8,4,120,0.491667,0.333333,0.666667,4.916667,5.916667,218.901301,75.636491,2626.815608,907.637894
llama32_1b_to_31_8b,llama_cross,meta-llama/Llama-3.2-1B,meta-llama/Llama-3.1-8B,code_completion,code_completion_1,10,200,0.0,1.0,64,none,none,15.997683,4125.59749,62.509053,,31.630842,1.977214,7,66,59,2,5,70,0.842857,0.714286,0.285714,8.428571,9.428571,220.963519,72.897132,1546.744631,510.279926
llama32_1b_to_31_8b,llama_cross,meta-llama/Llama-3.2-1B,meta-llama/Llama-3.1-8B,code_completion,code_completion_1,10,200,0.9,1.0,64,none,none,17.131325,4144.454634,58.3726,,20.031041,1.169264,12,71,59,8,4,120,0.491667,0.333333,0.666667,4.916667,5.916667,216.84085,75.526871,2602.090195,906.32245
llama32_1b_to_31_8b,llama_cross,meta-llama/Llama-3.2-1B,meta-llama/Llama-3.1-8B,structured_extraction,structured_extraction_0,4,50,0.0,1.0,64,none,none,15.748538,4127.367124,63.497956,,31.143625,1.977557,13,65,52,0,13,52,1.0,1.0,0.0,4,5,88.371953,69.839149,1148.835391,907.908941
llama32_1b_to_31_8b,llama_cross,meta-llama/Llama-3.2-1B,meta-llama/Llama-3.1-8B,structured_extraction,structured_extraction_0,4,50,0.9,1.0,64,none,none,15.42405,4149.364151,64.833815,,25.497753,1.653117,15,64,49,5,10,60,0.816667,0.666667,0.333333,3.266667,4.266667,92.864098,72.115786,1392.961473,1081.736797
llama32_1b_to_31_8b,llama_cross,meta-llama/Llama-3.2-1B,meta-llama/Llama-3.1-8B,structured_extraction,structured_extraction_0,4,100,0.0,1.0,64,none,none,15.752155,4126.419606,63.483379,,31.025782,1.969621,13,65,52,0,13,52,1.0,1.0,0.0,4,5,88.938746,69.838517,1156.203693,907.900716
llama32_1b_to_31_8b,llama_cross,meta-llama/Llama-3.2-1B,meta-llama/Llama-3.1-8B,structured_extraction,structured_extraction_0,4,100,0.9,1.0,64,none,none,16.166935,4144.261078,61.854643,,28.764091,1.779193,14,67,53,2,12,56,0.946429,0.857143,0.142857,3.785714,4.785714,91.821683,72.181532,1285.503556,1010.541454
llama32_1b_to_31_8b,llama_cross,meta-llama/Llama-3.2-1B,meta-llama/Llama-3.1-8B,structured_extraction,structured_extraction_0,4,150,0.0,1.0,64,none,none,15.752581,4126.307959,63.481661,,30.972246,1.96617,13,65,52,0,13,52,1.0,1.0,0.0,4,5,89.240767,69.851636,1160.129972,908.071274
llama32_1b_to_31_8b,llama_cross,meta-llama/Llama-3.2-1B,meta-llama/Llama-3.1-8B,structured_extraction,structured_extraction_0,4,150,0.9,1.0,64,none,none,15.647862,4153.922162,63.906495,,28.027456,1.791136,14,65,51,2,12,56,0.910714,0.857143,0.142857,3.642857,4.642857,91.210084,72.125609,1276.941181,1009.758528
llama32_1b_to_31_8b,llama_cross,meta-llama/Llama-3.2-1B,meta-llama/Llama-3.1-8B,structured_extraction,structured_extraction_0,4,200,0.0,1.0,64,none,none,16.228376,4128.570879,61.620461,,29.823943,1.837765,14,67,53,1,13,56,0.946429,0.928571,0.071429,3.785714,4.785714,88.425327,69.735401,1237.954577,976.295617
llama32_1b_to_31_8b,llama_cross,meta-llama/Llama-3.2-1B,meta-llama/Llama-3.1-8B,structured_extraction,structured_extraction_0,4,200,0.9,1.0,64,none,none,15.659289,4150.890872,63.85986,,28.090845,1.793877,14,65,51,2,12,56,0.910714,0.857143,0.142857,3.642857,4.642857,90.838886,72.131405,1271.744405,1009.839676
llama32_1b_to_31_8b,llama_cross,meta-llama/Llama-3.2-1B,meta-llama/Llama-3.1-8B,structured_extraction,structured_extraction_0,6,50,0.0,1.0,64,none,none,15.76458,4123.16728,63.433343,,28.778007,1.825485,11,65,54,2,9,66,0.818182,0.818182,0.181818,4.909091,5.909091,131.629116,70.942725,1447.920275,780.36998
llama32_1b_to_31_8b,llama_cross,meta-llama/Llama-3.2-1B,meta-llama/Llama-3.1-8B,structured_extraction,structured_extraction_0,6,50,0.9,1.0,64,none,none,16.144557,4150.005412,61.940379,,26.636471,1.649873,12,67,55,3,9,72,0.763889,0.75,0.25,4.583333,5.583333,133.18995,73.774063,1598.279404,885.28876
llama32_1b_to_31_8b,llama_cross,meta-llama/Llama-3.2-1B,meta-llama/Llama-3.1-8B,structured_extraction,structured_extraction_0,6,100,0.0,1.0,64,none,none,15.525424,4122.270688,64.410479,,31.074058,2.001495,10,64,54,2,8,60,0.9,0.8,0.2,5.4,6.4,131.855114,71.15254,1318.551144,711.525401
llama32_1b_to_31_8b,llama_cross,meta-llama/Llama-3.2-1B,meta-llama/Llama-3.1-8B,structured_extraction,structured_extraction_0,6,100,0.9,1.0,64,none,none,15.655233,4151.966441,63.876407,,27.918684,1.783345,11,65,54,2,9,66,0.818182,0.818182,0.181818,4.909091,5.909091,134.818768,74.094086,1483.006446,815.034948
llama32_1b_to_31_8b,llama_cross,meta-llama/Llama-3.2-1B,meta-llama/Llama-3.1-8B,structured_extraction,structured_extraction_0,6,150,0.0,1.0,64,none,none,15.513712,4125.382863,64.459107,,30.975503,1.996653,10,64,54,1,9,60,0.9,0.9,0.1,5.4,6.4,132.621407,71.134447,1326.214073,711.344467
llama32_1b_to_31_8b,llama_cross,meta-llama/Llama-3.2-1B,meta-llama/Llama-3.1-8B,structured_extraction,structured_extraction_0,6,150,0.9,1.0,64,none,none,15.655764,4151.825415,63.874237,,27.7446,1.772165,11,65,54,2,9,66,0.818182,0.818182,0.181818,4.909091,5.909091,135.319454,74.891363,1488.513999,823.804995
llama32_1b_to_31_8b,llama_cross,meta-llama/Llama-3.2-1B,meta-llama/Llama-3.1-8B,structured_extraction,structured_extraction_0,6,200,0.0,1.0,64,none,none,15.505731,4127.506147,64.492284,,31.116627,2.006782,10,64,54,1,9,60,0.9,0.9,0.1,5.4,6.4,131.689862,71.086804,1316.898616,710.868042
llama32_1b_to_31_8b,llama_cross,meta-llama/Llama-3.2-1B,meta-llama/Llama-3.1-8B,structured_extraction,structured_extraction_0,6,200,0.9,1.0,64,none,none,16.609992,4154.126124,60.204726,,27.065175,1.629451,12,69,57,3,9,72,0.791667,0.75,0.25,4.75,5.75,135.732832,73.95544,1628.793985,887.465277
llama32_1b_to_31_8b,llama_cross,meta-llama/Llama-3.2-1B,meta-llama/Llama-3.1-8B,structured_extraction,structured_extraction_0,8,50,0.0,1.0,64,none,none,17.417224,4133.838962,57.41443,,35.572368,2.042367,8,72,64,0,8,64,1.0,1.0,0.0,8,9,176.658456,72.601984,1413.267645,580.815873
llama32_1b_to_31_8b,llama_cross,meta-llama/Llama-3.2-1B,meta-llama/Llama-3.1-8B,structured_extraction,structured_extraction_0,8,50,0.9,1.0,64,none,none,16.155368,4147.228432,61.898932,,32.155362,1.990383,8,67,59,1,7,64,0.921875,0.875,0.125,7.375,8.375,180.236899,76.706294,1441.895194,613.650356
llama32_1b_to_31_8b,llama_cross,meta-llama/Llama-3.2-1B,meta-llama/Llama-3.1-8B,structured_extraction,structured_extraction_0,8,100,0.0,1.0,64,none,none,16.948599,4130.134806,59.001926,,34.768825,2.051428,8,70,62,1,7,64,0.96875,0.875,0.125,7.75,8.75,175.559504,72.463612,1404.476032,579.708898
llama32_1b_to_31_8b,llama_cross,meta-llama/Llama-3.2-1B,meta-llama/Llama-3.1-8B,structured_extraction,structured_extraction_0,8,100,0.9,1.0,64,none,none,16.625644,4150.215082,60.148045,,29.207009,1.756744,9,69,60,3,6,72,0.833333,0.666667,0.333333,6.666667,7.666667,182.539509,76.434426,1642.855577,687.909836
llama32_1b_to_31_8b,llama_cross,meta-llama/Llama-3.2-1B,meta-llama/Llama-3.1-8B,structured_extraction,structured_extraction_0,8,150,0.0,1.0,64,none,none,16.735749,4122.910876,59.752332,,34.527442,2.063095,8,69,61,1,7,64,0.953125,0.875,0.125,7.625,8.625,173.739147,72.460633,1389.913179,579.685066
llama32_1b_to_31_8b,llama_cross,meta-llama/Llama-3.2-1B,meta-llama/Llama-3.1-8B,structured_extraction,structured_extraction_0,8,150,0.9,1.0,64,none,none,16.883072,4146.164749,59.230925,,33.770817,2.000277,8,70,62,1,7,64,0.96875,0.875,0.125,7.75,8.75,178.537242,76.888599,1428.297935,615.108796
llama32_1b_to_31_8b,llama_cross,meta-llama/Llama-3.2-1B,meta-llama/Llama-3.1-8B,structured_extraction,structured_extraction_0,8,200,0.0,1.0,64,none,none,16.2405,4125.488664,61.574458,,33.514622,2.063645,8,67,59,2,6,64,0.921875,0.75,0.25,7.375,8.375,173.881033,72.360937,1391.048267,578.887493
llama32_1b_to_31_8b,llama_cross,meta-llama/Llama-3.2-1B,meta-llama/Llama-3.1-8B,structured_extraction,structured_extraction_0,8,200,0.9,1.0,64,none,none,16.860454,4151.726796,59.310383,,33.869696,2.008825,8,70,62,1,7,64,0.96875,0.875,0.125,7.75,8.75,178.089218,76.5589,1424.713747,612.471203
llama32_1b_to_31_8b,llama_cross,meta-llama/Llama-3.2-1B,meta-llama/Llama-3.1-8B,structured_extraction,structured_extraction_0,10,50,0.0,1.0,64,none,none,15.749398,4127.141898,63.494491,,27.733784,1.760942,8,65,57,4,4,80,0.7125,0.5,0.5,7.125,8.125,215.882766,73.313416,1727.062127,586.507327
llama32_1b_to_31_8b,llama_cross,meta-llama/Llama-3.2-1B,meta-llama/Llama-3.1-8B,structured_extraction,structured_extraction_0,10,50,0.9,1.0,64,none,none,15.389313,4158.730081,64.980158,,30.281901,1.967723,7,64,57,2,5,70,0.814286,0.714286,0.285714,8.142857,9.142857,219.339006,78.681648,1535.373042,550.771534
llama32_1b_to_31_8b,llama_cross,meta-llama/Llama-3.2-1B,meta-llama/Llama-3.1-8B,structured_extraction,structured_extraction_0,10,100,0.0,1.0,64,none,none,15.99795,4125.528617,62.508009,,37.737213,2.358878,6,66,60,0,6,60,1.0,1.0,0.0,10,11,213.210029,74.078771,1279.260172,444.472624
llama32_1b_to_31_8b,llama_cross,meta-llama/Llama-3.2-1B,meta-llama/Llama-3.1-8B,structured_extraction,structured_extraction_0,10,100,0.9,1.0,64,none,none,15.654792,4152.083374,63.878206,,23.728667,1.515745,9,65,56,5,4,90,0.622222,0.444444,0.555556,6.222222,7.222222,223.424282,77.540767,2010.81854,697.866901
llama32_1b_to_31_8b,llama_cross,meta-llama/Llama-3.2-1B,meta-llama/Llama-3.1-8B,structured_extraction,structured_extraction_0,10,150,0.0,1.0,64,none,none,15.975997,4131.197519,62.593902,,36.686577,2.296356,6,66,60,0,6,60,1.0,1.0,0.0,10,11,221.175776,74.31859,1327.054654,445.91154
llama32_1b_to_31_8b,llama_cross,meta-llama/Llama-3.2-1B,meta-llama/Llama-3.1-8B,structured_extraction,structured_extraction_0,10,150,0.9,1.0,64,none,none,16.134284,4152.647798,61.979818,,31.130761,1.929479,7,67,60,2,5,70,0.857143,0.714286,0.285714,8.571429,9.571429,224.349865,78.909466,1570.449053,552.366265
llama32_1b_to_31_8b,llama_cross,meta-llama/Llama-3.2-1B,meta-llama/Llama-3.1-8B,structured_extraction,structured_extraction_0,10,200,0.0,1.0,64,none,none,15.987829,4128.140219,62.547579,,36.517743,2.284096,6,66,60,0,6,60,1.0,1.0,0.0,10,11,222.462068,74.392775,1334.772406,446.356649
llama32_1b_to_31_8b,llama_cross,meta-llama/Llama-3.2-1B,meta-llama/Llama-3.1-8B,structured_extraction,structured_extraction_0,10,200,0.9,1.0,64,none,none,15.898211,4151.410623,62.900161,,35.972089,2.26265,6,66,60,0,6,60,1.0,1.0,0.0,10,11,222.107496,79.458246,1332.644977,476.749473
llama32_1b_to_31_8b,llama_cross,meta-llama/Llama-3.2-1B,meta-llama/Llama-3.1-8B,structured_extraction,structured_extraction_1,4,50,0.0,1.0,64,none,none,15.737112,4130.363934,63.544061,,30.420539,1.933045,13,65,52,0,13,52,1.0,1.0,0.0,4,5,91.569118,70.383142,1190.398534,914.98085
llama32_1b_to_31_8b,llama_cross,meta-llama/Llama-3.2-1B,meta-llama/Llama-3.1-8B,structured_extraction,structured_extraction_1,4,50,0.9,1.0,64,none,none,15.416688,4151.345512,64.864774,,24.216144,1.570775,16,64,48,7,9,64,0.75,0.5625,0.4375,3,4,90.866384,72.045784,1453.862143,1152.732537
llama32_1b_to_31_8b,llama_cross,meta-llama/Llama-3.2-1B,meta-llama/Llama-3.1-8B,structured_extraction,structured_extraction_1,4,100,0.0,1.0,64,none,none,15.735732,4130.726104,63.549632,,31.00836,1.97057,13,65,52,0,13,52,1.0,1.0,0.0,4,5,88.850258,70.030014,1155.053356,910.390181
llama32_1b_to_31_8b,llama_cross,meta-llama/Llama-3.2-1B,meta-llama/Llama-3.1-8B,structured_extraction,structured_extraction_1,4,100,0.9,1.0,64,none,none,16.380924,4151.169913,61.046616,,24.185343,1.476433,17,68,51,5,12,68,0.75,0.705882,0.294118,3,4,91.274325,71.913847,1551.663531,1222.535394
llama32_1b_to_31_8b,llama_cross,meta-llama/Llama-3.2-1B,meta-llama/Llama-3.1-8B,structured_extraction,structured_extraction_1,4,150,0.0,1.0,64,none,none,15.734245,4131.116552,63.555639,,31.085327,1.975648,13,65,52,0,13,52,1.0,1.0,0.0,4,5,88.416695,70.089506,1149.417029,911.163579
llama32_1b_to_31_8b,llama_cross,meta-llama/Llama-3.2-1B,meta-llama/Llama-3.1-8B,structured_extraction,structured_extraction_1,4,150,0.9,1.0,64,none,none,15.886909,4154.36395,62.944908,,22.43529,1.412187,18,66,48,8,10,72,0.666667,0.555556,0.444444,2.666667,3.666667,89.511843,71.771797,1611.213173,1291.892351
llama32_1b_to_31_8b,llama_cross,meta-llama/Llama-3.2-1B,meta-llama/Llama-3.1-8B,structured_extraction,structured_extraction_1,4,200,0.0,1.0,64,none,none,15.739602,4129.710638,63.53401,,30.931211,1.965184,13,65,52,0,13,52,1.0,1.0,0.0,4,5,89.180978,70.070679,1159.352712,910.918829
llama32_1b_to_31_8b,llama_cross,meta-llama/Llama-3.2-1B,meta-llama/Llama-3.1-8B,structured_extraction,structured_extraction_1,4,200,0.9,1.0,64,none,none,15.42264,4149.743391,64.83974,,24.423736,1.583629,16,64,48,6,10,64,0.75,0.625,0.375,3,4,89.573103,71.983556,1433.169653,1151.7369
llama32_1b_to_31_8b,llama_cross,meta-llama/Llama-3.2-1B,meta-llama/Llama-3.1-8B,structured_extraction,structured_extraction_1,6,50,0.0,1.0,64,none,none,16.980374,4122.406142,58.891516,,34.040422,2.004692,10,70,60,0,10,60,1.0,1.0,0.0,6,7,131.256978,71.403563,1312.569784,714.03563
llama32_1b_to_31_8b,llama_cross,meta-llama/Llama-3.2-1B,meta-llama/Llama-3.1-8B,structured_extraction,structured_extraction_1,6,50,0.9,1.0,64,none,none,15.412991,4152.341243,64.880332,,27.602733,1.790874,11,64,53,4,7,66,0.80303,0.636364,0.363636,4.818182,5.818182,133.627831,74.340638,1469.906141,817.74702
llama32_1b_to_31_8b,llama_cross,meta-llama/Llama-3.2-1B,meta-llama/Llama-3.1-8B,structured_extraction,structured_extraction_1,6,100,0.0,1.0,64,none,none,16.950402,4129.695458,58.995649,,33.711315,1.988821,10,70,60,0,10,60,1.0,1.0,0.0,6,7,133.195233,71.454963,1331.952334,714.549635
llama32_1b_to_31_8b,llama_cross,meta-llama/Llama-3.2-1B,meta-llama/Llama-3.1-8B,structured_extraction,structured_extraction_1,6,100,0.9,1.0,64,none,none,15.637876,4156.574671,63.947303,,28.024036,1.792062,11,65,54,4,7,66,0.818182,0.636364,0.363636,4.909091,5.909091,133.645341,74.36482,1470.09875,818.01302
llama32_1b_to_31_8b,llama_cross,meta-llama/Llama-3.2-1B,meta-llama/Llama-3.1-8B,structured_extraction,structured_extraction_1,6,150,0.0,1.0,64,none,none,15.49922,4129.23999,64.519375,,31.081308,2.005347,10,64,54,2,8,60,0.9,0.8,0.2,5.4,6.4,131.431418,71.513958,1314.314183,715.139578
llama32_1b_to_31_8b,llama_cross,meta-llama/Llama-3.2-1B,meta-llama/Llama-3.1-8B,structured_extraction,structured_extraction_1,6,150,0.9,1.0,64,none,none,15.646467,4154.292591,63.912194,,25.794086,1.648557,12,65,53,5,7,72,0.736111,0.583333,0.416667,4.416667,5.416667,133.11536,74.123333,1597.384321,889.479996
llama32_1b_to_31_8b,llama_cross,meta-llama/Llama-3.2-1B,meta-llama/Llama-3.1-8B,structured_extraction,structured_extraction_1,6,200,0.0,1.0,64,none,none,16.227571,4128.775658,61.623517,,32.536071,2.004987,10,67,57,2,8,60,0.95,0.8,0.2,5.7,6.7,131.462471,71.447493,1314.624712,714.474929
llama32_1b_to_31_8b,llama_cross,meta-llama/Llama-3.2-1B,meta-llama/Llama-3.1-8B,structured_extraction,structured_extraction_1,6,200,0.9,1.0,64,none,none,15.658395,4151.127799,63.863505,,25.680811,1.640067,12,65,53,5,7,72,0.736111,0.583333,0.416667,4.416667,5.416667,134.042651,74.169429,1608.511815,890.033153
llama32_1b_to_31_8b,llama_cross,meta-llama/Llama-3.2-1B,meta-llama/Llama-3.1-8B,structured_extraction,structured_extraction_1,8,50,0.0,1.0,64,none,none,15.503584,4128.077822,64.501216,,31.738638,2.047181,8,64,56,2,6,64,0.875,0.75,0.25,7,8,175.533938,73.011917,1404.271503,584.095333
llama32_1b_to_31_8b,llama_cross,meta-llama/Llama-3.2-1B,meta-llama/Llama-3.1-8B,structured_extraction,structured_extraction_1,8,50,0.9,1.0,64,none,none,16.633283,4148.309165,60.120423,,27.019872,1.624446,10,69,59,4,6,80,0.7375,0.6,0.4,5.9,6.9,176.145638,76.049922,1761.456384,760.499219
llama32_1b_to_31_8b,llama_cross,meta-llama/Llama-3.2-1B,meta-llama/Llama-3.1-8B,structured_extraction,structured_extraction_1,8,100,0.0,1.0,64,none,none,17.429761,4130.865576,57.373133,,32.073077,1.840133,9,72,63,2,7,72,0.875,0.777778,0.222222,7,8,173.50402,72.48275,1561.536181,652.34475
llama32_1b_to_31_8b,llama_cross,meta-llama/Llama-3.2-1B,meta-llama/Llama-3.1-8B,structured_extraction,structured_extraction_1,8,100,0.9,1.0,64,none,none,15.429216,4147.974824,64.812107,,30.992413,2.008684,8,64,56,2,6,64,0.875,0.75,0.25,7,8,177.573933,77.091797,1420.591467,616.734372
llama32_1b_to_31_8b,llama_cross,meta-llama/Llama-3.2-1B,meta-llama/Llama-3.1-8B,structured_extraction,structured_extraction_1,8,150,0.0,1.0,64,none,none,17.43789,4128.939902,57.346388,,31.862245,1.827185,9,72,63,2,7,72,0.875,0.777778,0.222222,7,8,174.941872,72.635745,1574.476849,653.721709
llama32_1b_to_31_8b,llama_cross,meta-llama/Llama-3.2-1B,meta-llama/Llama-3.1-8B,structured_extraction,structured_extraction_1,8,150,0.9,1.0,64,none,none,15.415491,4151.667964,64.869812,,22.74209,1.475275,11,64,53,6,5,88,0.602273,0.454545,0.545455,4.818182,5.818182,176.998922,75.864158,1946.988141,834.50574
llama32_1b_to_31_8b,llama_cross,meta-llama/Llama-3.2-1B,meta-llama/Llama-3.1-8B,structured_extraction,structured_extraction_1,8,200,0.0,1.0,64,none,none,16.24146,4125.24487,61.570819,,29.523068,1.817759,9,67,58,3,6,72,0.805556,0.666667,0.333333,6.444444,7.444444,176.363955,72.456157,1587.275592,652.10541
llama32_1b_to_31_8b,llama_cross,meta-llama/Llama-3.2-1B,meta-llama/Llama-3.1-8B,structured_extraction,structured_extraction_1,8,200,0.9,1.0,64,none,none,15.419088,4150.699386,64.854678,,30.74824,1.994167,8,64,56,2,6,64,0.875,0.75,0.25,7,8,179.542361,77.16279,1436.338887,617.302322
llama32_1b_to_31_8b,llama_cross,meta-llama/Llama-3.2-1B,meta-llama/Llama-3.1-8B,structured_extraction,structured_extraction_1,10,50,0.0,1.0,64,none,none,17.196656,4128.709656,58.15084,,26.918116,1.565311,9,71,62,4,5,90,0.688889,0.555556,0.444444,6.888889,7.888889,216.075027,73.336299,1944.675245,660.026688
llama32_1b_to_31_8b,llama_cross,meta-llama/Llama-3.2-1B,meta-llama/Llama-3.1-8B,structured_extraction,structured_extraction_1,10,50,0.9,1.0,64,none,none,16.608745,4154.437963,60.209246,,25.311162,1.523966,9,69,60,5,4,90,0.666667,0.444444,0.555556,6.666667,7.666667,221.622752,77.744163,1994.604767,699.697466
llama32_1b_to_31_8b,llama_cross,meta-llama/Llama-3.2-1B,meta-llama/Llama-3.1-8B,structured_extraction,structured_extraction_1,10,100,0.0,1.0,64,none,none,16.485294,4124.888531,60.660125,,25.736878,1.561202,9,68,59,6,3,90,0.655556,0.333333,0.666667,6.555556,7.555556,216.762574,73.192544,1950.863167,658.732894
llama32_1b_to_31_8b,llama_cross,meta-llama/Llama-3.2-1B,meta-llama/Llama-3.1-8B,structured_extraction,structured_extraction_1,10,100,0.9,1.0,64,none,none,17.101386,4151.710391,58.474794,,21.301129,1.245579,11,71,60,6,5,110,0.545455,0.454545,0.545455,5.454545,6.454545,222.823009,77.106255,2451.053103,848.168805
llama32_1b_to_31_8b,llama_cross,meta-llama/Llama-3.2-1B,meta-llama/Llama-3.1-8B,structured_extraction,structured_extraction_1,10,150,0.0,1.0,64,none,none,15.500831,4128.810769,64.512668,,30.790981,1.986408,7,64,57,2,5,70,0.814286,0.714286,0.285714,8.142857,9.142857,219.05847,74.025923,1533.409293,518.181464
llama32_1b_to_31_8b,llama_cross,meta-llama/Llama-3.2-1B,meta-llama/Llama-3.1-8B,structured_extraction,structured_extraction_1,10,150,0.9,1.0,64,none,none,17.115085,4148.387315,58.42799,,33.341228,1.948061,7,71,64,2,5,70,0.914286,0.714286,0.285714,9.142857,10.142857,221.201822,78.897918,1548.412752,552.285425
llama32_1b_to_31_8b,llama_cross,meta-llama/Llama-3.2-1B,meta-llama/Llama-3.1-8B,structured_extraction,structured_extraction_1,10,200,0.0,1.0,64,none,none,15.708149,4137.979627,63.661225,,27.785793,1.768878,8,65,57,4,4,80,0.7125,0.5,0.5,7.125,8.125,215.228449,73.53808,1721.827589,588.304643
llama32_1b_to_31_8b,llama_cross,meta-llama/Llama-3.2-1B,meta-llama/Llama-3.1-8B,structured_extraction,structured_extraction_1,10,200,0.9,1.0,64,none,none,17.595867,4148.701501,56.831527,,34.231261,1.945415,7,73,66,1,6,70,0.942857,0.857143,0.142857,9.428571,10.428571,221.566489,78.951487,1550.965426,552.660409
