aXce1-z/LLMSpeculativeSampling-model-pair-search-v2/outputs/run_20260313_090313_none_int8/trial_results.csv
pair_name,family,approx_model_name,target_model_name,task,prompt_id,gamma,top_k,top_p,temperature,max_tokens,approx_quant,target_quant,baseline_large_tps,baseline_large_elapsed_ms,avg_target_baseline_generate_ms_per_token,baseline_small_tps,speculative_tps,speedup,rounds,generated_tokens,accepted_count,resample_count,target_sample_count,proposed_draft_tokens,acceptance_rate,all_accept_round_rate,resample_round_rate,avg_accepted_per_round,avg_contributed_per_round,avg_draft_generate_ms_per_round,avg_target_verify_ms_per_round,draft_generate_ms_total,target_verify_ms_total
llama32_1b_to_31_8b,llama_cross,meta-llama/Llama-3.2-1B,meta-llama/Llama-3.1-8B,continuation,continuation_0,4,50,0.0,1.0,64,none,int8,6.911534,9259.884018,144.685688,,17.676832,2.557585,14,64,50,3,11,56,0.892857,0.785714,0.214286,3.571429,4.571429,84.697473,171.649443,1185.764619,2403.092207
llama32_1b_to_31_8b,llama_cross,meta-llama/Llama-3.2-1B,meta-llama/Llama-3.1-8B,continuation,continuation_0,4,50,0.9,1.0,64,none,int8,7.028788,9247.681938,142.27203,,17.298803,2.461136,14,65,51,2,12,56,0.910714,0.857143,0.142857,3.642857,4.642857,88.615701,177.545415,1240.619818,2485.635814
llama32_1b_to_31_8b,llama_cross,meta-llama/Llama-3.2-1B,meta-llama/Llama-3.1-8B,continuation,continuation_0,4,100,0.0,1.0,64,none,int8,6.984689,9162.898824,143.170294,,17.645125,2.526258,14,64,50,3,11,56,0.892857,0.785714,0.214286,3.571429,4.571429,83.902237,172.940605,1174.63132,2421.168474
llama32_1b_to_31_8b,llama_cross,meta-llama/Llama-3.2-1B,meta-llama/Llama-3.1-8B,continuation,continuation_0,4,100,0.9,1.0,64,none,int8,7.051178,9218.317836,141.820274,,16.382092,2.323313,15,65,50,4,11,60,0.833333,0.733333,0.266667,3.333333,4.333333,86.248684,176.051039,1293.730267,2640.765578
llama32_1b_to_31_8b,llama_cross,meta-llama/Llama-3.2-1B,meta-llama/Llama-3.1-8B,continuation,continuation_0,4,150,0.0,1.0,64,none,int8,7.261915,9226.215988,137.704716,,18.258267,2.514249,14,67,53,2,12,56,0.946429,0.857143,0.142857,3.785714,4.785714,84.718371,175.128244,1186.057192,2451.795417
llama32_1b_to_31_8b,llama_cross,meta-llama/Llama-3.2-1B,meta-llama/Llama-3.1-8B,continuation,continuation_0,4,150,0.9,1.0,64,none,int8,7.172127,9202.291417,139.428658,,17.716969,2.470253,14,66,52,2,12,56,0.928571,0.857143,0.142857,3.714286,4.714286,87.196884,176.574806,1220.756383,2472.047291
llama32_1b_to_31_8b,llama_cross,meta-llama/Llama-3.2-1B,meta-llama/Llama-3.1-8B,continuation,continuation_0,4,200,0.0,1.0,64,none,int8,7.302823,8900.667989,136.933354,,18.016159,2.467013,14,65,51,2,12,56,0.910714,0.857143,0.142857,3.642857,4.642857,84.492096,171.008763,1182.889348,2394.122685
llama32_1b_to_31_8b,llama_cross,meta-llama/Llama-3.2-1B,meta-llama/Llama-3.1-8B,continuation,continuation_0,4,200,0.9,1.0,64,none,int8,7.401454,9187.38351,135.108581,,18.356067,2.480062,14,68,54,1,13,56,0.964286,0.928571,0.071429,3.857143,4.857143,86.891306,175.481705,1216.478278,2456.743876
llama32_1b_to_31_8b,llama_cross,meta-llama/Llama-3.2-1B,meta-llama/Llama-3.1-8B,continuation,continuation_0,6,50,0.0,1.0,64,none,int8,7.367705,9093.740906,135.727476,,18.405366,2.498114,12,67,55,4,8,72,0.763889,0.666667,0.333333,4.583333,5.583333,124.955871,175.776649,1499.470456,2109.31979
llama32_1b_to_31_8b,llama_cross,meta-llama/Llama-3.2-1B,meta-llama/Llama-3.1-8B,continuation,continuation_0,6,50,0.9,1.0,64,none,int8,7.352646,9248.371026,136.005456,,16.692002,2.270203,13,68,55,5,8,78,0.705128,0.615385,0.384615,4.230769,5.230769,130.029147,180.790098,1690.378912,2350.271277
llama32_1b_to_31_8b,llama_cross,meta-llama/Llama-3.2-1B,meta-llama/Llama-3.1-8B,continuation,continuation_0,6,100,0.0,1.0,64,none,int8,7.00231,9139.840409,142.810006,,21.232035,3.032147,10,64,54,2,8,60,0.9,0.8,0.2,5.4,6.4,123.551141,175.117628,1235.511406,1751.17628
llama32_1b_to_31_8b,llama_cross,meta-llama/Llama-3.2-1B,meta-llama/Llama-3.1-8B,continuation,continuation_0,6,100,0.9,1.0,64,none,int8,6.936754,9226.216693,144.159636,,17.372548,2.50442,12,64,52,6,6,72,0.722222,0.5,0.5,4.333333,5.333333,127.906696,176.425369,1534.880356,2117.104433
llama32_1b_to_31_8b,llama_cross,meta-llama/Llama-3.2-1B,meta-llama/Llama-3.1-8B,continuation,continuation_0,6,150,0.0,1.0,64,none,int8,6.986303,9160.781661,143.137213,,20.978878,3.002858,10,64,54,2,8,60,0.9,0.8,0.2,5.4,6.4,125.305101,176.921724,1253.051008,1769.21724
llama32_1b_to_31_8b,llama_cross,meta-llama/Llama-3.2-1B,meta-llama/Llama-3.1-8B,continuation,continuation_0,6,150,0.9,1.0,64,none,int8,7.591779,9220.499945,131.721428,,16.249376,2.140391,14,70,56,7,7,84,0.666667,0.5,0.5,4,5,127.508221,177.65888,1785.115091,2487.224325
llama32_1b_to_31_8b,llama_cross,meta-llama/Llama-3.2-1B,meta-llama/Llama-3.1-8B,continuation,continuation_0,6,200,0.0,1.0,64,none,int8,7.414328,8901.68359,134.873994,,18.207868,2.455768,12,66,54,3,9,72,0.75,0.75,0.25,4.5,5.5,123.793944,175.756963,1485.527322,2109.083553
llama32_1b_to_31_8b,llama_cross,meta-llama/Llama-3.2-1B,meta-llama/Llama-3.1-8B,continuation,continuation_0,6,200,0.9,1.0,64,none,int8,7.181965,9189.6856,139.237661,,15.346149,2.136762,14,66,52,7,7,84,0.619048,0.5,0.5,3.714286,4.714286,127.692981,177.034424,1787.701729,2478.481939
llama32_1b_to_31_8b,llama_cross,meta-llama/Llama-3.2-1B,meta-llama/Llama-3.1-8B,continuation,continuation_0,8,50,0.0,1.0,64,none,int8,7.018827,9118.333145,142.473955,,19.626104,2.796209,9,64,55,4,5,72,0.763889,0.555556,0.444444,6.111111,7.111111,164.888988,194.285444,1484.000888,1748.568994
llama32_1b_to_31_8b,llama_cross,meta-llama/Llama-3.2-1B,meta-llama/Llama-3.1-8B,continuation,continuation_0,8,50,0.9,1.0,64,none,int8,7.401949,9186.769403,135.09955,,18.345291,2.478441,10,68,58,4,6,80,0.725,0.6,0.4,5.8,6.8,170.596891,196.970578,1705.968909,1969.705784
llama32_1b_to_31_8b,llama_cross,meta-llama/Llama-3.2-1B,meta-llama/Llama-3.1-8B,continuation,continuation_0,8,100,0.0,1.0,64,none,int8,6.928593,9237.085307,144.329458,,21.527769,3.107091,8,64,56,2,6,64,0.875,0.75,0.25,7,8,170.882387,197.363676,1367.059093,1578.909408
llama32_1b_to_31_8b,llama_cross,meta-llama/Llama-3.2-1B,meta-llama/Llama-3.1-8B,continuation,continuation_0,8,100,0.9,1.0,64,none,int8,7.349125,9252.801709,136.070613,,18.52235,2.520348,10,68,58,5,5,80,0.725,0.5,0.5,5.8,6.8,168.795753,195.210369,1687.957532,1952.103694
llama32_1b_to_31_8b,llama_cross,meta-llama/Llama-3.2-1B,meta-llama/Llama-3.1-8B,continuation,continuation_0,8,150,0.0,1.0,64,none,int8,7.345487,9257.385117,136.138016,,20.577396,2.801366,9,68,59,4,5,72,0.819444,0.555556,0.444444,6.555556,7.555556,167.323901,196.519366,1505.915113,1768.674295
llama32_1b_to_31_8b,llama_cross,meta-llama/Llama-3.2-1B,meta-llama/Llama-3.1-8B,continuation,continuation_0,8,150,0.9,1.0,64,none,int8,7.109787,9282.97881,140.651194,,18.083837,2.543513,10,66,56,5,5,80,0.7,0.5,0.5,5.6,6.6,168.860507,193.092361,1688.605074,1930.923611
llama32_1b_to_31_8b,llama_cross,meta-llama/Llama-3.2-1B,meta-llama/Llama-3.1-8B,continuation,continuation_0,8,200,0.0,1.0,64,none,int8,7.821549,8949.634163,127.851917,,21.643029,2.767103,9,70,61,2,7,72,0.847222,0.777778,0.222222,6.777778,7.777778,165.576732,190.590265,1490.190584,1715.312383
llama32_1b_to_31_8b,llama_cross,meta-llama/Llama-3.2-1B,meta-llama/Llama-3.1-8B,continuation,continuation_0,8,200,0.9,1.0,64,none,int8,7.334147,9135.350202,136.34851,,22.338179,3.045777,8,67,59,1,7,64,0.921875,0.875,0.125,7.375,8.375,171.372072,199.990649,1370.976577,1599.925191
llama32_1b_to_31_8b,llama_cross,meta-llama/Llama-3.2-1B,meta-llama/Llama-3.1-8B,continuation,continuation_0,10,50,0.0,1.0,64,none,int8,7.640404,9161.818791,130.883126,,19.501241,2.552383,9,70,61,5,4,90,0.677778,0.444444,0.555556,6.777778,7.777778,203.678966,191.772717,1833.11069,1725.954451
llama32_1b_to_31_8b,llama_cross,meta-llama/Llama-3.2-1B,meta-llama/Llama-3.1-8B,continuation,continuation_0,10,50,0.9,1.0,64,none,int8,7.075269,9186.930393,141.337391,,17.452142,2.46664,9,65,56,6,3,90,0.622222,0.333333,0.666667,6.222222,7.222222,211.291297,199.171625,1901.621675,1792.544622
llama32_1b_to_31_8b,llama_cross,meta-llama/Llama-3.2-1B,meta-llama/Llama-3.1-8B,continuation,continuation_0,10,100,0.0,1.0,64,none,int8,8.024969,9096.608296,124.611073,,18.090012,2.254216,10,73,63,5,5,100,0.63,0.5,0.5,6.3,7.3,206.510705,193.788807,2065.107048,1937.88807
llama32_1b_to_31_8b,llama_cross,meta-llama/Llama-3.2-1B,meta-llama/Llama-3.1-8B,continuation,continuation_0,10,100,0.9,1.0,64,none,int8,7.167489,9208.245192,139.518867,,17.463735,2.43652,9,66,57,5,4,90,0.633333,0.444444,0.555556,6.333333,7.333333,214.702137,201.879911,1932.319233,1816.919196
llama32_1b_to_31_8b,llama_cross,meta-llama/Llama-3.2-1B,meta-llama/Llama-3.1-8B,continuation,continuation_0,10,150,0.0,1.0,64,none,int8,7.308399,9167.534048,136.828866,,23.787048,3.254755,7,67,60,1,6,70,0.857143,0.857143,0.142857,8.571429,9.571429,206.407717,192.273289,1444.85402,1345.91302
llama32_1b_to_31_8b,llama_cross,meta-llama/Llama-3.2-1B,meta-llama/Llama-3.1-8B,continuation,continuation_0,10,150,0.9,1.0,64,none,int8,7.398597,9055.770507,135.160754,,16.438618,2.221856,10,67,57,6,4,100,0.57,0.4,0.6,5.7,6.7,208.941167,195.558189,2089.411665,1955.581894
llama32_1b_to_31_8b,llama_cross,meta-llama/Llama-3.2-1B,meta-llama/Llama-3.1-8B,continuation,continuation_0,10,200,0.0,1.0,64,none,int8,7.897836,8989.804745,126.616968,,19.469931,2.465224,9,71,62,4,5,90,0.688889,0.555556,0.444444,6.888889,7.888889,206.809558,194.967577,1861.286023,1754.708191
llama32_1b_to_31_8b,llama_cross,meta-llama/Llama-3.2-1B,meta-llama/Llama-3.1-8B,continuation,continuation_0,10,200,0.9,1.0,64,none,int8,7.060486,9206.165747,141.633319,,15.859693,2.246261,10,65,55,7,3,100,0.55,0.3,0.7,5.5,6.5,211.51348,195.214672,2115.134802,1952.14672
llama32_1b_to_31_8b,llama_cross,meta-llama/Llama-3.2-1B,meta-llama/Llama-3.1-8B,continuation,continuation_1,4,50,0.0,1.0,64,none,int8,7.534782,9024.813689,132.717848,,17.242647,2.288407,15,68,53,3,12,60,0.883333,0.8,0.2,3.533333,4.533333,86.337702,174.328553,1295.065535,2614.928301
llama32_1b_to_31_8b,llama_cross,meta-llama/Llama-3.2-1B,meta-llama/Llama-3.1-8B,continuation,continuation_1,4,50,0.9,1.0,64,none,int8,7.54974,9006.932805,132.454894,,17.371632,2.300958,15,68,53,3,12,60,0.883333,0.8,0.2,3.533333,4.533333,86.077571,172.643574,1291.163564,2589.653605
llama32_1b_to_31_8b,llama_cross,meta-llama/Llama-3.2-1B,meta-llama/Llama-3.1-8B,continuation,continuation_1,4,100,0.0,1.0,64,none,int8,7.520102,8909.453074,132.976912,,16.222256,2.157185,16,67,51,6,10,64,0.796875,0.625,0.375,3.1875,4.1875,83.933972,171.988185,1342.943547,2751.810957
llama32_1b_to_31_8b,llama_cross,meta-llama/Llama-3.2-1B,meta-llama/Llama-3.1-8B,continuation,continuation_1,4,100,0.9,1.0,64,none,int8,7.354201,9110.439521,135.976709,,14.848003,2.018983,17,67,50,7,10,68,0.735294,0.588235,0.411765,2.941176,3.941176,86.626133,176.524676,1472.644261,3000.919492
llama32_1b_to_31_8b,llama_cross,meta-llama/Llama-3.2-1B,meta-llama/Llama-3.1-8B,continuation,continuation_1,4,150,0.0,1.0,64,none,int8,7.62903,8782.243575,131.078262,,15.287359,2.00384,17,67,50,6,11,68,0.735294,0.647059,0.352941,2.941176,3.941176,84.319044,171.338385,1433.423743,2912.752549
llama32_1b_to_31_8b,llama_cross,meta-llama/Llama-3.2-1B,meta-llama/Llama-3.1-8B,continuation,continuation_1,4,150,0.9,1.0,64,none,int8,7.014213,9124.330208,142.56766,,15.181978,2.164459,16,64,48,5,11,64,0.75,0.6875,0.3125,3,4,87.426116,173.935117,1398.81786,2782.961866
llama32_1b_to_31_8b,llama_cross,meta-llama/Llama-3.2-1B,meta-llama/Llama-3.1-8B,continuation,continuation_1,4,200,0.0,1.0,64,none,int8,7.425842,9022.545876,134.664864,,17.060848,2.297497,15,67,52,3,12,60,0.866667,0.8,0.2,3.466667,4.466667,85.087348,174.490473,1276.31022,2617.357092
llama32_1b_to_31_8b,llama_cross,meta-llama/Llama-3.2-1B,meta-llama/Llama-3.1-8B,continuation,continuation_1,4,200,0.9,1.0,64,none,int8,7.130375,9115.929603,140.245071,,16.493847,2.313181,15,65,50,3,12,60,0.833333,0.8,0.2,3.333333,4.333333,86.791046,173.777646,1301.865689,2606.664686
llama32_1b_to_31_8b,llama_cross,meta-llama/Llama-3.2-1B,meta-llama/Llama-3.1-8B,continuation,continuation_1,6,50,0.0,1.0,64,none,int8,7.345042,9121.799001,136.146254,,16.887611,2.299185,13,67,54,5,8,78,0.692308,0.615385,0.384615,4.153846,5.153846,126.921193,175.686061,1649.975505,2283.918792
llama32_1b_to_31_8b,llama_cross,meta-llama/Llama-3.2-1B,meta-llama/Llama-3.1-8B,continuation,continuation_1,6,50,0.9,1.0,64,none,int8,7.204129,9161.41252,138.809281,,19.041324,2.643113,11,66,55,2,9,66,0.833333,0.818182,0.181818,5,6,130.369495,182.016143,1434.064442,2002.177574
llama32_1b_to_31_8b,llama_cross,meta-llama/Llama-3.2-1B,meta-llama/Llama-3.1-8B,continuation,continuation_1,6,100,0.0,1.0,64,none,int8,7.151909,8948.660159,139.822815,,17.476234,2.443576,12,64,52,4,8,72,0.722222,0.666667,0.333333,4.333333,5.333333,127.145783,175.462572,1525.749392,2105.550859
llama32_1b_to_31_8b,llama_cross,meta-llama/Llama-3.2-1B,meta-llama/Llama-3.1-8B,continuation,continuation_1,6,100,0.9,1.0,64,none,int8,7.043828,9085.968822,141.968263,,17.191738,2.440681,12,64,52,5,7,72,0.722222,0.583333,0.416667,4.333333,5.333333,129.221399,178.410159,1550.656791,2140.921904
llama32_1b_to_31_8b,llama_cross,meta-llama/Llama-3.2-1B,meta-llama/Llama-3.1-8B,continuation,continuation_1,6,150,0.0,1.0,64,none,int8,7.845065,8795.338749,127.468678,,19.103246,2.435066,12,69,57,3,9,72,0.791667,0.75,0.25,4.75,5.75,124.40967,173.968561,1492.916046,2087.622728
llama32_1b_to_31_8b,llama_cross,meta-llama/Llama-3.2-1B,meta-llama/Llama-3.1-8B,continuation,continuation_1,6,150,0.9,1.0,64,none,int8,7.611916,8933.361762,131.372967,,18.6267,2.447045,12,68,56,4,8,72,0.777778,0.666667,0.333333,4.666667,5.666667,127.063198,174.532127,1524.758372,2094.385527
llama32_1b_to_31_8b,llama_cross,meta-llama/Llama-3.2-1B,meta-llama/Llama-3.1-8B,continuation,continuation_1,6,200,0.0,1.0,64,none,int8,7.4736,8697.28067,133.804318,,21.400578,2.86349,10,65,55,1,9,60,0.916667,0.9,0.1,5.5,6.5,125.170324,175.766652,1251.703238,1757.666517
llama32_1b_to_31_8b,llama_cross,meta-llama/Llama-3.2-1B,meta-llama/Llama-3.1-8B,continuation,continuation_1,6,200,0.9,1.0,64,none,int8,7.424401,9024.296595,134.690994,,18.317716,2.467231,12,67,55,4,8,72,0.763889,0.666667,0.333333,4.583333,5.583333,127.005221,175.21464,1524.062657,2102.575684
llama32_1b_to_31_8b,llama_cross,meta-llama/Llama-3.2-1B,meta-llama/Llama-3.1-8B,continuation,continuation_1,8,50,0.0,1.0,64,none,int8,7.574871,8845.035553,132.015456,,20.783634,2.743761,9,67,58,2,7,72,0.805556,0.777778,0.222222,6.444444,7.444444,164.264759,190.809723,1478.382834,1717.287506
llama32_1b_to_31_8b,llama_cross,meta-llama/Llama-3.2-1B,meta-llama/Llama-3.1-8B,continuation,continuation_1,8,50,0.9,1.0,64,none,int8,7.77343,9133.676961,128.643337,,13.777707,1.77241,14,71,57,9,5,112,0.508929,0.357143,0.642857,4.071429,5.071429,169.154184,196.311752,2368.158574,2748.364524
llama32_1b_to_31_8b,llama_cross,meta-llama/Llama-3.2-1B,meta-llama/Llama-3.1-8B,continuation,continuation_1,8,100,0.0,1.0,64,none,int8,7.612189,8801.673332,131.368259,,20.812969,2.734163,9,67,58,3,6,72,0.805556,0.666667,0.333333,6.444444,7.444444,165.20457,189.297008,1486.841127,1703.673076
llama32_1b_to_31_8b,llama_cross,meta-llama/Llama-3.2-1B,meta-llama/Llama-3.1-8B,continuation,continuation_1,8,100,0.9,1.0,64,none,int8,7.166401,9209.643612,139.540055,,13.832796,1.930229,13,66,53,9,4,104,0.509615,0.307692,0.692308,4.076923,5.076923,169.010709,195.304843,2197.139221,2538.96296
llama32_1b_to_31_8b,llama_cross,meta-llama/Llama-3.2-1B,meta-llama/Llama-3.1-8B,continuation,continuation_1,8,150,0.0,1.0,64,none,int8,7.728577,8798.514487,129.389919,,20.448453,2.645824,9,68,59,3,6,72,0.819444,0.666667,0.333333,6.555556,7.555556,170.228932,195.992758,1532.060386,1763.934824
llama32_1b_to_31_8b,llama_cross,meta-llama/Llama-3.2-1B,meta-llama/Llama-3.1-8B,continuation,continuation_1,8,150,0.9,1.0,64,none,int8,7.874193,9016.796837,126.997139,,19.056886,2.42017,10,71,61,4,6,80,0.7625,0.6,0.4,6.1,7.1,171.795019,197.57144,1717.950189,1975.714404
llama32_1b_to_31_8b,llama_cross,meta-llama/Llama-3.2-1B,meta-llama/Llama-3.1-8B,continuation,continuation_1,8,200,0.0,1.0,64,none,int8,7.587342,8830.496982,131.798462,,15.336498,2.021327,12,67,55,7,5,96,0.572917,0.416667,0.583333,4.583333,5.583333,168.933264,192.355858,2027.199172,2308.270294
llama32_1b_to_31_8b,llama_cross,meta-llama/Llama-3.2-1B,meta-llama/Llama-3.1-8B,continuation,continuation_1,8,200,0.9,1.0,64,none,int8,7.915414,8969.840234,126.335778,,19.486878,2.46189,10,71,61,4,6,80,0.7625,0.6,0.4,6.1,7.1,168.32875,192.924222,1683.287502,1929.242216
llama32_1b_to_31_8b,llama_cross,meta-llama/Llama-3.2-1B,meta-llama/Llama-3.1-8B,continuation,continuation_1,10,50,0.0,1.0,64,none,int8,8.22338,8877.128801,121.604504,,18.395698,2.237,10,73,63,6,4,100,0.63,0.4,0.6,6.3,7.3,203.203663,190.393026,2032.036633,1903.930265
llama32_1b_to_31_8b,llama_cross,meta-llama/Llama-3.2-1B,meta-llama/Llama-3.1-8B,continuation,continuation_1,10,50,0.9,1.0,64,none,int8,7.280013,8928.555551,137.362393,,17.532263,2.408274,9,65,56,6,3,90,0.622222,0.333333,0.666667,6.222222,7.222222,208.782591,199.749809,1879.043323,1797.748283
llama32_1b_to_31_8b,llama_cross,meta-llama/Llama-3.2-1B,meta-llama/Llama-3.1-8B,continuation,continuation_1,10,100,0.0,1.0,64,none,int8,7.285785,8921.481536,137.253562,,22.670228,3.11157,7,65,58,3,4,70,0.828571,0.571429,0.428571,8.285714,9.285714,209.241958,196.380627,1464.693706,1374.66439
llama32_1b_to_31_8b,llama_cross,meta-llama/Llama-3.2-1B,meta-llama/Llama-3.1-8B,continuation,continuation_1,10,100,0.9,1.0,64,none,int8,8.061339,9055.567033,124.048863,,17.451885,2.164887,10,73,63,7,3,100,0.63,0.3,0.7,6.3,7.3,214.926259,199.972337,2149.262586,1999.723367
llama32_1b_to_31_8b,llama_cross,meta-llama/Llama-3.2-1B,meta-llama/Llama-3.1-8B,continuation,continuation_1,10,150,0.0,1.0,64,none,int8,7.670861,8864.715053,130.363457,,23.847299,3.108816,7,68,61,2,5,70,0.871429,0.714286,0.285714,8.714286,9.714286,208.020461,195.417161,1456.143224,1367.920129
llama32_1b_to_31_8b,llama_cross,meta-llama/Llama-3.2-1B,meta-llama/Llama-3.1-8B,continuation,continuation_1,10,150,0.9,1.0,64,none,int8,7.927612,9082.179665,126.141384,,19.355396,2.441516,9,72,63,7,2,90,0.7,0.222222,0.777778,7,8,210.182655,199.49823,1891.643897,1795.484068
llama32_1b_to_31_8b,llama_cross,meta-llama/Llama-3.2-1B,meta-llama/Llama-3.1-8B,continuation,continuation_1,10,200,0.0,1.0,64,none,int8,7.767855,8754.025689,128.735672,,15.435825,1.987141,11,68,57,7,4,110,0.518182,0.363636,0.636364,5.181818,6.181818,205.793831,191.73154,2263.732144,2109.04694
llama32_1b_to_31_8b,llama_cross,meta-llama/Llama-3.2-1B,meta-llama/Llama-3.1-8B,continuation,continuation_1,10,200,0.9,1.0,64,none,int8,7.225027,8996.505553,138.407778,,15.552586,2.152599,10,65,55,7,3,100,0.55,0.3,0.7,5.5,6.5,214.943645,199.845218,2149.436455,1998.452182
llama32_1b_to_31_8b,llama_cross,meta-llama/Llama-3.2-1B,meta-llama/Llama-3.1-8B,code_completion,code_completion_0,4,50,0.0,1.0,64,none,int8,7.260384,9228.161406,137.733752,,17.081825,2.352744,15,67,52,3,12,60,0.866667,0.8,0.2,3.466667,4.466667,85.59099,173.657071,1283.864851,2604.856062
llama32_1b_to_31_8b,llama_cross,meta-llama/Llama-3.2-1B,meta-llama/Llama-3.1-8B,code_completion,code_completion_0,4,50,0.9,1.0,64,none,int8,6.89208,9286.021229,145.094082,,17.10006,2.481118,14,64,50,2,12,56,0.892857,0.857143,0.142857,3.571429,4.571429,89.682235,175.359528,1255.551286,2455.033391
llama32_1b_to_31_8b,llama_cross,meta-llama/Llama-3.2-1B,meta-llama/Llama-3.1-8B,code_completion,code_completion_0,4,100,0.0,1.0,64,none,int8,7.166193,9349.454565,139.544098,,17.100608,2.386289,15,67,52,3,12,60,0.866667,0.8,0.2,3.466667,4.466667,85.098748,173.868106,1276.481214,2608.021595
llama32_1b_to_31_8b,llama_cross,meta-llama/Llama-3.2-1B,meta-llama/Llama-3.1-8B,code_completion,code_completion_0,4,100,0.9,1.0,64,none,int8,7.14155,9241.690917,140.02562,,16.557099,2.318418,15,66,51,3,12,60,0.85,0.8,0.2,3.4,4.4,87.436667,176.123888,1311.550008,2641.858313
llama32_1b_to_31_8b,llama_cross,meta-llama/Llama-3.2-1B,meta-llama/Llama-3.1-8B,code_completion,code_completion_0,4,150,0.0,1.0,64,none,int8,7.293337,9186.466419,137.111439,,17.03016,2.33503,15,67,52,3,12,60,0.866667,0.8,0.2,3.466667,4.466667,84.679657,175.358762,1270.194849,2630.38143
llama32_1b_to_31_8b,llama_cross,meta-llama/Llama-3.2-1B,meta-llama/Llama-3.1-8B,code_completion,code_completion_0,4,150,0.9,1.0,64,none,int8,7.267681,9081.300622,137.595464,,16.748034,2.304454,15,66,51,3,12,60,0.85,0.8,0.2,3.4,4.4,86.908247,173.643406,1303.623701,2604.65109
llama32_1b_to_31_8b,llama_cross,meta-llama/Llama-3.2-1B,meta-llama/Llama-3.1-8B,code_completion,code_completion_0,4,200,0.0,1.0,64,none,int8,7.065477,9058.128812,141.533263,,17.938252,2.538859,14,64,50,3,11,56,0.892857,0.785714,0.214286,3.571429,4.571429,83.974839,168.623897,1175.647749,2360.734559
llama32_1b_to_31_8b,llama_cross,meta-llama/Llama-3.2-1B,meta-llama/Llama-3.1-8B,code_completion,code_completion_0,4,200,0.9,1.0,64,none,int8,7.349947,8979.655987,136.055394,,16.562625,2.253434,15,66,51,3,12,60,0.85,0.8,0.2,3.4,4.4,86.998713,176.456683,1304.980693,2646.850245
llama32_1b_to_31_8b,llama_cross,meta-llama/Llama-3.2-1B,meta-llama/Llama-3.1-8B,code_completion,code_completion_0,6,50,0.0,1.0,64,none,int8,7.584135,9229.793211,131.854189,,19.368987,2.553882,12,70,58,3,9,72,0.805556,0.75,0.25,4.833333,5.833333,123.946027,174.593082,1487.352326,2095.116985
llama32_1b_to_31_8b,llama_cross,meta-llama/Llama-3.2-1B,meta-llama/Llama-3.1-8B,code_completion,code_completion_0,6,50,0.9,1.0,64,none,int8,7.152145,9088.182019,139.818185,,16.179066,2.262128,13,65,52,7,6,78,0.666667,0.461538,0.538462,4,5,127.95594,178.444785,1663.427226,2319.782208
llama32_1b_to_31_8b,llama_cross,meta-llama/Llama-3.2-1B,meta-llama/Llama-3.1-8B,code_completion,code_completion_0,6,100,0.0,1.0,64,none,int8,6.846623,9347.673379,146.057397,,17.454897,2.549417,12,64,52,4,8,72,0.722222,0.666667,0.333333,4.333333,5.333333,126.231454,176.746899,1514.777453,2120.962785
llama32_1b_to_31_8b,llama_cross,meta-llama/Llama-3.2-1B,meta-llama/Llama-3.1-8B,code_completion,code_completion_0,6,100,0.9,1.0,64,none,int8,7.468214,9239.156165,133.900814,,18.390849,2.46255,12,69,57,3,9,72,0.791667,0.75,0.25,4.75,5.75,129.558032,180.385134,1554.696379,2164.621608
llama32_1b_to_31_8b,llama_cross,meta-llama/Llama-3.2-1B,meta-llama/Llama-3.1-8B,code_completion,code_completion_0,6,150,0.0,1.0,64,none,int8,7.571452,9245.254295,132.075061,,18.781452,2.480561,12,70,58,3,9,72,0.805556,0.75,0.25,4.833333,5.833333,128.842841,179.015726,1546.114091,2148.188712
llama32_1b_to_31_8b,llama_cross,meta-llama/Llama-3.2-1B,meta-llama/Llama-3.1-8B,code_completion,code_completion_0,6,150,0.9,1.0,64,none,int8,7.454794,9255.788883,134.141868,,18.086248,2.426123,12,69,57,3,9,72,0.791667,0.75,0.25,4.75,5.75,131.501058,183.731362,1578.012698,2204.776338
llama32_1b_to_31_8b,llama_cross,meta-llama/Llama-3.2-1B,meta-llama/Llama-3.1-8B,code_completion,code_completion_0,6,200,0.0,1.0,64,none,int8,7.298451,9180.030177,137.015376,,21.510044,2.947207,10,67,57,1,9,60,0.95,0.9,0.1,5.7,6.7,129.431831,179.071881,1294.318314,1790.718812
llama32_1b_to_31_8b,llama_cross,meta-llama/Llama-3.2-1B,meta-llama/Llama-3.1-8B,code_completion,code_completion_0,6,200,0.9,1.0,64,none,int8,7.686794,8976.434374,130.093252,,18.671561,2.429044,12,69,57,3,9,72,0.791667,0.75,0.25,4.75,5.75,128.999688,176.30508,1547.996257,2115.660955
llama32_1b_to_31_8b,llama_cross,meta-llama/Llama-3.2-1B,meta-llama/Llama-3.1-8B,code_completion,code_completion_0,8,50,0.0,1.0,64,none,int8,7.745428,9166.698584,129.108431,,18.276429,2.359641,11,71,60,5,6,88,0.681818,0.545455,0.454545,5.454545,6.454545,163.686384,186.550442,1800.550221,2052.054867
llama32_1b_to_31_8b,llama_cross,meta-llama/Llama-3.2-1B,meta-llama/Llama-3.1-8B,code_completion,code_completion_0,8,50,0.9,1.0,64,none,int8,6.989431,9156.682428,143.073163,,15.86,2.26914,11,64,53,7,4,88,0.602273,0.363636,0.636364,4.818182,5.818182,169.139508,194.80181,1860.534586,2142.819905
llama32_1b_to_31_8b,llama_cross,meta-llama/Llama-3.2-1B,meta-llama/Llama-3.1-8B,code_completion,code_completion_0,8,100,0.0,1.0,64,none,int8,7.565925,9252.00844,132.171549,,19.21544,2.539734,10,70,60,3,7,80,0.75,0.7,0.3,6,7,166.294621,194.921296,1662.946206,1949.212955
llama32_1b_to_31_8b,llama_cross,meta-llama/Llama-3.2-1B,meta-llama/Llama-3.1-8B,code_completion,code_completion_0,8,100,0.9,1.0,64,none,int8,6.980023,9169.023894,143.265998,,13.334235,1.910343,13,64,51,9,4,104,0.490385,0.307692,0.692308,3.923077,4.923077,171.620183,194.942491,2231.062383,2534.252383
llama32_1b_to_31_8b,llama_cross,meta-llama/Llama-3.2-1B,meta-llama/Llama-3.1-8B,code_completion,code_completion_0,8,150,0.0,1.0,64,none,int8,7.67085,9125.454926,130.363642,,18.907504,2.464851,10,70,60,3,7,80,0.75,0.7,0.3,6,7,169.203896,197.884151,1692.038961,1978.841509
llama32_1b_to_31_8b,llama_cross,meta-llama/Llama-3.2-1B,meta-llama/Llama-3.1-8B,code_completion,code_completion_0,8,150,0.9,1.0,64,none,int8,7.457512,9252.415758,134.092982,,18.432254,2.471636,10,69,59,3,7,80,0.7375,0.7,0.3,5.9,6.9,172.87586,198.408467,1728.758599,1984.084669
llama32_1b_to_31_8b,llama_cross,meta-llama/Llama-3.2-1B,meta-llama/Llama-3.1-8B,code_completion,code_completion_0,8,200,0.0,1.0,64,none,int8,7.510419,9054.088312,133.148358,,21.322076,2.838999,9,68,59,4,5,72,0.819444,0.555556,0.444444,6.555556,7.555556,163.410021,187.664589,1470.690185,1688.981299
llama32_1b_to_31_8b,llama_cross,meta-llama/Llama-3.2-1B,meta-llama/Llama-3.1-8B,code_completion,code_completion_0,8,200,0.9,1.0,64,none,int8,7.623643,9050.791137,131.170886,,18.650449,2.446396,10,69,59,3,7,80,0.7375,0.7,0.3,5.9,6.9,171.383388,195.488025,1713.833881,1954.880249
llama32_1b_to_31_8b,llama_cross,meta-llama/Llama-3.2-1B,meta-llama/Llama-3.1-8B,code_completion,code_completion_0,10,50,0.0,1.0,64,none,int8,7.806418,9095.079918,128.099717,,22.073574,2.827619,8,71,63,2,6,80,0.7875,0.75,0.25,7.875,8.875,205.628523,192.845443,1645.028185,1542.763542
llama32_1b_to_31_8b,llama_cross,meta-llama/Llama-3.2-1B,meta-llama/Llama-3.1-8B,code_completion,code_completion_0,10,50,0.9,1.0,64,none,int8,7.128032,8978.635373,140.291178,,19.364399,2.716654,8,64,56,4,4,80,0.7,0.5,0.5,7,8,213.778479,195.802797,1710.227834,1566.422379
llama32_1b_to_31_8b,llama_cross,meta-llama/Llama-3.2-1B,meta-llama/Llama-3.1-8B,code_completion,code_completion_0,10,100,0.0,1.0,64,none,int8,7.185562,9185.08587,139.167968,,18.420773,2.563582,9,66,57,4,5,90,0.633333,0.555556,0.444444,6.333333,7.333333,202.84613,192.079959,1825.615171,1728.719631
llama32_1b_to_31_8b,llama_cross,meta-llama/Llama-3.2-1B,meta-llama/Llama-3.1-8B,code_completion,code_completion_0,10,100,0.9,1.0,64,none,int8,7.359247,8968.308501,135.883462,,20.058479,2.725616,8,66,58,4,4,80,0.725,0.5,0.5,7.25,8.25,210.844223,196.921078,1686.753785,1575.368627
llama32_1b_to_31_8b,llama_cross,meta-llama/Llama-3.2-1B,meta-llama/Llama-3.1-8B,code_completion,code_completion_0,10,150,0.0,1.0,64,none,int8,7.609051,9199.57075,131.422439,,19.483705,2.560596,9,70,61,4,5,90,0.677778,0.555556,0.444444,6.777778,7.777778,204.041327,191.821863,1836.371942,1726.396769
llama32_1b_to_31_8b,llama_cross,meta-llama/Llama-3.2-1B,meta-llama/Llama-3.1-8B,code_completion,code_completion_0,10,150,0.9,1.0,64,none,int8,7.920535,9090.29523,126.2541,,19.5916,2.47352,9,72,63,3,6,90,0.7,0.666667,0.333333,7,8,209.396212,195.486376,1884.565909,1759.377387
llama32_1b_to_31_8b,llama_cross,meta-llama/Llama-3.2-1B,meta-llama/Llama-3.1-8B,code_completion,code_completion_0,10,200,0.0,1.0,64,none,int8,7.355457,8972.929607,135.953479,,20.732879,2.818707,8,66,58,4,4,80,0.725,0.5,0.5,7.25,8.25,204.467998,189.961167,1635.743982,1519.689337
llama32_1b_to_31_8b,llama_cross,meta-llama/Llama-3.2-1B,meta-llama/Llama-3.1-8B,code_completion,code_completion_0,10,200,0.9,1.0,64,none,int8,7.94139,9192.345544,125.922542,,17.523526,2.206607,10,73,63,4,6,100,0.63,0.6,0.4,6.3,7.3,213.709238,199.654478,2137.092379,1996.544777
llama32_1b_to_31_8b,llama_cross,meta-llama/Llama-3.2-1B,meta-llama/Llama-3.1-8B,code_completion,code_completion_1,4,50,0.0,1.0,64,none,int8,7.183707,9048.253783,139.203904,,14.058768,1.957035,18,65,47,8,10,72,0.652778,0.555556,0.444444,2.611111,3.611111,83.9658,170.813399,1511.384397,3074.641179
llama32_1b_to_31_8b,llama_cross,meta-llama/Llama-3.2-1B,meta-llama/Llama-3.1-8B,code_completion,code_completion_1,4,50,0.9,1.0,64,none,int8,7.539675,9018.955987,132.631706,,13.871967,1.839863,19,68,49,8,11,76,0.644737,0.578947,0.421053,2.578947,3.578947,85.658801,170.29092,1627.517221,3235.527475
llama32_1b_to_31_8b,llama_cross,meta-llama/Llama-3.2-1B,meta-llama/Llama-3.1-8B,code_completion,code_completion_1,4,100,0.0,1.0,64,none,int8,7.108515,9003.287256,140.676363,,14.619167,2.056571,17,64,47,8,9,68,0.691176,0.529412,0.470588,2.764706,3.764706,84.132018,171.209073,1430.244307,2910.554242
llama32_1b_to_31_8b,llama_cross,meta-llama/Llama-3.2-1B,meta-llama/Llama-3.1-8B,code_completion,code_completion_1,4,100,0.9,1.0,64,none,int8,7.136319,9108.337712,140.128272,,13.67611,1.91641,18,65,47,7,11,72,0.652778,0.611111,0.388889,2.611111,3.611111,88.175043,173.775006,1587.150778,3127.950102
llama32_1b_to_31_8b,llama_cross,meta-llama/Llama-3.2-1B,meta-llama/Llama-3.1-8B,code_completion,code_completion_1,4,150,0.0,1.0,64,none,int8,7.168661,9067.24456,139.49607,,17.660587,2.463583,14,65,51,2,12,56,0.910714,0.857143,0.142857,3.642857,4.642857,86.25415,174.353718,1207.558098,2440.952057
llama32_1b_to_31_8b,llama_cross,meta-llama/Llama-3.2-1B,meta-llama/Llama-3.1-8B,code_completion,code_completion_1,4,150,0.9,1.0,64,none,int8,7.405687,9047.100853,135.031356,,14.84414,2.004424,17,67,50,5,12,68,0.735294,0.705882,0.294118,2.941176,3.941176,88.365038,175.009461,1502.205645,2975.160838
llama32_1b_to_31_8b,llama_cross,meta-llama/Llama-3.2-1B,meta-llama/Llama-3.1-8B,code_completion,code_completion_1,4,200,0.0,1.0,64,none,int8,7.145208,9097.006047,139.953939,,18.175836,2.54378,14,65,51,2,12,56,0.910714,0.857143,0.142857,3.642857,4.642857,83.685621,169.560288,1171.598689,2373.844033
llama32_1b_to_31_8b,llama_cross,meta-llama/Llama-3.2-1B,meta-llama/Llama-3.1-8B,code_completion,code_completion_1,4,200,0.9,1.0,64,none,int8,7.50948,8922.05531,133.165005,,15.36828,2.046517,17,67,50,5,12,68,0.735294,0.705882,0.294118,2.941176,3.941176,84.21997,170.186281,1431.739494,2893.166778
llama32_1b_to_31_8b,llama_cross,meta-llama/Llama-3.2-1B,meta-llama/Llama-3.1-8B,code_completion,code_completion_1,6,50,0.0,1.0,64,none,int8,7.640832,8899.553835,130.875792,,18.998371,2.486427,12,68,56,3,9,72,0.777778,0.75,0.25,4.666667,5.666667,124.673808,170.996767,1496.085695,2051.96121
llama32_1b_to_31_8b,llama_cross,meta-llama/Llama-3.2-1B,meta-llama/Llama-3.1-8B,code_completion,code_completion_1,6,50,0.9,1.0,64,none,int8,7.408867,9043.217794,134.9734,,13.555911,1.829687,16,67,51,8,8,96,0.53125,0.5,0.5,3.1875,4.1875,128.020917,178.576612,2048.334678,2857.225795
llama32_1b_to_31_8b,llama_cross,meta-llama/Llama-3.2-1B,meta-llama/Llama-3.1-8B,code_completion,code_completion_1,6,100,0.0,1.0,64,none,int8,7.115595,9134.865675,140.536395,,18.050785,2.536792,12,65,53,4,8,72,0.736111,0.666667,0.333333,4.416667,5.416667,124.48264,173.000071,1493.791686,2076.000847
llama32_1b_to_31_8b,llama_cross,meta-llama/Llama-3.2-1B,meta-llama/Llama-3.1-8B,code_completion,code_completion_1,6,100,0.9,1.0,64,none,int8,7.586619,9094.96044,131.811021,,16.023885,2.112125,14,69,55,7,7,84,0.654762,0.5,0.5,3.928571,4.928571,128.498413,176.543341,1798.977783,2471.60678
llama32_1b_to_31_8b,llama_cross,meta-llama/Llama-3.2-1B,meta-llama/Llama-3.1-8B,code_completion,code_completion_1,6,150,0.0,1.0,64,none,int8,7.538582,8887.612593,132.650934,,21.629494,2.869173,10,67,57,2,8,60,0.95,0.8,0.2,5.7,6.7,128.041847,178.796458,1280.41847,1787.964581
llama32_1b_to_31_8b,llama_cross,meta-llama/Llama-3.2-1B,meta-llama/Llama-3.1-8B,code_completion,code_completion_1,6,150,0.9,1.0,64,none,int8,7.627394,9046.339682,131.106372,,15.989325,2.096302,14,69,55,7,7,84,0.654762,0.5,0.5,3.928571,4.928571,127.426158,178.255872,1783.966215,2495.582211
llama32_1b_to_31_8b,llama_cross,meta-llama/Llama-3.2-1B,meta-llama/Llama-3.1-8B,code_completion,code_completion_1,6,200,0.0,1.0,64,none,int8,7.652169,8886.369418,130.681903,,22.638226,2.958406,10,68,58,1,9,60,0.966667,0.9,0.1,5.8,6.8,123.825993,173.712392,1238.259931,1737.123916
llama32_1b_to_31_8b,llama_cross,meta-llama/Llama-3.2-1B,meta-llama/Llama-3.1-8B,code_completion,code_completion_1,6,200,0.9,1.0,64,none,int8,7.66507,9001.87423,130.461945,,14.269274,1.861597,16,69,53,9,7,96,0.552083,0.4375,0.5625,3.3125,4.3125,126.087635,173.769164,2017.402166,2780.30662
llama32_1b_to_31_8b,llama_cross,meta-llama/Llama-3.2-1B,meta-llama/Llama-3.1-8B,code_completion,code_completion_1,8,50,0.0,1.0,64,none,int8,7.573969,8978.119856,132.031174,,18.730774,2.473046,10,68,58,3,7,80,0.725,0.7,0.3,5.8,6.8,167.6203,192.436491,1676.202997,1924.364913
llama32_1b_to_31_8b,llama_cross,meta-llama/Llama-3.2-1B,meta-llama/Llama-3.1-8B,code_completion,code_completion_1,8,50,0.9,1.0,64,none,int8,7.59489,9085.05632,131.667483,,15.930053,2.09747,12,69,57,7,5,96,0.59375,0.416667,0.583333,4.75,5.75,166.904525,191.259773,2002.854296,2295.117279
llama32_1b_to_31_8b,llama_cross,meta-llama/Llama-3.2-1B,meta-llama/Llama-3.1-8B,code_completion,code_completion_1,8,100,0.0,1.0,64,none,int8,7.112142,8998.695111,140.604611,,16.255641,2.285618,11,64,53,6,5,88,0.602273,0.454545,0.545455,4.818182,5.818182,166.292125,188.803023,1829.213376,2076.83325
llama32_1b_to_31_8b,llama_cross,meta-llama/Llama-3.2-1B,meta-llama/Llama-3.1-8B,code_completion,code_completion_1,8,100,0.9,1.0,64,none,int8,7.635222,9037.065047,130.971957,,16.870565,2.209571,11,69,58,4,7,88,0.659091,0.636364,0.363636,5.272727,6.272727,171.951665,196.950557,1891.468316,2166.456127
llama32_1b_to_31_8b,llama_cross,meta-llama/Llama-3.2-1B,meta-llama/Llama-3.1-8B,code_completion,code_completion_1,8,150,0.0,1.0,64,none,int8,7.112388,9138.983359,140.599744,,17.52997,2.464709,10,65,55,4,6,80,0.6875,0.6,0.4,5.5,6.5,171.523121,196.228732,1715.231206,1962.28732
llama32_1b_to_31_8b,llama_cross,meta-llama/Llama-3.2-1B,meta-llama/Llama-3.1-8B,code_completion,code_completion_1,8,150,0.9,1.0,64,none,int8,7.482456,9221.570762,133.645953,,16.822394,2.248245,11,69,58,4,7,88,0.659091,0.636364,0.363636,5.272727,6.272727,174.824182,195.152227,1923.066005,2146.674499
llama32_1b_to_31_8b,llama_cross,meta-llama/Llama-3.2-1B,meta-llama/Llama-3.1-8B,code_completion,code_completion_1,8,200,0.0,1.0,64,none,int8,6.98041,9168.516486,143.25807,,19.532508,2.798189,9,64,55,3,6,72,0.763889,0.666667,0.333333,6.111111,7.111111,167.971815,192.969746,1511.746336,1736.727715
llama32_1b_to_31_8b,llama_cross,meta-llama/Llama-3.2-1B,meta-llama/Llama-3.1-8B,code_completion,code_completion_1,8,200,0.9,1.0,64,none,int8,7.158151,8940.856368,139.700881,,14.702284,2.053922,12,64,52,6,6,96,0.541667,0.5,0.5,4.333333,5.333333,167.658212,192.408442,2011.898548,2308.901301
llama32_1b_to_31_8b,llama_cross,meta-llama/Llama-3.2-1B,meta-llama/Llama-3.1-8B,code_completion,code_completion_1,10,50,0.0,1.0,64,none,int8,7.87087,9020.603847,127.050758,,19.643781,2.495757,9,71,62,3,6,90,0.688889,0.666667,0.333333,6.888889,7.888889,207.095012,191.154959,1863.855106,1720.394633
llama32_1b_to_31_8b,llama_cross,meta-llama/Llama-3.2-1B,meta-llama/Llama-3.1-8B,code_completion,code_completion_1,10,50,0.9,1.0,64,none,int8,7.277515,9069.029363,137.409536,,14.544964,1.998617,11,66,55,8,3,110,0.5,0.272727,0.727273,5,6,212.511248,196.949999,2337.623727,2166.449986
llama32_1b_to_31_8b,llama_cross,meta-llama/Llama-3.2-1B,meta-llama/Llama-3.1-8B,code_completion,code_completion_1,10,100,0.0,1.0,64,none,int8,7.845951,9049.254014,127.454282,,19.648305,2.504261,9,71,62,3,6,90,0.688889,0.666667,0.333333,6.888889,7.888889,207.310415,190.861073,1865.793737,1717.749656
llama32_1b_to_31_8b,llama_cross,meta-llama/Llama-3.2-1B,meta-llama/Llama-3.1-8B,code_completion,code_completion_1,10,100,0.9,1.0,64,none,int8,7.607829,9201.047836,131.443541,,14.176677,1.863433,12,70,58,9,3,120,0.483333,0.25,0.75,4.833333,5.833333,211.036185,197.452916,2532.434216,2369.434989
llama32_1b_to_31_8b,llama_cross,meta-llama/Llama-3.2-1B,meta-llama/Llama-3.1-8B,code_completion,code_completion_1,10,150,0.0,1.0,64,none,int8,7.272482,9075.30557,137.50463,,22.98117,3.160017,7,66,59,2,5,70,0.842857,0.714286,0.285714,8.428571,9.428571,209.853386,196.486967,1468.973704,1375.408766
llama32_1b_to_31_8b,llama_cross,meta-llama/Llama-3.2-1B,meta-llama/Llama-3.1-8B,code_completion,code_completion_1,10,150,0.9,1.0,64,none,int8,7.908586,8977.585007,126.444859,,14.318302,1.810476,12,71,59,8,4,120,0.491667,0.333333,0.666667,4.916667,5.916667,210.528742,199.682197,2526.344905,2396.18636
llama32_1b_to_31_8b,llama_cross,meta-llama/Llama-3.2-1B,meta-llama/Llama-3.1-8B,code_completion,code_completion_1,10,200,0.0,1.0,64,none,int8,7.277037,9069.625858,137.418574,,23.39083,3.214334,7,66,59,2,5,70,0.842857,0.714286,0.285714,8.428571,9.428571,205.65422,193.650859,1439.579539,1355.556016
llama32_1b_to_31_8b,llama_cross,meta-llama/Llama-3.2-1B,meta-llama/Llama-3.1-8B,code_completion,code_completion_1,10,200,0.9,1.0,64,none,int8,7.167361,9068.888464,139.521361,,12.169635,1.697924,13,65,52,10,3,130,0.4,0.230769,0.769231,4,5,210.139211,198.004095,2731.809748,2574.053239
llama32_1b_to_31_8b,llama_cross,meta-llama/Llama-3.2-1B,meta-llama/Llama-3.1-8B,structured_extraction,structured_extraction_0,4,50,0.0,1.0,64,none,int8,7.105087,9148.375099,140.744232,,19.449628,2.737423,13,65,52,0,13,52,1.0,1.0,0.0,4,5,83.890714,170.955787,1090.579284,2222.425234
llama32_1b_to_31_8b,llama_cross,meta-llama/Llama-3.2-1B,meta-llama/Llama-3.1-8B,structured_extraction,structured_extraction_0,4,50,0.9,1.0,64,none,int8,7.169879,8926.232151,139.472377,,13.409697,1.870282,18,64,46,9,9,72,0.638889,0.5,0.5,2.555556,3.555556,86.414778,176.618582,1555.466002,3179.134473
llama32_1b_to_31_8b,llama_cross,meta-llama/Llama-3.2-1B,meta-llama/Llama-3.1-8B,structured_extraction,structured_extraction_0,4,100,0.0,1.0,64,none,int8,7.144993,9097.27979,139.958151,,19.231628,2.691623,13,65,52,0,13,52,1.0,1.0,0.0,4,5,84.979082,172.780147,1104.728062,2246.141916
llama32_1b_to_31_8b,llama_cross,meta-llama/Llama-3.2-1B,meta-llama/Llama-3.1-8B,structured_extraction,structured_extraction_0,4,100,0.9,1.0,64,none,int8,7.091645,9165.715974,141.011015,,17.74265,2.501909,14,65,51,2,12,56,0.910714,0.857143,0.142857,3.642857,4.642857,86.324372,173.124194,1208.541208,2423.738717
llama32_1b_to_31_8b,llama_cross,meta-llama/Llama-3.2-1B,meta-llama/Llama-3.1-8B,structured_extraction,structured_extraction_0,4,150,0.0,1.0,64,none,int8,7.223432,8998.49217,138.438341,,19.353517,2.679269,13,65,52,0,13,52,1.0,1.0,0.0,4,5,84.127918,171.974661,1093.662936,2235.670595
llama32_1b_to_31_8b,llama_cross,meta-llama/Llama-3.2-1B,meta-llama/Llama-3.1-8B,structured_extraction,structured_extraction_0,4,150,0.9,1.0,64,none,int8,7.179437,9053.634481,139.286684,,17.568811,2.447101,14,65,51,2,12,56,0.910714,0.857143,0.142857,3.642857,4.642857,87.177916,174.83943,1220.490826,2447.752019
llama32_1b_to_31_8b,llama_cross,meta-llama/Llama-3.2-1B,meta-llama/Llama-3.1-8B,structured_extraction,structured_extraction_0,4,200,0.0,1.0,64,none,int8,7.299738,8904.429245,136.991219,,19.266099,2.639286,13,65,52,0,13,52,1.0,1.0,0.0,4,5,84.461752,172.798551,1098.00278,2246.381163
llama32_1b_to_31_8b,llama_cross,meta-llama/Llama-3.2-1B,meta-llama/Llama-3.1-8B,structured_extraction,structured_extraction_0,4,200,0.9,1.0,64,none,int8,7.191019,9039.052665,139.062349,,17.550294,2.440585,14,65,51,2,12,56,0.910714,0.857143,0.142857,3.642857,4.642857,87.872721,174.446511,1230.218095,2442.251149
llama32_1b_to_31_8b,llama_cross,meta-llama/Llama-3.2-1B,meta-llama/Llama-3.1-8B,structured_extraction,structured_extraction_0,6,50,0.0,1.0,64,none,int8,7.112732,8997.949123,140.592955,,19.058551,2.679498,11,64,53,3,8,66,0.80303,0.727273,0.272727,4.818182,5.818182,127.254933,175.224975,1399.804258,1927.474721
llama32_1b_to_31_8b,llama_cross,meta-llama/Llama-3.2-1B,meta-llama/Llama-3.1-8B,structured_extraction,structured_extraction_0,6,50,0.9,1.0,64,none,int8,7.499677,8933.717831,133.339072,,17.925313,2.390145,12,67,55,3,9,72,0.763889,0.75,0.25,4.583333,5.583333,127.987987,180.894843,1535.855847,2170.738115
llama32_1b_to_31_8b,llama_cross,meta-llama/Llama-3.2-1B,meta-llama/Llama-3.1-8B,structured_extraction,structured_extraction_0,6,100,0.0,1.0,64,none,int8,7.062428,9062.038999,141.594359,,21.18283,2.999369,10,64,54,2,8,60,0.9,0.8,0.2,5.4,6.4,124.699063,174.636047,1246.990634,1746.36047
llama32_1b_to_31_8b,llama_cross,meta-llama/Llama-3.2-1B,meta-llama/Llama-3.1-8B,structured_extraction,structured_extraction_0,6,100,0.9,1.0,64,none,int8,7.045717,9225.463065,141.930201,,18.745703,2.660581,11,65,54,2,9,66,0.818182,0.818182,0.181818,4.909091,5.909091,131.604294,180.863905,1447.647238,1989.502953
llama32_1b_to_31_8b,llama_cross,meta-llama/Llama-3.2-1B,meta-llama/Llama-3.1-8B,structured_extraction,structured_extraction_0,6,150,0.0,1.0,64,none,int8,6.974786,9175.909139,143.37358,,20.613262,2.955397,10,64,54,1,9,60,0.9,0.9,0.1,5.4,6.4,127.344362,180.370385,1273.443625,1803.703851
llama32_1b_to_31_8b,llama_cross,meta-llama/Llama-3.2-1B,meta-llama/Llama-3.1-8B,structured_extraction,structured_extraction_0,6,150,0.9,1.0,64,none,int8,7.550226,9006.352876,132.446366,,18.292067,2.422718,12,68,56,3,9,72,0.777778,0.75,0.25,4.666667,5.666667,128.100488,179.047,1537.205854,2148.564
llama32_1b_to_31_8b,llama_cross,meta-llama/Llama-3.2-1B,meta-llama/Llama-3.1-8B,structured_extraction,structured_extraction_0,6,200,0.0,1.0,64,none,int8,7.187984,8903.748308,139.121067,,20.987637,2.919822,10,64,54,1,9,60,0.9,0.9,0.1,5.4,6.4,125.66803,176.540941,1256.680303,1765.409412
llama32_1b_to_31_8b,llama_cross,meta-llama/Llama-3.2-1B,meta-llama/Llama-3.1-8B,structured_extraction,structured_extraction_0,6,200,0.9,1.0,64,none,int8,7.602471,9075.996332,131.536179,,18.375653,2.417063,12,69,57,3,9,72,0.791667,0.75,0.25,4.75,5.75,130.126761,180.172203,1561.52113,2162.06644
llama32_1b_to_31_8b,llama_cross,meta-llama/Llama-3.2-1B,meta-llama/Llama-3.1-8B,structured_extraction,structured_extraction_0,8,50,0.0,1.0,64,none,int8,7.848868,9173.297029,127.406903,,25.129992,3.201735,8,72,64,0,8,64,1.0,1.0,0.0,8,9,164.390502,190.271099,1315.124014,1522.168795
llama32_1b_to_31_8b,llama_cross,meta-llama/Llama-3.2-1B,meta-llama/Llama-3.1-8B,structured_extraction,structured_extraction_0,8,50,0.9,1.0,64,none,int8,7.50119,8931.915823,133.312176,,22.772789,3.03589,8,67,59,1,7,64,0.921875,0.875,0.125,7.375,8.375,168.123452,196.28758,1344.987619,1570.30064
llama32_1b_to_31_8b,llama_cross,meta-llama/Llama-3.2-1B,meta-llama/Llama-3.1-8B,structured_extraction,structured_extraction_0,8,100,0.0,1.0,64,none,int8,7.667872,9128.99946,130.414278,,24.256715,3.163422,8,70,62,1,7,64,0.96875,0.875,0.125,7.75,8.75,164.661607,192.618995,1317.292857,1540.951957
llama32_1b_to_31_8b,llama_cross,meta-llama/Llama-3.2-1B,meta-llama/Llama-3.1-8B,structured_extraction,structured_extraction_0,8,100,0.9,1.0,64,none,int8,7.560346,9258.835986,132.269086,,23.585953,3.119692,8,70,62,1,7,64,0.96875,0.875,0.125,7.75,8.75,171.390493,196.041984,1371.123947,1568.33587
llama32_1b_to_31_8b,llama_cross,meta-llama/Llama-3.2-1B,meta-llama/Llama-3.1-8B,structured_extraction,structured_extraction_0,8,150,0.0,1.0,64,none,int8,7.713333,9075.195376,129.645648,,23.842162,3.091033,8,70,62,1,7,64,0.96875,0.875,0.125,7.75,8.75,168.69031,194.838066,1349.522479,1558.704526
llama32_1b_to_31_8b,llama_cross,meta-llama/Llama-3.2-1B,meta-llama/Llama-3.1-8B,structured_extraction,structured_extraction_0,8,150,0.9,1.0,64,none,int8,7.775439,9002.707183,128.610103,,23.905821,3.07453,8,70,62,1,7,64,0.96875,0.875,0.125,7.75,8.75,168.505684,194.06802,1348.045469,1552.544162
llama32_1b_to_31_8b,llama_cross,meta-llama/Llama-3.2-1B,meta-llama/Llama-3.1-8B,structured_extraction,structured_extraction_0,8,200,0.0,1.0,64,none,int8,8.112812,8874.851058,123.26182,,25.111896,3.095338,8,72,64,0,8,64,1.0,1.0,0.0,8,9,163.465941,191.497084,1307.72753,1531.976669
llama32_1b_to_31_8b,llama_cross,meta-llama/Llama-3.2-1B,meta-llama/Llama-3.1-8B,structured_extraction,structured_extraction_0,8,200,0.9,1.0,64,none,int8,7.872226,8892.020586,127.028866,,23.529635,2.988943,8,70,62,1,7,64,0.96875,0.875,0.125,7.75,8.75,171.412979,196.91273,1371.303834,1575.301841
llama32_1b_to_31_8b,llama_cross,meta-llama/Llama-3.2-1B,meta-llama/Llama-3.1-8B,structured_extraction,structured_extraction_0,10,50,0.0,1.0,64,none,int8,7.32637,9008.554092,136.493244,,26.900713,3.671766,6,66,60,0,6,60,1.0,1.0,0.0,10,11,205.167978,199.674887,1231.007869,1198.049323
llama32_1b_to_31_8b,llama_cross,meta-llama/Llama-3.2-1B,meta-llama/Llama-3.1-8B,structured_extraction,structured_extraction_0,10,50,0.9,1.0,64,none,int8,7.123058,8984.90452,140.389133,,21.983778,3.086284,7,64,57,2,5,70,0.814286,0.714286,0.285714,8.142857,9.142857,210.887526,201.282528,1476.212685,1408.977699
llama32_1b_to_31_8b,llama_cross,meta-llama/Llama-3.2-1B,meta-llama/Llama-3.1-8B,structured_extraction,structured_extraction_0,10,100,0.0,1.0,64,none,int8,7.355377,8973.027687,135.954965,,27.335137,3.716348,6,66,60,0,6,60,1.0,1.0,0.0,10,11,205.260325,193.070858,1231.561952,1158.425149
llama32_1b_to_31_8b,llama_cross,meta-llama/Llama-3.2-1B,meta-llama/Llama-3.1-8B,structured_extraction,structured_extraction_0,10,100,0.9,1.0,64,none,int8,7.062906,9344.596023,141.584788,,26.25651,3.717522,6,66,60,0,6,60,1.0,1.0,0.0,10,11,215.446762,199.432059,1292.680575,1196.592355
llama32_1b_to_31_8b,llama_cross,meta-llama/Llama-3.2-1B,meta-llama/Llama-3.1-8B,structured_extraction,structured_extraction_0,10,150,0.0,1.0,64,none,int8,7.233338,9124.418491,138.248765,,26.785043,3.702999,6,66,60,0,6,60,1.0,1.0,0.0,10,11,210.547664,195.914159,1263.285984,1175.484952
llama32_1b_to_31_8b,llama_cross,meta-llama/Llama-3.2-1B,meta-llama/Llama-3.1-8B,structured_extraction,structured_extraction_0,10,150,0.9,1.0,64,none,int8,7.474235,8964.128287,133.79296,,16.315808,2.18294,10,67,57,6,4,100,0.57,0.4,0.6,5.7,6.7,210.698302,196.807572,2106.983022,1968.075717
llama32_1b_to_31_8b,llama_cross,meta-llama/Llama-3.2-1B,meta-llama/Llama-3.1-8B,structured_extraction,structured_extraction_0,10,200,0.0,1.0,64,none,int8,7.364592,8961.799812,135.784846,,27.110885,3.681247,6,66,60,0,6,60,1.0,1.0,0.0,10,11,206.341375,195.343019,1238.04825,1172.058115
llama32_1b_to_31_8b,llama_cross,meta-llama/Llama-3.2-1B,meta-llama/Llama-3.1-8B,structured_extraction,structured_extraction_0,10,200,0.9,1.0,64,none,int8,8.106962,9127.956431,123.350763,,25.168646,3.104572,7,74,67,1,6,70,0.957143,0.857143,0.142857,9.571429,10.571429,213.188349,202.78048,1492.318441,1419.463363
llama32_1b_to_31_8b,llama_cross,meta-llama/Llama-3.2-1B,meta-llama/Llama-3.1-8B,structured_extraction,structured_extraction_1,4,50,0.0,1.0,64,none,int8,7.453924,9122.711861,134.157527,,16.427747,2.203906,16,68,52,4,12,64,0.8125,0.75,0.25,3.25,4.25,84.853582,171.648054,1357.657306,2746.36887
llama32_1b_to_31_8b,llama_cross,meta-llama/Llama-3.2-1B,meta-llama/Llama-3.1-8B,structured_extraction,structured_extraction_1,4,50,0.9,1.0,64,none,int8,7.253141,9099.506145,137.871305,,14.630346,2.017105,17,66,49,7,10,68,0.720588,0.588235,0.411765,2.882353,3.882353,88.327791,174.805631,1501.572442,2971.695725
llama32_1b_to_31_8b,llama_cross,meta-llama/Llama-3.2-1B,meta-llama/Llama-3.1-8B,structured_extraction,structured_extraction_1,4,100,0.0,1.0,64,none,int8,7.571103,8849.437586,132.081158,,17.156345,2.26603,15,67,52,2,13,60,0.866667,0.866667,0.133333,3.466667,4.466667,86.981444,171.182377,1304.721661,2567.735653
llama32_1b_to_31_8b,llama_cross,meta-llama/Llama-3.2-1B,meta-llama/Llama-3.1-8B,structured_extraction,structured_extraction_1,4,100,0.9,1.0,64,none,int8,7.194164,9035.10161,139.001563,,12.345352,1.716023,20,65,45,10,10,80,0.5625,0.5,0.5,2.25,3.25,87.413956,173.820955,1748.279113,3476.419102
llama32_1b_to_31_8b,llama_cross,meta-llama/Llama-3.2-1B,meta-llama/Llama-3.1-8B,structured_extraction,structured_extraction_1,4,150,0.0,1.0,64,none,int8,7.25659,8957.375665,137.805779,,19.498752,2.687041,13,65,52,0,13,52,1.0,1.0,0.0,4,5,85.900476,168.257997,1116.706194,2187.353959
llama32_1b_to_31_8b,llama_cross,meta-llama/Llama-3.2-1B,meta-llama/Llama-3.1-8B,structured_extraction,structured_extraction_1,4,150,0.9,1.0,64,none,int8,6.997056,9146.70458,142.917259,,18.461148,2.638417,13,64,51,1,12,52,0.980769,0.923077,0.076923,3.923077,4.923077,88.634284,175.701472,1152.245698,2284.119141
llama32_1b_to_31_8b,llama_cross,meta-llama/Llama-3.2-1B,meta-llama/Llama-3.1-8B,structured_extraction,structured_extraction_1,4,200,0.0,1.0,64,none,int8,7.251329,8963.874361,137.905759,,19.28726,2.659824,13,65,52,0,13,52,1.0,1.0,0.0,4,5,85.579913,171.347365,1112.538871,2227.515743
llama32_1b_to_31_8b,llama_cross,meta-llama/Llama-3.2-1B,meta-llama/Llama-3.1-8B,structured_extraction,structured_extraction_1,4,200,0.9,1.0,64,none,int8,7.170382,8925.605594,139.462587,,18.854029,2.629432,13,64,51,1,12,52,0.980769,0.923077,0.076923,3.923077,4.923077,87.236667,171.589962,1134.076673,2230.66951
llama32_1b_to_31_8b,llama_cross,meta-llama/Llama-3.2-1B,meta-llama/Llama-3.1-8B,structured_extraction,structured_extraction_1,6,50,0.0,1.0,64,none,int8,7.781402,8995.808058,128.511544,,23.21188,2.982995,10,70,60,0,10,60,1.0,1.0,0.0,6,7,125.127072,173.570831,1251.270715,1735.708315
llama32_1b_to_31_8b,llama_cross,meta-llama/Llama-3.2-1B,meta-llama/Llama-3.1-8B,structured_extraction,structured_extraction_1,6,50,0.9,1.0,64,none,int8,7.173156,8922.153519,139.408649,,18.608409,2.594173,11,64,53,4,7,66,0.80303,0.636364,0.363636,4.818182,5.818182,130.624572,179.260967,1436.870291,1971.870639
llama32_1b_to_31_8b,llama_cross,meta-llama/Llama-3.2-1B,meta-llama/Llama-3.1-8B,structured_extraction,structured_extraction_1,6,100,0.0,1.0,64,none,int8,7.871367,8892.991138,127.042731,,22.593006,2.870277,10,70,60,0,10,60,1.0,1.0,0.0,6,7,129.243342,177.607313,1292.433424,1776.073126
llama32_1b_to_31_8b,llama_cross,meta-llama/Llama-3.2-1B,meta-llama/Llama-3.1-8B,structured_extraction,structured_extraction_1,6,100,0.9,1.0,64,none,int8,7.417187,8898.252456,134.822007,,20.860424,2.812444,10,66,56,2,8,60,0.933333,0.8,0.2,5.6,6.6,132.101608,181.342896,1321.016084,1813.428959
llama32_1b_to_31_8b,llama_cross,meta-llama/Llama-3.2-1B,meta-llama/Llama-3.1-8B,structured_extraction,structured_extraction_1,6,150,0.0,1.0,64,none,int8,7.374733,8949.476266,135.598125,,21.210085,2.876048,10,66,56,2,8,60,0.933333,0.8,0.2,5.6,6.6,129.510647,178.63616,1295.106475,1786.361603
llama32_1b_to_31_8b,llama_cross,meta-llama/Llama-3.2-1B,meta-llama/Llama-3.1-8B,structured_extraction,structured_extraction_1,6,150,0.9,1.0,64,none,int8,7.224575,9135.48573,138.41645,,20.900686,2.892999,10,66,56,2,8,60,0.933333,0.8,0.2,5.6,6.6,131.398419,181.397518,1313.984193,1813.975181
llama32_1b_to_31_8b,llama_cross,meta-llama/Llama-3.2-1B,meta-llama/Llama-3.1-8B,structured_extraction,structured_extraction_1,6,200,0.0,1.0,64,none,int8,7.461297,8979.672003,134.024955,,21.691472,2.907199,10,67,57,2,8,60,0.95,0.8,0.2,5.7,6.7,128.601824,177.268459,1286.01824,1772.684586
llama32_1b_to_31_8b,llama_cross,meta-llama/Llama-3.2-1B,meta-llama/Llama-3.1-8B,structured_extraction,structured_extraction_1,6,200,0.9,1.0,64,none,int8,7.393777,8926.426108,135.24888,,20.845421,2.81932,10,66,56,2,8,60,0.933333,0.8,0.2,5.6,6.6,131.50357,182.179746,1315.035697,1821.797455
llama32_1b_to_31_8b,llama_cross,meta-llama/Llama-3.2-1B,meta-llama/Llama-3.1-8B,structured_extraction,structured_extraction_1,8,50,0.0,1.0,64,none,int8,7.764177,9144.562665,128.796657,,19.405387,2.499349,10,71,61,4,6,80,0.7625,0.6,0.4,6.1,7.1,169.878051,192.800759,1698.780514,1928.007591
llama32_1b_to_31_8b,llama_cross,meta-llama/Llama-3.2-1B,meta-llama/Llama-3.1-8B,structured_extraction,structured_extraction_1,8,50,0.9,1.0,64,none,int8,7.865643,8899.462797,127.135183,,18.934848,2.407285,10,70,60,5,5,80,0.75,0.5,0.5,6,7,169.927748,196.580673,1699.27748,1965.806726
llama32_1b_to_31_8b,llama_cross,meta-llama/Llama-3.2-1B,meta-llama/Llama-3.1-8B,structured_extraction,structured_extraction_1,8,100,0.0,1.0,64,none,int8,7.731064,8925.033201,129.348307,,18.702668,2.419158,10,69,59,4,6,80,0.7375,0.6,0.4,5.9,6.9,170.056244,195.714772,1700.562439,1957.147715
llama32_1b_to_31_8b,llama_cross,meta-llama/Llama-3.2-1B,meta-llama/Llama-3.1-8B,structured_extraction,structured_extraction_1,8,100,0.9,1.0,64,none,int8,7.482635,8954.064407,133.642752,,18.354986,2.453011,10,67,57,5,5,80,0.7125,0.5,0.5,5.7,6.7,168.318916,193.60501,1683.189161,1936.050104
llama32_1b_to_31_8b,llama_cross,meta-llama/Llama-3.2-1B,meta-llama/Llama-3.1-8B,structured_extraction,structured_extraction_1,8,150,0.0,1.0,64,none,int8,8.090792,8899.004873,123.59729,,22.117556,2.73367,9,72,63,2,7,72,0.875,0.777778,0.222222,7,8,167.202014,191.185636,1504.818128,1720.67072
llama32_1b_to_31_8b,llama_cross,meta-llama/Llama-3.2-1B,meta-llama/Llama-3.1-8B,structured_extraction,structured_extraction_1,8,150,0.9,1.0,64,none,int8,7.694461,9097.453436,129.963621,,23.707356,3.081094,8,70,62,1,7,64,0.96875,0.875,0.125,7.75,8.75,170.118354,195.433391,1360.946831,1563.467132
llama32_1b_to_31_8b,llama_cross,meta-llama/Llama-3.2-1B,meta-llama/Llama-3.1-8B,structured_extraction,structured_extraction_1,8,200,0.0,1.0,64,none,int8,7.112079,8998.774981,140.605859,,19.694497,2.769162,9,64,55,4,5,72,0.763889,0.555556,0.444444,6.111111,7.111111,165.606635,192.074614,1490.459717,1728.671526
llama32_1b_to_31_8b,llama_cross,meta-llama/Llama-3.2-1B,meta-llama/Llama-3.1-8B,structured_extraction,structured_extraction_1,8,200,0.9,1.0,64,none,int8,7.230571,8851.306419,138.301663,,21.278549,2.942859,8,64,56,2,6,64,0.875,0.75,0.25,7,8,173.742149,198.756378,1389.937196,1590.051027
llama32_1b_to_31_8b,llama_cross,meta-llama/Llama-3.2-1B,meta-llama/Llama-3.1-8B,structured_extraction,structured_extraction_1,10,50,0.0,1.0,64,none,int8,7.018093,9119.287028,142.48886,,19.87489,2.83195,8,64,56,3,5,80,0.7,0.625,0.375,7,8,205.534026,193.586674,1644.272205,1548.693391
llama32_1b_to_31_8b,llama_cross,meta-llama/Llama-3.2-1B,meta-llama/Llama-3.1-8B,structured_extraction,structured_extraction_1,10,50,0.9,1.0,64,none,int8,8.100039,8888.846055,123.456195,,21.389824,2.640706,8,72,64,3,5,80,0.8,0.625,0.375,8,9,213.492608,203.516163,1707.940862,1628.129303
llama32_1b_to_31_8b,llama_cross,meta-llama/Llama-3.2-1B,meta-llama/Llama-3.1-8B,structured_extraction,structured_extraction_1,10,100,0.0,1.0,64,none,int8,7.89458,8866.842427,126.669178,,24.515644,3.105376,7,70,63,1,6,70,0.9,0.857143,0.142857,9,10,209.358911,194.650651,1465.51238,1362.554555
llama32_1b_to_31_8b,llama_cross,meta-llama/Llama-3.2-1B,meta-llama/Llama-3.1-8B,structured_extraction,structured_extraction_1,10,100,0.9,1.0,64,none,int8,7.705477,8824.892028,129.777824,,18.211769,2.363484,9,68,59,4,5,90,0.655556,0.555556,0.444444,6.555556,7.555556,212.386362,199.179606,1911.477256,1792.616455
llama32_1b_to_31_8b,llama_cross,meta-llama/Llama-3.2-1B,meta-llama/Llama-3.1-8B,structured_extraction,structured_extraction_1,10,150,0.0,1.0,64,none,int8,7.212937,8872.945809,138.639778,,22.807849,3.162075,7,64,57,2,5,70,0.814286,0.714286,0.285714,8.142857,9.142857,205.219031,191.919892,1436.533215,1343.439245
llama32_1b_to_31_8b,llama_cross,meta-llama/Llama-3.2-1B,meta-llama/Llama-3.1-8B,structured_extraction,structured_extraction_1,10,150,0.9,1.0,64,none,int8,7.92549,8958.436319,126.175159,,24.09213,3.039828,7,71,64,2,5,70,0.914286,0.714286,0.285714,9.142857,10.142857,217.634553,199.360745,1523.441873,1395.525217
llama32_1b_to_31_8b,llama_cross,meta-llama/Llama-3.2-1B,meta-llama/Llama-3.1-8B,structured_extraction,structured_extraction_1,10,200,0.0,1.0,64,none,int8,7.570307,8982.46261,132.095038,,17.053972,2.252745,10,68,58,7,3,100,0.58,0.3,0.7,5.8,6.8,204.351389,191.17374,2043.513887,1911.7374
llama32_1b_to_31_8b,llama_cross,meta-llama/Llama-3.2-1B,meta-llama/Llama-3.1-8B,structured_extraction,structured_extraction_1,10,200,0.9,1.0,64,none,int8,8.327601,8766.030018,120.082603,,25.32282,3.04083,7,73,66,1,6,70,0.942857,0.857143,0.142857,9.428571,10.428571,210.31543,197.521747,1472.208007,1382.652231
