aXce1-z/LLMSpeculativeSampling-model-pair-search-v2/outputs/run_20260313_073615_nf4_none/trial_results.csv
pair_name,family,approx_model_name,target_model_name,task,prompt_id,gamma,top_k,top_p,temperature,max_tokens,approx_quant,target_quant,baseline_large_tps,baseline_large_elapsed_ms,avg_target_baseline_generate_ms_per_token,baseline_small_tps,speculative_tps,speedup,rounds,generated_tokens,accepted_count,resample_count,target_sample_count,proposed_draft_tokens,acceptance_rate,all_accept_round_rate,resample_round_rate,avg_accepted_per_round,avg_contributed_per_round,avg_draft_generate_ms_per_round,avg_target_verify_ms_per_round,draft_generate_ms_total,target_verify_ms_total
llama32_1b_to_31_8b,llama_cross,meta-llama/Llama-3.2-1B,meta-llama/Llama-3.1-8B,continuation,continuation_0,4,50,0.0,1.0,64,nf4,none,15.562511,4112.446859,64.256982,,19.45803,1.250314,14,64,50,3,11,56,0.892857,0.785714,0.214286,3.571429,4.571429,162.943743,69.726952,2281.2124,976.177326
llama32_1b_to_31_8b,llama_cross,meta-llama/Llama-3.2-1B,meta-llama/Llama-3.1-8B,continuation,continuation_0,4,50,0.9,1.0,64,nf4,none,15.70562,4265.98882,63.671475,,17.650224,1.123816,16,67,51,6,10,64,0.796875,0.625,0.375,3.1875,4.1875,163.228951,71.774128,2611.663211,1148.386052
llama32_1b_to_31_8b,llama_cross,meta-llama/Llama-3.2-1B,meta-llama/Llama-3.1-8B,continuation,continuation_0,4,100,0.0,1.0,64,nf4,none,15.789056,4116.775523,63.335008,,20.85529,1.32087,13,65,52,0,13,52,1.0,1.0,0.0,4,5,167.627115,69.853964,2179.152499,908.101538
llama32_1b_to_31_8b,llama_cross,meta-llama/Llama-3.2-1B,meta-llama/Llama-3.1-8B,continuation,continuation_0,4,100,0.9,1.0,64,nf4,none,16.191399,4137.999431,61.761186,,19.673474,1.215057,14,67,53,1,13,56,0.946429,0.928571,0.071429,3.785714,4.785714,168.605699,72.365362,2360.479787,1013.115069
llama32_1b_to_31_8b,llama_cross,meta-llama/Llama-3.2-1B,meta-llama/Llama-3.1-8B,continuation,continuation_0,4,150,0.0,1.0,64,nf4,none,15.77159,4121.334636,63.405148,,18.857695,1.195675,15,65,50,5,10,60,0.833333,0.666667,0.333333,3.333333,4.333333,157.823521,69.681201,2367.352821,1045.218022
llama32_1b_to_31_8b,llama_cross,meta-llama/Llama-3.2-1B,meta-llama/Llama-3.1-8B,continuation,continuation_0,4,150,0.9,1.0,64,nf4,none,16.400189,4146.293603,60.974906,,19.254323,1.174031,15,68,53,3,12,60,0.883333,0.8,0.2,3.533333,4.533333,161.38479,71.882938,2420.771852,1078.244068
llama32_1b_to_31_8b,llama_cross,meta-llama/Llama-3.2-1B,meta-llama/Llama-3.1-8B,continuation,continuation_0,4,200,0.0,1.0,64,nf4,none,15.990414,4127.472759,62.537466,,17.898289,1.119314,16,66,50,5,11,64,0.78125,0.6875,0.3125,3.125,4.125,158.673159,69.64549,2538.770544,1114.327833
llama32_1b_to_31_8b,llama_cross,meta-llama/Llama-3.2-1B,meta-llama/Llama-3.1-8B,continuation,continuation_0,4,200,0.9,1.0,64,nf4,none,15.673642,4147.089648,63.801379,,20.721839,1.322082,13,65,52,0,13,52,1.0,1.0,0.0,4,5,166.723521,72.34085,2167.405777,940.43105
llama32_1b_to_31_8b,llama_cross,meta-llama/Llama-3.2-1B,meta-llama/Llama-3.1-8B,continuation,continuation_0,6,50,0.0,1.0,64,nf4,none,15.732429,4131.593479,63.562977,,20.603673,1.309631,10,65,55,1,9,60,0.916667,0.9,0.1,5.5,6.5,241.422324,71.259404,2414.223236,712.594039
llama32_1b_to_31_8b,llama_cross,meta-llama/Llama-3.2-1B,meta-llama/Llama-3.1-8B,continuation,continuation_0,6,50,0.9,1.0,64,nf4,none,16.659549,4141.768885,60.025636,,16.706099,1.002794,13,69,56,6,7,78,0.717949,0.538462,0.461538,4.307692,5.307692,240.837224,74.175612,3130.883912,964.28295
llama32_1b_to_31_8b,llama_cross,meta-llama/Llama-3.2-1B,meta-llama/Llama-3.1-8B,continuation,continuation_0,6,100,0.0,1.0,64,nf4,none,16.52928,4113.91174,60.498702,,21.831792,1.320795,10,68,58,1,9,60,0.966667,0.9,0.1,5.8,6.8,237.496518,71.134608,2374.965183,711.346077
llama32_1b_to_31_8b,llama_cross,meta-llama/Llama-3.2-1B,meta-llama/Llama-3.1-8B,continuation,continuation_0,6,100,0.9,1.0,64,nf4,none,16.406664,4144.657238,60.950842,,17.96584,1.095033,12,68,56,4,8,72,0.777778,0.666667,0.333333,4.666667,5.666667,238.692712,73.937607,2864.31254,887.251283
llama32_1b_to_31_8b,llama_cross,meta-llama/Llama-3.2-1B,meta-llama/Llama-3.1-8B,continuation,continuation_0,6,150,0.0,1.0,64,nf4,none,15.564651,4111.881426,64.248147,,17.455592,1.121489,12,64,52,5,7,72,0.722222,0.583333,0.416667,4.333333,5.333333,232.167988,70.756386,2786.01585,849.076631
llama32_1b_to_31_8b,llama_cross,meta-llama/Llama-3.2-1B,meta-llama/Llama-3.1-8B,continuation,continuation_0,6,150,0.9,1.0,64,nf4,none,16.218454,4131.096493,61.658157,,19.526142,1.203946,11,67,56,2,9,66,0.848485,0.818182,0.181818,5.090909,6.090909,235.357626,73.914477,2588.933884,813.059242
llama32_1b_to_31_8b,llama_cross,meta-llama/Llama-3.2-1B,meta-llama/Llama-3.1-8B,continuation,continuation_0,6,200,0.0,1.0,64,nf4,none,16.463339,4130.389342,60.74102,,17.037727,1.034889,13,68,55,7,6,78,0.705128,0.461538,0.538462,4.230769,5.230769,233.399702,70.806867,3034.196125,920.489274
llama32_1b_to_31_8b,llama_cross,meta-llama/Llama-3.2-1B,meta-llama/Llama-3.1-8B,continuation,continuation_0,6,200,0.9,1.0,64,nf4,none,16.425007,4140.028748,60.882776,,21.261224,1.294442,10,68,58,1,9,60,0.966667,0.9,0.1,5.8,6.8,242.319739,74.579432,2423.19739,745.794321
llama32_1b_to_31_8b,llama_cross,meta-llama/Llama-3.2-1B,meta-llama/Llama-3.1-8B,continuation,continuation_0,8,50,0.0,1.0,64,nf4,none,17.257437,4114.168357,57.946033,,18.276316,1.05904,10,71,61,4,6,80,0.7625,0.6,0.4,6.1,7.1,313.087419,72.204862,3130.874192,722.048616
llama32_1b_to_31_8b,llama_cross,meta-llama/Llama-3.2-1B,meta-llama/Llama-3.1-8B,continuation,continuation_0,8,50,0.9,1.0,64,nf4,none,15.656566,4151.612819,63.870966,,12.118845,0.774042,14,65,51,11,3,112,0.455357,0.214286,0.785714,3.642857,4.642857,305.824854,74.681188,4281.547961,1045.536632
llama32_1b_to_31_8b,llama_cross,meta-llama/Llama-3.2-1B,meta-llama/Llama-3.1-8B,continuation,continuation_0,8,100,0.0,1.0,64,nf4,none,16.249168,4123.288075,61.541613,,17.538897,1.079372,10,67,57,5,5,80,0.7125,0.5,0.5,5.7,6.7,306.7457,72.0816,3067.457,720.816001
llama32_1b_to_31_8b,llama_cross,meta-llama/Llama-3.2-1B,meta-llama/Llama-3.1-8B,continuation,continuation_0,8,100,0.9,1.0,64,nf4,none,17.148129,4140.393352,58.315399,,18.088073,1.054813,10,71,61,4,6,80,0.7625,0.6,0.4,6.1,7.1,312.985442,76.356563,3129.854421,763.56563
llama32_1b_to_31_8b,llama_cross,meta-llama/Llama-3.2-1B,meta-llama/Llama-3.1-8B,continuation,continuation_0,8,150,0.0,1.0,64,nf4,none,15.751743,4126.527474,63.485038,,18.767404,1.191449,9,65,56,3,6,72,0.777778,0.666667,0.333333,6.222222,7.222222,309.438729,72.231523,2784.94856,650.083708
llama32_1b_to_31_8b,llama_cross,meta-llama/Llama-3.2-1B,meta-llama/Llama-3.1-8B,continuation,continuation_0,8,150,0.9,1.0,64,nf4,none,16.16282,4145.316218,61.870391,,18.998479,1.175443,9,67,58,3,6,72,0.805556,0.666667,0.333333,6.444444,7.444444,312.390812,76.222097,2811.517306,685.998873
llama32_1b_to_31_8b,llama_cross,meta-llama/Llama-3.2-1B,meta-llama/Llama-3.1-8B,continuation,continuation_0,8,200,0.0,1.0,64,nf4,none,15.530536,4120.913672,64.389276,,15.283493,0.984093,11,64,53,7,4,88,0.602273,0.363636,0.636364,4.818182,5.818182,305.98481,71.780073,3365.832915,789.580808
llama32_1b_to_31_8b,llama_cross,meta-llama/Llama-3.2-1B,meta-llama/Llama-3.1-8B,continuation,continuation_0,8,200,0.9,1.0,64,nf4,none,15.696298,4141.103783,63.709289,,15.187419,0.96758,11,65,54,8,3,88,0.613636,0.272727,0.727273,4.909091,5.909091,310.565028,75.543942,3416.215313,830.983357
llama32_1b_to_31_8b,llama_cross,meta-llama/Llama-3.2-1B,meta-llama/Llama-3.1-8B,continuation,continuation_0,10,50,0.0,1.0,64,nf4,none,15.523304,4122.833535,64.419274,,19.717142,1.270164,7,64,57,2,5,70,0.814286,0.714286,0.285714,8.142857,9.142857,386.229944,73.75444,2703.60961,516.281082
llama32_1b_to_31_8b,llama_cross,meta-llama/Llama-3.2-1B,meta-llama/Llama-3.1-8B,continuation,continuation_0,10,50,0.9,1.0,64,nf4,none,16.894682,4143.31564,59.190223,,12.672971,0.750116,12,70,58,10,2,120,0.483333,0.166667,0.833333,4.833333,5.833333,381.004858,76.286237,4572.058299,915.434844
llama32_1b_to_31_8b,llama_cross,meta-llama/Llama-3.2-1B,meta-llama/Llama-3.1-8B,continuation,continuation_0,10,100,0.0,1.0,64,nf4,none,16.520233,4116.164759,60.531835,,18.804461,1.138268,8,68,60,5,3,80,0.75,0.375,0.625,7.5,8.5,375.355222,73.020953,3002.841772,584.167624
llama32_1b_to_31_8b,llama_cross,meta-llama/Llama-3.2-1B,meta-llama/Llama-3.1-8B,continuation,continuation_0,10,100,0.9,1.0,64,nf4,none,16.427968,4139.282549,60.871802,,13.396417,0.815464,11,68,57,7,4,110,0.518182,0.363636,0.636364,5.181818,6.181818,381.607889,76.75554,4197.686781,844.310936
llama32_1b_to_31_8b,llama_cross,meta-llama/Llama-3.2-1B,meta-llama/Llama-3.1-8B,continuation,continuation_0,10,150,0.0,1.0,64,nf4,none,17.946723,4123.315506,55.72048,,19.875179,1.107455,8,74,66,2,6,80,0.825,0.75,0.25,8.25,9.25,388.395653,73.266816,3107.165225,586.134531
llama32_1b_to_31_8b,llama_cross,meta-llama/Llama-3.2-1B,meta-llama/Llama-3.1-8B,continuation,continuation_0,10,150,0.9,1.0,64,nf4,none,17.621362,4142.698958,56.749301,,19.138113,1.086075,8,73,65,4,4,80,0.8125,0.5,0.5,8.125,9.125,394.778498,78.105665,3158.227982,624.84532
llama32_1b_to_31_8b,llama_cross,meta-llama/Llama-3.2-1B,meta-llama/Llama-3.1-8B,continuation,continuation_0,10,200,0.0,1.0,64,nf4,none,16.013703,4121.470243,62.446519,,16.218048,1.012761,9,66,57,6,3,90,0.633333,0.333333,0.666667,6.333333,7.333333,376.049374,72.782733,3384.444366,655.044595
llama32_1b_to_31_8b,llama_cross,meta-llama/Llama-3.2-1B,meta-llama/Llama-3.1-8B,continuation,continuation_0,10,200,0.9,1.0,64,nf4,none,16.652167,4143.604901,60.052245,,11.595324,0.696325,13,69,56,10,3,130,0.430769,0.230769,0.769231,4.307692,5.307692,378.86368,76.044439,4925.227845,988.577708
llama32_1b_to_31_8b,llama_cross,meta-llama/Llama-3.2-1B,meta-llama/Llama-3.1-8B,continuation,continuation_1,4,50,0.0,1.0,64,nf4,none,16.475028,4127.458813,60.697924,,19.364215,1.175368,15,68,53,4,11,60,0.883333,0.733333,0.266667,3.533333,4.533333,162.166085,69.660923,2432.491275,1044.913845
llama32_1b_to_31_8b,llama_cross,meta-llama/Llama-3.2-1B,meta-llama/Llama-3.1-8B,continuation,continuation_1,4,50,0.9,1.0,64,nf4,none,15.700002,4140.126942,63.694261,,18.406654,1.172398,15,65,50,5,10,60,0.833333,0.666667,0.333333,3.333333,4.333333,161.335007,71.826133,2420.025107,1077.391994
llama32_1b_to_31_8b,llama_cross,meta-llama/Llama-3.2-1B,meta-llama/Llama-3.1-8B,continuation,continuation_1,4,100,0.0,1.0,64,nf4,none,16.483117,4125.433386,60.668138,,18.210558,1.104801,16,68,52,5,11,64,0.8125,0.6875,0.3125,3.25,4.25,161.708119,69.457056,2587.329909,1111.3129
llama32_1b_to_31_8b,llama_cross,meta-llama/Llama-3.2-1B,meta-llama/Llama-3.1-8B,continuation,continuation_1,4,100,0.9,1.0,64,nf4,none,16.168641,4143.823897,61.848118,,16.587325,1.025895,17,67,50,7,10,68,0.735294,0.588235,0.411765,2.941176,3.941176,163.562231,71.751554,2780.55792,1219.776411
llama32_1b_to_31_8b,llama_cross,meta-llama/Llama-3.2-1B,meta-llama/Llama-3.1-8B,continuation,continuation_1,4,150,0.0,1.0,64,nf4,none,15.473716,4136.045902,64.625717,,19.407347,1.254214,14,64,50,2,12,56,0.892857,0.857143,0.142857,3.571429,4.571429,163.500678,69.771487,2289.009485,976.800812
llama32_1b_to_31_8b,llama_cross,meta-llama/Llama-3.2-1B,meta-llama/Llama-3.1-8B,continuation,continuation_1,4,150,0.9,1.0,64,nf4,none,15.388948,4158.828675,64.981698,,19.150377,1.244424,14,64,50,3,11,56,0.892857,0.785714,0.214286,3.571429,4.571429,164.333603,72.091107,2300.670444,1009.275505
llama32_1b_to_31_8b,llama_cross,meta-llama/Llama-3.2-1B,meta-llama/Llama-3.1-8B,continuation,continuation_1,4,200,0.0,1.0,64,nf4,none,15.49967,4129.120134,64.517502,,20.739249,1.338045,13,64,51,1,12,52,0.980769,0.923077,0.076923,3.923077,4.923077,165.024939,69.977258,2145.324203,909.704355
llama32_1b_to_31_8b,llama_cross,meta-llama/Llama-3.2-1B,meta-llama/Llama-3.1-8B,continuation,continuation_1,4,200,0.9,1.0,64,nf4,none,16.382385,4150.799741,61.041173,,16.439893,1.00351,17,68,51,6,11,68,0.75,0.647059,0.352941,3,4,169.111791,71.95279,2874.900445,1223.197436
llama32_1b_to_31_8b,llama_cross,meta-llama/Llama-3.2-1B,meta-llama/Llama-3.1-8B,continuation,continuation_1,6,50,0.0,1.0,64,nf4,none,15.710918,4137.250323,63.650005,,18.766103,1.194463,11,65,54,4,7,66,0.818182,0.636364,0.363636,4.909091,5.909091,240.440791,71.59153,2644.848703,787.506831
llama32_1b_to_31_8b,llama_cross,meta-llama/Llama-3.2-1B,meta-llama/Llama-3.1-8B,continuation,continuation_1,6,50,0.9,1.0,64,nf4,none,16.373397,4153.078347,61.074682,,17.950258,1.096306,12,68,56,4,8,72,0.777778,0.666667,0.333333,4.666667,5.666667,238.993592,73.966398,2867.923109,887.596774
llama32_1b_to_31_8b,llama_cross,meta-llama/Llama-3.2-1B,meta-llama/Llama-3.1-8B,continuation,continuation_1,6,100,0.0,1.0,64,nf4,none,16.009983,4122.427743,62.461026,,19.446277,1.214634,11,66,55,3,8,66,0.833333,0.727273,0.272727,5,6,234.824706,70.951647,2583.071771,780.468113
llama32_1b_to_31_8b,llama_cross,meta-llama/Llama-3.2-1B,meta-llama/Llama-3.1-8B,continuation,continuation_1,6,100,0.9,1.0,64,nf4,none,16.402121,4145.805268,60.967725,,19.407902,1.183256,11,68,57,3,8,66,0.863636,0.727273,0.272727,5.181818,6.181818,241.511765,74.158362,2656.629417,815.741982
llama32_1b_to_31_8b,llama_cross,meta-llama/Llama-3.2-1B,meta-llama/Llama-3.1-8B,continuation,continuation_1,6,150,0.0,1.0,64,nf4,none,15.524761,4122.446759,64.413231,,18.50641,1.192058,11,64,53,4,7,66,0.80303,0.636364,0.363636,4.818182,5.818182,240.516743,71.079914,2645.684173,781.87905
llama32_1b_to_31_8b,llama_cross,meta-llama/Llama-3.2-1B,meta-llama/Llama-3.1-8B,continuation,continuation_1,6,150,0.9,1.0,64,nf4,none,15.437432,4145.767248,64.777613,,17.08824,1.106935,12,64,52,6,6,72,0.722222,0.5,0.5,4.333333,5.333333,235.619005,73.80178,2827.42806,885.621354
llama32_1b_to_31_8b,llama_cross,meta-llama/Llama-3.2-1B,meta-llama/Llama-3.1-8B,continuation,continuation_1,6,200,0.0,1.0,64,nf4,none,16.242724,4124.923998,61.56603,,21.388245,1.316789,10,67,57,1,9,60,0.95,0.9,0.1,5.7,6.7,239.198929,71.174632,2391.989288,711.746324
llama32_1b_to_31_8b,llama_cross,meta-llama/Llama-3.2-1B,meta-llama/Llama-3.1-8B,continuation,continuation_1,6,200,0.9,1.0,64,nf4,none,15.464505,4138.509554,64.664212,,12.865086,0.831911,16,64,48,9,7,96,0.5,0.4375,0.5625,3,4,235.440252,73.186634,3767.044033,1170.986145
llama32_1b_to_31_8b,llama_cross,meta-llama/Llama-3.2-1B,meta-llama/Llama-3.1-8B,continuation,continuation_1,8,50,0.0,1.0,64,nf4,none,15.528798,4121.374946,64.396484,,16.698872,1.075349,10,64,54,5,5,80,0.675,0.5,0.5,5.4,6.4,308.125016,72.117979,3081.250157,721.179792
llama32_1b_to_31_8b,llama_cross,meta-llama/Llama-3.2-1B,meta-llama/Llama-3.1-8B,continuation,continuation_1,8,50,0.9,1.0,64,nf4,none,16.42898,4139.027515,60.868052,,13.416833,0.816656,13,68,55,9,4,104,0.528846,0.307692,0.692308,4.230769,5.230769,311.847145,75.127601,4054.012888,976.658814
llama32_1b_to_31_8b,llama_cross,meta-llama/Llama-3.2-1B,meta-llama/Llama-3.1-8B,continuation,continuation_1,8,100,0.0,1.0,64,nf4,none,17.456519,4124.533613,57.285189,,22.841392,1.308473,8,72,64,0,8,64,1.0,1.0,0.0,8,9,317.936418,72.560841,2543.491345,580.486729
llama32_1b_to_31_8b,llama_cross,meta-llama/Llama-3.2-1B,meta-llama/Llama-3.1-8B,continuation,continuation_1,8,100,0.9,1.0,64,nf4,none,15.461937,4139.196724,64.674949,,18.219887,1.17837,9,64,55,3,6,72,0.763889,0.666667,0.333333,6.111111,7.111111,311.145394,75.997284,2800.308546,683.97556
llama32_1b_to_31_8b,llama_cross,meta-llama/Llama-3.2-1B,meta-llama/Llama-3.1-8B,continuation,continuation_1,8,150,0.0,1.0,64,nf4,none,17.481844,4118.558755,57.202205,,23.133084,1.323263,8,72,64,0,8,64,1.0,1.0,0.0,8,9,313.003196,72.527952,2504.025571,580.223619
llama32_1b_to_31_8b,llama_cross,meta-llama/Llama-3.2-1B,meta-llama/Llama-3.1-8B,continuation,continuation_1,8,150,0.9,1.0,64,nf4,none,16.394831,4147.64881,60.994835,,15.503429,0.945629,11,68,57,6,5,88,0.647727,0.454545,0.545455,5.181818,6.181818,320.018426,75.530714,3520.20269,830.837851
llama32_1b_to_31_8b,llama_cross,meta-llama/Llama-3.2-1B,meta-llama/Llama-3.1-8B,continuation,continuation_1,8,200,0.0,1.0,64,nf4,none,16.01448,4121.270324,62.44349,,21.141233,1.320132,8,66,58,2,6,64,0.90625,0.75,0.25,7.25,8.25,314.117872,72.640412,2512.942975,581.123298
llama32_1b_to_31_8b,llama_cross,meta-llama/Llama-3.2-1B,meta-llama/Llama-3.1-8B,continuation,continuation_1,8,200,0.9,1.0,64,nf4,none,16.161464,4145.663983,61.875582,,17.023911,1.053364,10,67,57,4,6,80,0.7125,0.6,0.4,5.7,6.7,314.863156,75.659568,3148.631558,756.595684
llama32_1b_to_31_8b,llama_cross,meta-llama/Llama-3.2-1B,meta-llama/Llama-3.1-8B,continuation,continuation_1,10,50,0.0,1.0,64,nf4,none,15.743545,4128.67612,63.518094,,15.770677,1.001723,9,65,56,5,4,90,0.622222,0.444444,0.555556,6.222222,7.222222,381.728366,72.844046,3435.555296,655.596415
llama32_1b_to_31_8b,llama_cross,meta-llama/Llama-3.2-1B,meta-llama/Llama-3.1-8B,continuation,continuation_1,10,50,0.9,1.0,64,nf4,none,15.936787,4141.361838,62.747907,,12.915589,0.810426,11,66,55,10,1,110,0.5,0.090909,0.909091,5,6,384.764152,76.665804,4232.405675,843.323839
llama32_1b_to_31_8b,llama_cross,meta-llama/Llama-3.2-1B,meta-llama/Llama-3.1-8B,continuation,continuation_1,10,100,0.0,1.0,64,nf4,none,15.544625,4117.178881,64.33092,,13.945018,0.897096,10,64,54,8,2,100,0.54,0.2,0.8,5.4,6.4,383.079707,72.654028,3830.797073,726.540281
llama32_1b_to_31_8b,llama_cross,meta-llama/Llama-3.2-1B,meta-llama/Llama-3.1-8B,continuation,continuation_1,10,100,0.9,1.0,64,nf4,none,17.874506,4139.974651,55.945603,,14.339067,0.802208,11,74,63,6,5,110,0.572727,0.454545,0.545455,5.727273,6.727273,389.230831,76.752531,4281.539146,844.277843
llama32_1b_to_31_8b,llama_cross,meta-llama/Llama-3.2-1B,meta-llama/Llama-3.1-8B,continuation,continuation_1,10,150,0.0,1.0,64,nf4,none,16.244907,4124.36964,61.557756,,20.876622,1.285118,7,67,60,3,4,70,0.857143,0.571429,0.428571,8.571429,9.571429,381.100295,73.455105,2667.702067,514.185737
llama32_1b_to_31_8b,llama_cross,meta-llama/Llama-3.2-1B,meta-llama/Llama-3.1-8B,continuation,continuation_1,10,150,0.9,1.0,64,nf4,none,15.469843,4137.081448,64.641898,,13.738354,0.888073,10,64,54,7,3,100,0.54,0.3,0.7,5.4,6.4,385.671079,77.030421,3856.710791,770.304207
llama32_1b_to_31_8b,llama_cross,meta-llama/Llama-3.2-1B,meta-llama/Llama-3.1-8B,continuation,continuation_1,10,200,0.0,1.0,64,nf4,none,16.019466,4119.98756,62.424054,,17.958572,1.121047,8,66,58,3,5,80,0.725,0.625,0.375,7.25,8.25,382.632502,73.249906,3061.060013,585.999252
llama32_1b_to_31_8b,llama_cross,meta-llama/Llama-3.2-1B,meta-llama/Llama-3.1-8B,continuation,continuation_1,10,200,0.9,1.0,64,nf4,none,15.6774,4146.095759,63.786089,,17.399037,1.109817,8,65,57,7,1,80,0.7125,0.125,0.875,7.125,8.125,384.964251,78.158836,3079.714005,625.270686
llama32_1b_to_31_8b,llama_cross,meta-llama/Llama-3.2-1B,meta-llama/Llama-3.1-8B,code_completion,code_completion_0,4,50,0.0,1.0,64,nf4,none,16.49519,4122.413954,60.623735,,18.158149,1.100815,16,68,52,3,13,64,0.8125,0.8125,0.1875,3.25,4.25,162.337079,69.531256,2597.393261,1112.500093
llama32_1b_to_31_8b,llama_cross,meta-llama/Llama-3.2-1B,meta-llama/Llama-3.1-8B,code_completion,code_completion_0,4,50,0.9,1.0,64,nf4,none,15.930235,4143.065096,62.773714,,16.252399,1.020223,17,66,49,8,9,68,0.720588,0.529412,0.470588,2.882353,3.882353,165.105441,71.543222,2806.7925,1216.234777
llama32_1b_to_31_8b,llama_cross,meta-llama/Llama-3.2-1B,meta-llama/Llama-3.1-8B,code_completion,code_completion_0,4,100,0.0,1.0,64,nf4,none,16.496445,4122.100141,60.61912,,18.196144,1.103034,16,68,52,3,13,64,0.8125,0.8125,0.1875,3.25,4.25,162.128613,69.28345,2594.057811,1108.535198
llama32_1b_to_31_8b,llama_cross,meta-llama/Llama-3.2-1B,meta-llama/Llama-3.1-8B,code_completion,code_completion_0,4,100,0.9,1.0,64,nf4,none,16.4337,4137.838589,60.850567,,18.140782,1.103877,16,68,52,4,12,64,0.8125,0.75,0.25,3.25,4.25,160.64021,71.4718,2570.243358,1143.548793
llama32_1b_to_31_8b,llama_cross,meta-llama/Llama-3.2-1B,meta-llama/Llama-3.1-8B,code_completion,code_completion_0,4,150,0.0,1.0,64,nf4,none,16.281853,4115.010682,61.41807,,19.247147,1.182123,15,67,52,2,13,60,0.866667,0.866667,0.133333,3.466667,4.466667,160.531924,69.384249,2407.978861,1040.763741
llama32_1b_to_31_8b,llama_cross,meta-llama/Llama-3.2-1B,meta-llama/Llama-3.1-8B,code_completion,code_completion_0,4,150,0.9,1.0,64,nf4,none,16.439334,4136.420608,60.829715,,18.10034,1.101039,16,68,52,5,11,64,0.8125,0.6875,0.3125,3.25,4.25,161.078549,71.523422,2577.256783,1144.374752
llama32_1b_to_31_8b,llama_cross,meta-llama/Llama-3.2-1B,meta-llama/Llama-3.1-8B,code_completion,code_completion_0,4,200,0.0,1.0,64,nf4,none,16.249817,4123.123408,61.539155,,18.860734,1.160674,15,67,52,2,13,60,0.866667,0.866667,0.133333,3.466667,4.466667,165.154044,69.484947,2477.31066,1042.274207
llama32_1b_to_31_8b,llama_cross,meta-llama/Llama-3.2-1B,meta-llama/Llama-3.1-8B,code_completion,code_completion_0,4,200,0.9,1.0,64,nf4,none,16.433952,4137.775288,60.849637,,18.039194,1.097678,16,68,52,5,11,64,0.8125,0.6875,0.3125,3.25,4.25,161.823184,71.568261,2589.170938,1145.092173
llama32_1b_to_31_8b,llama_cross,meta-llama/Llama-3.2-1B,meta-llama/Llama-3.1-8B,code_completion,code_completion_0,6,50,0.0,1.0,64,nf4,none,15.545412,4116.970219,64.32766,,17.449904,1.122511,12,64,52,4,8,72,0.722222,0.666667,0.333333,4.333333,5.333333,232.62358,70.466008,2791.482962,845.592102
llama32_1b_to_31_8b,llama_cross,meta-llama/Llama-3.2-1B,meta-llama/Llama-3.1-8B,code_completion,code_completion_0,6,50,0.9,1.0,64,nf4,none,15.952193,4137.362238,62.687307,,16.414402,1.028975,13,66,53,6,7,78,0.679487,0.538462,0.461538,4.076923,5.076923,233.501102,73.238826,3035.514325,952.104739
llama32_1b_to_31_8b,llama_cross,meta-llama/Llama-3.2-1B,meta-llama/Llama-3.1-8B,code_completion,code_completion_0,6,100,0.0,1.0,64,nf4,none,15.510737,4126.174004,64.471469,,17.454052,1.125288,12,64,52,4,8,72,0.722222,0.666667,0.333333,4.333333,5.333333,232.529054,70.474583,2790.348651,845.694998
llama32_1b_to_31_8b,llama_cross,meta-llama/Llama-3.2-1B,meta-llama/Llama-3.1-8B,code_completion,code_completion_0,6,100,0.9,1.0,64,nf4,none,15.963641,4134.395156,62.642351,,15.943311,0.998726,13,66,53,5,8,78,0.679487,0.615385,0.384615,4.076923,5.076923,242.346691,73.497686,3150.506977,955.469913
llama32_1b_to_31_8b,llama_cross,meta-llama/Llama-3.2-1B,meta-llama/Llama-3.1-8B,code_completion,code_completion_0,6,150,0.0,1.0,64,nf4,none,15.501545,4128.620698,64.509698,,17.241346,1.112234,12,64,52,4,8,72,0.722222,0.666667,0.333333,4.333333,5.333333,236.126724,70.561445,2833.520682,846.737341
llama32_1b_to_31_8b,llama_cross,meta-llama/Llama-3.2-1B,meta-llama/Llama-3.1-8B,code_completion,code_completion_0,6,150,0.9,1.0,64,nf4,none,15.68076,4145.207257,63.772419,,16.051563,1.023647,13,65,52,6,7,78,0.666667,0.538462,0.461538,4,5,235.60572,73.346137,3062.874364,953.499778
llama32_1b_to_31_8b,llama_cross,meta-llama/Llama-3.2-1B,meta-llama/Llama-3.1-8B,code_completion,code_completion_0,6,200,0.0,1.0,64,nf4,none,15.53099,4120.793462,64.387398,,17.328015,1.115706,12,64,52,4,8,72,0.722222,0.666667,0.333333,4.333333,5.333333,234.476416,70.664884,2813.716997,847.978603
llama32_1b_to_31_8b,llama_cross,meta-llama/Llama-3.2-1B,meta-llama/Llama-3.1-8B,code_completion,code_completion_0,6,200,0.9,1.0,64,nf4,none,15.65165,4152.916867,63.891029,,15.976837,1.020777,13,65,52,6,7,78,0.666667,0.538462,0.461538,4,5,236.902558,73.466093,3079.733248,955.059214
llama32_1b_to_31_8b,llama_cross,meta-llama/Llama-3.2-1B,meta-llama/Llama-3.1-8B,code_completion,code_completion_0,8,50,0.0,1.0,64,nf4,none,17.187595,4130.886261,58.181497,,16.760838,0.975171,11,71,60,4,7,88,0.681818,0.636364,0.363636,5.454545,6.454545,310.249903,71.82243,3412.748938,790.046725
llama32_1b_to_31_8b,llama_cross,meta-llama/Llama-3.2-1B,meta-llama/Llama-3.1-8B,code_completion,code_completion_0,8,50,0.9,1.0,64,nf4,none,16.631705,4148.702638,60.126125,,15.870387,0.954225,11,69,58,5,6,88,0.659091,0.545455,0.454545,5.272727,6.272727,316.821967,75.405022,3485.041642,829.455241
llama32_1b_to_31_8b,llama_cross,meta-llama/Llama-3.2-1B,meta-llama/Llama-3.1-8B,code_completion,code_completion_0,8,100,0.0,1.0,64,nf4,none,15.973123,4131.94082,62.605164,,17.003663,1.064517,10,66,56,3,7,80,0.7,0.7,0.3,5.6,6.6,313.244776,71.888885,3132.447757,718.88885
llama32_1b_to_31_8b,llama_cross,meta-llama/Llama-3.2-1B,meta-llama/Llama-3.1-8B,code_completion,code_completion_0,8,100,0.9,1.0,64,nf4,none,15.654718,4152.102808,63.878505,,12.946732,0.827018,13,65,52,9,4,104,0.5,0.307692,0.692308,4,5,308.650945,74.841174,4012.462283,972.935265
llama32_1b_to_31_8b,llama_cross,meta-llama/Llama-3.2-1B,meta-llama/Llama-3.1-8B,code_completion,code_completion_0,8,150,0.0,1.0,64,nf4,none,16.472561,4128.076876,60.707013,,17.584337,1.067493,10,68,58,3,7,80,0.725,0.7,0.3,5.8,6.8,311.605504,71.971909,3116.055045,719.71909
llama32_1b_to_31_8b,llama_cross,meta-llama/Llama-3.2-1B,meta-llama/Llama-3.1-8B,code_completion,code_completion_0,8,150,0.9,1.0,64,nf4,none,16.391356,4148.527949,61.007764,,15.806104,0.964295,11,68,57,5,6,88,0.647727,0.545455,0.454545,5.181818,6.181818,312.734734,75.371084,3440.08207,829.081925
llama32_1b_to_31_8b,llama_cross,meta-llama/Llama-3.2-1B,meta-llama/Llama-3.1-8B,code_completion,code_completion_0,8,200,0.0,1.0,64,nf4,none,16.453689,4132.811876,60.776645,,17.648301,1.072605,10,68,58,3,7,80,0.725,0.7,0.3,5.8,6.8,310.408774,71.868631,3104.087736,718.686307
llama32_1b_to_31_8b,llama_cross,meta-llama/Llama-3.2-1B,meta-llama/Llama-3.1-8B,code_completion,code_completion_0,8,200,0.9,1.0,64,nf4,none,16.392955,4148.123504,61.001816,,15.960357,0.973611,11,68,57,5,6,88,0.647727,0.545455,0.454545,5.181818,6.181818,309.044895,75.341498,3399.493842,828.756482
llama32_1b_to_31_8b,llama_cross,meta-llama/Llama-3.2-1B,meta-llama/Llama-3.1-8B,code_completion,code_completion_0,10,50,0.0,1.0,64,nf4,none,17.939795,4124.907674,55.741996,,16.199703,0.903004,10,74,64,4,6,100,0.64,0.6,0.4,6.4,7.4,380.945632,72.523823,3809.456324,725.238228
llama32_1b_to_31_8b,llama_cross,meta-llama/Llama-3.2-1B,meta-llama/Llama-3.1-8B,code_completion,code_completion_0,10,50,0.9,1.0,64,nf4,none,17.837745,4148.506452,56.060898,,16.101894,0.902687,10,74,64,7,3,100,0.64,0.3,0.7,6.4,7.4,379.318632,76.789908,3793.18632,767.899081
llama32_1b_to_31_8b,llama_cross,meta-llama/Llama-3.2-1B,meta-llama/Llama-3.1-8B,code_completion,code_completion_0,10,100,0.0,1.0,64,nf4,none,15.50281,4128.28382,64.504435,,17.448716,1.12552,8,64,56,3,5,80,0.7,0.625,0.375,7,8,382.014902,73.022046,3056.119213,584.176366
llama32_1b_to_31_8b,llama_cross,meta-llama/Llama-3.2-1B,meta-llama/Llama-3.1-8B,code_completion,code_completion_0,10,100,0.9,1.0,64,nf4,none,17.365118,4146.243031,57.586709,,11.879659,0.68411,13,72,59,8,5,130,0.453846,0.384615,0.615385,4.538462,5.538462,387.423642,75.968735,5036.507348,987.593559
llama32_1b_to_31_8b,llama_cross,meta-llama/Llama-3.2-1B,meta-llama/Llama-3.1-8B,code_completion,code_completion_0,10,150,0.0,1.0,64,nf4,none,17.434098,4129.838061,57.358862,,17.272474,0.990729,9,72,63,3,6,90,0.7,0.666667,0.333333,7,8,386.793207,72.9071,3481.138865,656.163904
llama32_1b_to_31_8b,llama_cross,meta-llama/Llama-3.2-1B,meta-llama/Llama-3.1-8B,code_completion,code_completion_0,10,150,0.9,1.0,64,nf4,none,15.888484,4153.951891,62.938665,,14.151613,0.890684,10,66,56,7,3,100,0.56,0.3,0.7,5.6,6.6,386.167805,76.940689,3861.678051,769.406889
llama32_1b_to_31_8b,llama_cross,meta-llama/Llama-3.2-1B,meta-llama/Llama-3.1-8B,code_completion,code_completion_0,10,200,0.0,1.0,64,nf4,none,16.939908,4132.253811,59.032197,,16.853848,0.99492,9,70,61,3,6,90,0.677778,0.666667,0.333333,6.777778,7.777778,385.121727,72.969227,3466.095545,656.723041
llama32_1b_to_31_8b,llama_cross,meta-llama/Llama-3.2-1B,meta-llama/Llama-3.1-8B,code_completion,code_completion_0,10,200,0.9,1.0,64,nf4,none,15.915753,4146.834942,62.830832,,14.239471,0.894678,10,66,56,7,3,100,0.56,0.3,0.7,5.6,6.6,383.624654,76.669763,3836.246537,766.697633
llama32_1b_to_31_8b,llama_cross,meta-llama/Llama-3.2-1B,meta-llama/Llama-3.1-8B,code_completion,code_completion_1,4,50,0.0,1.0,64,nf4,none,16.286632,4113.803264,61.400049,,18.092854,1.110902,16,67,51,5,11,64,0.796875,0.6875,0.3125,3.1875,4.1875,160.256208,68.99419,2564.099327,1103.907042
llama32_1b_to_31_8b,llama_cross,meta-llama/Llama-3.2-1B,meta-llama/Llama-3.1-8B,code_completion,code_completion_1,4,50,0.9,1.0,64,nf4,none,15.493233,4130.835728,64.544308,,15.360573,0.991438,18,64,46,10,8,72,0.638889,0.444444,0.555556,2.555556,3.555556,158.64038,70.709344,2855.526839,1272.768198
llama32_1b_to_31_8b,llama_cross,meta-llama/Llama-3.2-1B,meta-llama/Llama-3.1-8B,code_completion,code_completion_1,4,100,0.0,1.0,64,nf4,none,16.505424,4119.857929,60.586146,,16.632694,1.007711,18,68,50,8,10,72,0.694444,0.555556,0.444444,2.777778,3.777778,156.196163,68.822586,2811.530938,1238.806542
llama32_1b_to_31_8b,llama_cross,meta-llama/Llama-3.2-1B,meta-llama/Llama-3.1-8B,code_completion,code_completion_1,4,100,0.9,1.0,64,nf4,none,15.482485,4133.70335,64.589115,,17.148748,1.107622,16,64,48,6,10,64,0.75,0.625,0.375,3,4,160.077394,70.992437,2561.238297,1135.878993
llama32_1b_to_31_8b,llama_cross,meta-llama/Llama-3.2-1B,meta-llama/Llama-3.1-8B,code_completion,code_completion_1,4,150,0.0,1.0,64,nf4,none,16.533559,4112.847035,60.483045,,18.437398,1.11515,16,68,52,6,10,64,0.8125,0.625,0.375,3.25,4.25,159.213639,69.030693,2547.418222,1104.491088
llama32_1b_to_31_8b,llama_cross,meta-llama/Llama-3.2-1B,meta-llama/Llama-3.1-8B,code_completion,code_completion_1,4,150,0.9,1.0,64,nf4,none,16.438531,4136.622557,60.832685,,17.105949,1.040601,17,68,51,6,11,68,0.75,0.647059,0.352941,3,4,160.873221,70.823187,2734.844756,1203.994186
llama32_1b_to_31_8b,llama_cross,meta-llama/Llama-3.2-1B,meta-llama/Llama-3.1-8B,code_completion,code_completion_1,4,200,0.0,1.0,64,nf4,none,15.797606,4114.54738,63.300729,,18.624759,1.178961,15,65,50,5,10,60,0.833333,0.666667,0.333333,3.333333,4.333333,161.188864,69.185581,2417.832953,1037.783718
llama32_1b_to_31_8b,llama_cross,meta-llama/Llama-3.2-1B,meta-llama/Llama-3.1-8B,code_completion,code_completion_1,4,200,0.9,1.0,64,nf4,none,16.455968,4132.239343,60.768226,,17.032578,1.03504,17,68,51,6,11,68,0.75,0.647059,0.352941,3,4,161.719,70.893092,2749.223002,1205.182571
llama32_1b_to_31_8b,llama_cross,meta-llama/Llama-3.2-1B,meta-llama/Llama-3.1-8B,code_completion,code_completion_1,6,50,0.0,1.0,64,nf4,none,16.995968,4118.623998,58.837486,,19.066731,1.121839,12,70,58,3,9,72,0.805556,0.75,0.25,4.833333,5.833333,232.97647,70.25515,2795.717636,843.061803
llama32_1b_to_31_8b,llama_cross,meta-llama/Llama-3.2-1B,meta-llama/Llama-3.1-8B,code_completion,code_completion_1,6,50,0.9,1.0,64,nf4,none,16.959707,4127.42973,58.963282,,12.541437,0.739484,18,70,52,11,7,108,0.481481,0.388889,0.611111,2.888889,3.888889,235.738635,72.070482,4243.295425,1297.268678
llama32_1b_to_31_8b,llama_cross,meta-llama/Llama-3.2-1B,meta-llama/Llama-3.1-8B,code_completion,code_completion_1,6,100,0.0,1.0,64,nf4,none,16.538694,4111.570208,60.464268,,15.908086,0.961871,14,68,54,7,7,84,0.642857,0.5,0.5,3.857143,4.857143,232.833662,69.917502,3259.671273,978.845025
llama32_1b_to_31_8b,llama_cross,meta-llama/Llama-3.2-1B,meta-llama/Llama-3.1-8B,code_completion,code_completion_1,6,100,0.9,1.0,64,nf4,none,16.924198,4136.089532,59.086993,,17.505278,1.034334,13,70,57,5,8,78,0.730769,0.615385,0.384615,4.384615,5.384615,232.606351,72.414922,3023.882568,941.39399
llama32_1b_to_31_8b,llama_cross,meta-llama/Llama-3.2-1B,meta-llama/Llama-3.1-8B,code_completion,code_completion_1,6,150,0.0,1.0,64,nf4,none,16.013374,4121.554967,62.447803,,16.741089,1.045444,13,66,53,7,6,78,0.679487,0.461538,0.538462,4.076923,5.076923,230.776464,69.8868,3000.094032,908.528399
llama32_1b_to_31_8b,llama_cross,meta-llama/Llama-3.2-1B,meta-llama/Llama-3.1-8B,code_completion,code_completion_1,6,150,0.9,1.0,64,nf4,none,16.45002,4133.733689,60.790201,,19.534182,1.187487,11,68,57,2,9,66,0.863636,0.818182,0.181818,5.181818,6.181818,240.602081,73.027772,2646.62289,803.305495
llama32_1b_to_31_8b,llama_cross,meta-llama/Llama-3.2-1B,meta-llama/Llama-3.1-8B,code_completion,code_completion_1,6,200,0.0,1.0,64,nf4,none,16.519207,4116.42048,60.535595,,19.916261,1.205643,11,68,57,2,9,66,0.863636,0.818182,0.181818,5.181818,6.181818,237.297813,70.29921,2610.275942,773.291311
llama32_1b_to_31_8b,llama_cross,meta-llama/Llama-3.2-1B,meta-llama/Llama-3.1-8B,code_completion,code_completion_1,6,200,0.9,1.0,64,nf4,none,16.432344,4138.180198,60.855591,,19.660164,1.196431,11,68,57,2,9,66,0.863636,0.818182,0.181818,5.181818,6.181818,238.731361,72.953706,2626.044969,802.490765
llama32_1b_to_31_8b,llama_cross,meta-llama/Llama-3.2-1B,meta-llama/Llama-3.1-8B,code_completion,code_completion_1,8,50,0.0,1.0,64,nf4,none,17.509052,4112.158655,57.113315,,17.05604,0.974127,11,72,61,4,7,88,0.693182,0.636364,0.363636,5.545455,6.545455,309.741384,71.051956,3407.155228,781.571512
llama32_1b_to_31_8b,llama_cross,meta-llama/Llama-3.2-1B,meta-llama/Llama-3.1-8B,code_completion,code_completion_1,8,50,0.9,1.0,64,nf4,none,15.463354,4138.8175,64.669023,,12.735023,0.823562,13,64,51,9,4,104,0.490385,0.307692,0.692308,3.923077,4.923077,309.654057,74.163131,4025.502745,964.120698
llama32_1b_to_31_8b,llama_cross,meta-llama/Llama-3.2-1B,meta-llama/Llama-3.1-8B,code_completion,code_completion_1,8,100,0.0,1.0,64,nf4,none,15.728789,4132.549452,63.577684,,14.373091,0.913808,12,65,53,7,5,96,0.552083,0.416667,0.583333,4.416667,5.416667,303.365201,70.779726,3640.382415,849.356707
llama32_1b_to_31_8b,llama_cross,meta-llama/Llama-3.2-1B,meta-llama/Llama-3.1-8B,code_completion,code_completion_1,8,100,0.9,1.0,64,nf4,none,15.960761,4135.141046,62.653652,,13.208301,0.827548,13,66,53,9,4,104,0.509615,0.307692,0.692308,4.076923,5.076923,307.763294,73.863197,4000.922816,960.221566
llama32_1b_to_31_8b,llama_cross,meta-llama/Llama-3.2-1B,meta-llama/Llama-3.1-8B,code_completion,code_completion_1,8,150,0.0,1.0,64,nf4,none,16.536721,4112.060785,60.471482,,19.596618,1.185037,9,68,59,2,7,72,0.819444,0.777778,0.222222,6.555556,7.555556,311.016826,71.312871,2799.151431,641.815839
llama32_1b_to_31_8b,llama_cross,meta-llama/Llama-3.2-1B,meta-llama/Llama-3.1-8B,code_completion,code_completion_1,8,150,0.9,1.0,64,nf4,none,15.490007,4131.695991,64.55775,,14.939155,0.964438,11,64,53,7,4,88,0.602273,0.363636,0.636364,4.818182,5.818182,312.019839,74.423495,3432.218228,818.658448
llama32_1b_to_31_8b,llama_cross,meta-llama/Llama-3.2-1B,meta-llama/Llama-3.1-8B,code_completion,code_completion_1,8,200,0.0,1.0,64,nf4,none,16.930346,4134.587599,59.065537,,18.208057,1.075469,10,70,60,3,7,80,0.75,0.7,0.3,6,7,310.297352,71.061855,3102.973519,710.618546
llama32_1b_to_31_8b,llama_cross,meta-llama/Llama-3.2-1B,meta-llama/Llama-3.1-8B,code_completion,code_completion_1,8,200,0.9,1.0,64,nf4,none,15.957785,4135.912352,62.665339,,15.441393,0.96764,11,66,55,6,5,88,0.625,0.454545,0.545455,5,6,311.47004,74.208536,3426.170442,816.293891
llama32_1b_to_31_8b,llama_cross,meta-llama/Llama-3.2-1B,meta-llama/Llama-3.1-8B,code_completion,code_completion_1,10,50,0.0,1.0,64,nf4,none,15.798436,4114.331342,63.297405,,17.865574,1.130844,8,65,57,3,5,80,0.7125,0.625,0.375,7.125,8.125,379.235049,72.099974,3033.880393,576.799788
llama32_1b_to_31_8b,llama_cross,meta-llama/Llama-3.2-1B,meta-llama/Llama-3.1-8B,code_completion,code_completion_1,10,50,0.9,1.0,64,nf4,none,16.927582,4135.262687,59.075181,,12.762615,0.753954,12,70,58,9,3,120,0.483333,0.25,0.75,4.833333,5.833333,378.933487,75.142395,4547.201848,901.708741
llama32_1b_to_31_8b,llama_cross,meta-llama/Llama-3.2-1B,meta-llama/Llama-3.1-8B,code_completion,code_completion_1,10,100,0.0,1.0,64,nf4,none,17.233815,4119.807422,58.025457,,17.08401,0.991307,9,71,62,4,5,90,0.688889,0.555556,0.444444,6.888889,7.888889,385.634769,72.546924,3470.712921,652.922317
llama32_1b_to_31_8b,llama_cross,meta-llama/Llama-3.2-1B,meta-llama/Llama-3.1-8B,code_completion,code_completion_1,10,100,0.9,1.0,64,nf4,none,15.884339,4155.035932,62.95509,,10.891935,0.685703,13,66,53,9,4,130,0.407692,0.307692,0.692308,4.076923,5.076923,388.352486,75.082915,5048.582316,976.077894
llama32_1b_to_31_8b,llama_cross,meta-llama/Llama-3.2-1B,meta-llama/Llama-3.1-8B,code_completion,code_completion_1,10,150,0.0,1.0,64,nf4,none,16.286853,4113.747537,61.399217,,18.118357,1.112453,8,67,59,3,5,80,0.7375,0.625,0.375,7.375,8.375,386.432349,72.197164,3091.458794,577.577309
llama32_1b_to_31_8b,llama_cross,meta-llama/Llama-3.2-1B,meta-llama/Llama-3.1-8B,code_completion,code_completion_1,10,150,0.9,1.0,64,nf4,none,16.202708,4135.111266,61.718079,,18.099058,1.117039,8,67,59,3,5,80,0.7375,0.625,0.375,7.375,8.375,383.083074,76.135251,3064.664591,609.082005
llama32_1b_to_31_8b,llama_cross,meta-llama/Llama-3.2-1B,meta-llama/Llama-3.1-8B,code_completion,code_completion_1,10,200,0.0,1.0,64,nf4,none,17.251441,4115.598174,57.966171,,19.450927,1.127496,8,71,63,2,6,80,0.7875,0.75,0.25,7.875,8.875,380.704358,71.993822,3045.634865,575.950577
llama32_1b_to_31_8b,llama_cross,meta-llama/Llama-3.2-1B,meta-llama/Llama-3.1-8B,code_completion,code_completion_1,10,200,0.9,1.0,64,nf4,none,16.222802,4129.98928,61.641631,,18.046175,1.112396,8,67,59,3,5,80,0.7375,0.625,0.375,7.375,8.375,384.395829,76.157968,3075.16663,609.263743
llama32_1b_to_31_8b,llama_cross,meta-llama/Llama-3.2-1B,meta-llama/Llama-3.1-8B,structured_extraction,structured_extraction_0,4,50,0.0,1.0,64,nf4,none,15.545794,4116.869129,64.32608,,21.086881,1.356436,13,64,51,1,12,52,0.980769,0.923077,0.076923,3.923077,4.923077,161.659235,69.531545,2101.570058,903.910091
llama32_1b_to_31_8b,llama_cross,meta-llama/Llama-3.2-1B,meta-llama/Llama-3.1-8B,structured_extraction,structured_extraction_0,4,50,0.9,1.0,64,nf4,none,15.953035,4137.143696,62.683995,,17.611499,1.103959,16,66,50,5,11,64,0.78125,0.6875,0.3125,3.125,4.125,160.59916,71.449202,2569.586557,1143.187237
llama32_1b_to_31_8b,llama_cross,meta-llama/Llama-3.2-1B,meta-llama/Llama-3.1-8B,structured_extraction,structured_extraction_0,4,100,0.0,1.0,64,nf4,none,15.55308,4114.940457,64.295945,,20.946562,1.346779,13,64,51,1,12,52,0.980769,0.923077,0.076923,3.923077,4.923077,163.129615,69.605358,2120.684995,904.869652
llama32_1b_to_31_8b,llama_cross,meta-llama/Llama-3.2-1B,meta-llama/Llama-3.1-8B,structured_extraction,structured_extraction_0,4,100,0.9,1.0,64,nf4,none,15.910509,4148.201574,62.851539,,19.546937,1.228555,14,66,52,2,12,56,0.928571,0.857143,0.142857,3.714286,4.714286,167.016463,71.863568,2338.230487,1006.089945
llama32_1b_to_31_8b,llama_cross,meta-llama/Llama-3.2-1B,meta-llama/Llama-3.1-8B,structured_extraction,structured_extraction_0,4,150,0.0,1.0,64,nf4,none,15.538931,4118.687506,64.354492,,19.494445,1.254555,14,64,50,3,11,56,0.892857,0.785714,0.214286,3.571429,4.571429,162.545953,69.589323,2275.643345,974.250526
llama32_1b_to_31_8b,llama_cross,meta-llama/Llama-3.2-1B,meta-llama/Llama-3.1-8B,structured_extraction,structured_extraction_0,4,150,0.9,1.0,64,nf4,none,15.952284,4137.338541,62.686948,,19.615031,1.229606,14,66,52,2,12,56,0.928571,0.857143,0.142857,3.714286,4.714286,165.641452,72.408004,2318.980333,1013.71206
llama32_1b_to_31_8b,llama_cross,meta-llama/Llama-3.2-1B,meta-llama/Llama-3.1-8B,structured_extraction,structured_extraction_0,4,200,0.0,1.0,64,nf4,none,15.517467,4124.384348,64.443505,,19.60531,1.263435,14,64,50,3,11,56,0.892857,0.785714,0.214286,3.571429,4.571429,161.373663,69.510024,2259.231276,973.140341
llama32_1b_to_31_8b,llama_cross,meta-llama/Llama-3.2-1B,meta-llama/Llama-3.1-8B,structured_extraction,structured_extraction_0,4,200,0.9,1.0,64,nf4,none,15.962811,4134.610126,62.645608,,19.557531,1.225193,14,66,52,2,12,56,0.928571,0.857143,0.142857,3.714286,4.714286,166.819585,71.936058,2335.474183,1007.104807
llama32_1b_to_31_8b,llama_cross,meta-llama/Llama-3.2-1B,meta-llama/Llama-3.1-8B,structured_extraction,structured_extraction_0,6,50,0.0,1.0,64,nf4,none,15.773032,4120.957732,63.39935,,20.683484,1.311319,10,65,55,1,9,60,0.916667,0.9,0.1,5.5,6.5,240.233805,71.131472,2402.338054,711.31472
llama32_1b_to_31_8b,llama_cross,meta-llama/Llama-3.2-1B,meta-llama/Llama-3.1-8B,structured_extraction,structured_extraction_0,6,50,0.9,1.0,64,nf4,none,15.433212,4146.900847,64.795326,,17.057311,1.105234,12,64,52,5,7,72,0.722222,0.583333,0.416667,4.333333,5.333333,236.632111,73.41372,2839.585333,880.964643
llama32_1b_to_31_8b,llama_cross,meta-llama/Llama-3.2-1B,meta-llama/Llama-3.1-8B,structured_extraction,structured_extraction_0,6,100,0.0,1.0,64,nf4,none,16.019996,4119.851337,62.42199,,19.106794,1.192684,11,66,55,2,9,66,0.833333,0.818182,0.181818,5,6,240.613559,70.686077,2646.749146,777.546851
llama32_1b_to_31_8b,llama_cross,meta-llama/Llama-3.2-1B,meta-llama/Llama-3.1-8B,structured_extraction,structured_extraction_0,6,100,0.9,1.0,64,nf4,none,15.700797,4139.917189,63.691034,,20.407595,1.299781,10,65,55,1,9,60,0.916667,0.9,0.1,5.5,6.5,241.630026,74.01171,2416.300256,740.117098
llama32_1b_to_31_8b,llama_cross,meta-llama/Llama-3.2-1B,meta-llama/Llama-3.1-8B,structured_extraction,structured_extraction_0,6,150,0.0,1.0,64,nf4,none,16.489479,4123.841604,60.644729,,20.205812,1.225376,11,68,57,3,8,66,0.863636,0.727273,0.272727,5.181818,6.181818,232.621311,70.550207,2558.834424,776.052281
llama32_1b_to_31_8b,llama_cross,meta-llama/Llama-3.2-1B,meta-llama/Llama-3.1-8B,structured_extraction,structured_extraction_0,6,150,0.9,1.0,64,nf4,none,15.930199,4143.074489,62.773856,,17.18215,1.07859,12,66,54,5,7,72,0.75,0.583333,0.416667,4.5,5.5,243.476614,73.83531,2921.719368,886.023725
llama32_1b_to_31_8b,llama_cross,meta-llama/Llama-3.2-1B,meta-llama/Llama-3.1-8B,structured_extraction,structured_extraction_0,6,200,0.0,1.0,64,nf4,none,16.22868,4128.493564,61.619307,,19.563859,1.205511,11,67,56,3,8,66,0.848485,0.727273,0.272727,5.090909,6.090909,237.720938,70.768045,2614.930319,778.448492
llama32_1b_to_31_8b,llama_cross,meta-llama/Llama-3.2-1B,meta-llama/Llama-3.1-8B,structured_extraction,structured_extraction_0,6,200,0.9,1.0,64,nf4,none,16.861024,4151.586585,59.30838,,16.179322,0.959569,14,70,56,6,8,84,0.666667,0.571429,0.428571,4,5,233.3942,73.102343,3267.518804,1023.432804
llama32_1b_to_31_8b,llama_cross,meta-llama/Llama-3.2-1B,meta-llama/Llama-3.1-8B,structured_extraction,structured_extraction_0,8,50,0.0,1.0,64,nf4,none,16.245469,4124.226899,61.555625,,21.709881,1.336365,8,67,59,1,7,64,0.921875,0.875,0.125,7.375,8.375,310.217946,72.141671,2481.743568,577.133369
llama32_1b_to_31_8b,llama_cross,meta-llama/Llama-3.2-1B,meta-llama/Llama-3.1-8B,structured_extraction,structured_extraction_0,8,50,0.9,1.0,64,nf4,none,15.454055,4141.307997,64.707937,,16.282672,1.053618,10,64,54,5,5,80,0.675,0.5,0.5,5.4,6.4,314.266848,75.606635,3142.668477,756.066351
llama32_1b_to_31_8b,llama_cross,meta-llama/Llama-3.2-1B,meta-llama/Llama-3.1-8B,structured_extraction,structured_extraction_0,8,100,0.0,1.0,64,nf4,none,16.194221,4137.278415,61.750424,,21.373076,1.319797,8,67,59,1,7,64,0.921875,0.875,0.125,7.375,8.375,316.115314,72.260267,2528.922516,578.082139
llama32_1b_to_31_8b,llama_cross,meta-llama/Llama-3.2-1B,meta-llama/Llama-3.1-8B,structured_extraction,structured_extraction_0,8,100,0.9,1.0,64,nf4,none,16.627388,4149.779759,60.141736,,15.842328,0.952785,11,69,58,5,6,88,0.659091,0.545455,0.454545,5.272727,6.272727,317.616119,75.282136,3493.777304,828.103501
llama32_1b_to_31_8b,llama_cross,meta-llama/Llama-3.2-1B,meta-llama/Llama-3.1-8B,structured_extraction,structured_extraction_0,8,150,0.0,1.0,64,nf4,none,17.442195,4127.920726,57.332232,,18.574181,1.064899,10,72,62,3,7,80,0.775,0.7,0.3,6.2,7.2,312.611593,71.807422,3126.115925,718.074224
llama32_1b_to_31_8b,llama_cross,meta-llama/Llama-3.2-1B,meta-llama/Llama-3.1-8B,structured_extraction,structured_extraction_0,8,150,0.9,1.0,64,nf4,none,16.623836,4150.666592,60.154588,,16.204896,0.974799,11,69,58,5,6,88,0.659091,0.545455,0.454545,5.272727,6.272727,309.055434,75.030272,3399.609779,825.332987
llama32_1b_to_31_8b,llama_cross,meta-llama/Llama-3.2-1B,meta-llama/Llama-3.1-8B,structured_extraction,structured_extraction_0,8,200,0.0,1.0,64,nf4,none,15.503065,4128.215857,64.503373,,16.344292,1.054262,10,64,54,4,6,80,0.675,0.6,0.4,5.4,6.4,316.644431,71.87361,3166.444312,718.736095
llama32_1b_to_31_8b,llama_cross,meta-llama/Llama-3.2-1B,meta-llama/Llama-3.1-8B,structured_extraction,structured_extraction_0,8,200,0.9,1.0,64,nf4,none,17.108016,4150.10143,58.452133,,16.519294,0.965588,11,71,60,6,5,88,0.681818,0.454545,0.545455,5.454545,6.454545,312.421843,75.164473,3436.640273,826.809199
llama32_1b_to_31_8b,llama_cross,meta-llama/Llama-3.2-1B,meta-llama/Llama-3.1-8B,structured_extraction,structured_extraction_0,10,50,0.0,1.0,64,nf4,none,15.712367,4136.868796,63.644135,,15.535413,0.988738,9,65,56,5,4,90,0.622222,0.444444,0.555556,6.222222,7.222222,388.587981,72.910239,3497.291827,656.19215
llama32_1b_to_31_8b,llama_cross,meta-llama/Llama-3.2-1B,meta-llama/Llama-3.1-8B,structured_extraction,structured_extraction_0,10,50,0.9,1.0,64,nf4,none,16.354105,4157.977419,61.146727,,19.823362,1.212134,7,68,61,1,6,70,0.871429,0.857143,0.142857,8.714286,9.714286,406.998853,78.911329,2848.991969,552.379302
llama32_1b_to_31_8b,llama_cross,meta-llama/Llama-3.2-1B,meta-llama/Llama-3.1-8B,structured_extraction,structured_extraction_0,10,100,0.0,1.0,64,nf4,none,16.695967,4132.734646,59.894705,,18.169913,1.088282,8,69,61,4,4,80,0.7625,0.5,0.5,7.625,8.625,397.213676,73.476674,3177.709412,587.813388
llama32_1b_to_31_8b,llama_cross,meta-llama/Llama-3.2-1B,meta-llama/Llama-3.1-8B,structured_extraction,structured_extraction_0,10,100,0.9,1.0,64,nf4,none,15.400798,4155.628777,64.9317,,12.532638,0.813765,11,64,53,8,3,110,0.481818,0.272727,0.727273,4.818182,5.818182,384.762978,76.437111,4232.392754,840.808219
llama32_1b_to_31_8b,llama_cross,meta-llama/Llama-3.2-1B,meta-llama/Llama-3.1-8B,structured_extraction,structured_extraction_0,10,150,0.0,1.0,64,nf4,none,16.204576,4134.634538,61.710963,,18.069767,1.115103,8,67,59,3,5,80,0.7375,0.625,0.375,7.375,8.375,386.804087,73.075458,3094.432696,584.603664
llama32_1b_to_31_8b,llama_cross,meta-llama/Llama-3.2-1B,meta-llama/Llama-3.1-8B,structured_extraction,structured_extraction_0,10,150,0.9,1.0,64,nf4,none,15.910747,4148.139679,62.850601,,10.141378,0.637392,14,66,52,13,1,140,0.371429,0.071429,0.928571,3.714286,4.714286,385.889651,76.075546,5402.455115,1065.057646
llama32_1b_to_31_8b,llama_cross,meta-llama/Llama-3.2-1B,meta-llama/Llama-3.1-8B,structured_extraction,structured_extraction_0,10,200,0.0,1.0,64,nf4,none,16.911211,4139.265917,59.13237,,18.766681,1.109718,8,70,62,3,5,80,0.775,0.625,0.375,7.75,8.75,389.450496,73.072462,3115.603967,584.579696
llama32_1b_to_31_8b,llama_cross,meta-llama/Llama-3.2-1B,meta-llama/Llama-3.1-8B,structured_extraction,structured_extraction_0,10,200,0.9,1.0,64,nf4,none,16.668365,4139.57817,59.993887,,18.400629,1.103925,8,69,61,4,4,80,0.7625,0.5,0.5,7.625,8.625,387.543533,77.434783,3100.348262,619.478261
llama32_1b_to_31_8b,llama_cross,meta-llama/Llama-3.2-1B,meta-llama/Llama-3.1-8B,structured_extraction,structured_extraction_1,4,50,0.0,1.0,64,nf4,none,16.010516,4122.290725,62.45895,,18.751434,1.171195,15,66,51,3,12,60,0.85,0.8,0.2,3.4,4.4,162.890899,69.549012,2443.363479,1043.235173
llama32_1b_to_31_8b,llama_cross,meta-llama/Llama-3.2-1B,meta-llama/Llama-3.1-8B,structured_extraction,structured_extraction_1,4,50,0.9,1.0,64,nf4,none,16.431516,4138.388739,60.858658,,17.655183,1.074471,16,68,52,3,13,64,0.8125,0.8125,0.1875,3.25,4.25,166.800185,71.735703,2668.802962,1147.771255
llama32_1b_to_31_8b,llama_cross,meta-llama/Llama-3.2-1B,meta-llama/Llama-3.1-8B,structured_extraction,structured_extraction_1,4,100,0.0,1.0,64,nf4,none,15.779408,4119.292811,63.373736,,21.25624,1.347087,13,65,52,0,13,52,1.0,1.0,0.0,4,5,163.221167,69.760731,2121.875168,906.8895
llama32_1b_to_31_8b,llama_cross,meta-llama/Llama-3.2-1B,meta-llama/Llama-3.1-8B,structured_extraction,structured_extraction_1,4,100,0.9,1.0,64,nf4,none,15.434388,4146.58494,64.79039,,17.77135,1.151413,15,64,49,3,12,60,0.816667,0.8,0.2,3.266667,4.266667,165.883654,71.915465,2488.254812,1078.731975
llama32_1b_to_31_8b,llama_cross,meta-llama/Llama-3.2-1B,meta-llama/Llama-3.1-8B,structured_extraction,structured_extraction_1,4,150,0.0,1.0,64,nf4,none,16.519262,4116.406634,60.535392,,20.200322,1.222834,14,68,54,2,12,56,0.964286,0.857143,0.142857,3.857143,4.857143,168.359079,69.766764,2357.027105,976.73469
llama32_1b_to_31_8b,llama_cross,meta-llama/Llama-3.2-1B,meta-llama/Llama-3.1-8B,structured_extraction,structured_extraction_1,4,150,0.9,1.0,64,nf4,none,15.479569,4134.481908,64.60128,,17.123993,1.106232,16,64,48,6,10,64,0.75,0.625,0.375,3,4,159.890009,71.543109,2558.24015,1144.689745
llama32_1b_to_31_8b,llama_cross,meta-llama/Llama-3.2-1B,meta-llama/Llama-3.1-8B,structured_extraction,structured_extraction_1,4,200,0.0,1.0,64,nf4,none,16.023483,4118.954553,62.408402,,19.979159,1.246867,14,66,52,1,13,56,0.928571,0.928571,0.071429,3.714286,4.714286,164.062554,69.615827,2296.875757,974.621572
llama32_1b_to_31_8b,llama_cross,meta-llama/Llama-3.2-1B,meta-llama/Llama-3.1-8B,structured_extraction,structured_extraction_1,4,200,0.9,1.0,64,nf4,none,15.932581,4142.454883,62.764468,,17.144513,1.076066,16,66,50,4,12,64,0.78125,0.75,0.25,3.125,4.125,166.639902,71.769588,2666.23844,1148.313415
llama32_1b_to_31_8b,llama_cross,meta-llama/Llama-3.2-1B,meta-llama/Llama-3.1-8B,structured_extraction,structured_extraction_1,6,50,0.0,1.0,64,nf4,none,16.27378,4117.051982,61.448537,,21.469411,1.319264,10,67,57,2,8,60,0.95,0.8,0.2,5.7,6.7,238.006827,71.082935,2380.068266,710.829353
llama32_1b_to_31_8b,llama_cross,meta-llama/Llama-3.2-1B,meta-llama/Llama-3.1-8B,structured_extraction,structured_extraction_1,6,50,0.9,1.0,64,nf4,none,16.648391,4144.544741,60.065866,,17.072894,1.025498,13,69,56,6,7,78,0.717949,0.538462,0.461538,4.307692,5.307692,234.735653,73.505907,3051.56349,955.576793
llama32_1b_to_31_8b,llama_cross,meta-llama/Llama-3.2-1B,meta-llama/Llama-3.1-8B,structured_extraction,structured_extraction_1,6,100,0.0,1.0,64,nf4,none,16.771666,4114.081457,59.624369,,22.204965,1.323957,10,69,59,1,9,60,0.983333,0.9,0.1,5.9,6.9,236.714635,71.097984,2367.146354,710.979845
llama32_1b_to_31_8b,llama_cross,meta-llama/Llama-3.2-1B,meta-llama/Llama-3.1-8B,structured_extraction,structured_extraction_1,6,100,0.9,1.0,64,nf4,none,15.95266,4137.241189,62.685473,,20.778299,1.302497,10,66,56,2,8,60,0.933333,0.8,0.2,5.6,6.6,240.280988,74.415781,2402.809876,744.157806
llama32_1b_to_31_8b,llama_cross,meta-llama/Llama-3.2-1B,meta-llama/Llama-3.1-8B,structured_extraction,structured_extraction_1,6,150,0.0,1.0,64,nf4,none,16.985963,4121.04979,58.87214,,19.934884,1.173609,11,70,59,2,9,66,0.893939,0.818182,0.181818,5.363636,6.363636,245.011257,71.296855,2695.123826,784.265404
llama32_1b_to_31_8b,llama_cross,meta-llama/Llama-3.2-1B,meta-llama/Llama-3.1-8B,structured_extraction,structured_extraction_1,6,150,0.9,1.0,64,nf4,none,15.485345,4132.939984,64.577187,,20.069997,1.296064,10,64,54,1,9,60,0.9,0.9,0.1,5.4,6.4,241.596035,74.503847,2415.960352,745.038471
llama32_1b_to_31_8b,llama_cross,meta-llama/Llama-3.2-1B,meta-llama/Llama-3.1-8B,structured_extraction,structured_extraction_1,6,200,0.0,1.0,64,nf4,none,16.516411,4117.117265,60.545842,,20.184056,1.222061,11,68,57,2,9,66,0.863636,0.818182,0.181818,5.181818,6.181818,232.798976,70.786946,2560.788738,778.656403
llama32_1b_to_31_8b,llama_cross,meta-llama/Llama-3.2-1B,meta-llama/Llama-3.1-8B,structured_extraction,structured_extraction_1,6,200,0.9,1.0,64,nf4,none,16.902285,4141.451833,59.163598,,17.06182,1.009439,13,70,57,6,7,78,0.730769,0.538462,0.461538,4.384615,5.384615,238.891135,73.897367,3105.584751,960.665767
llama32_1b_to_31_8b,llama_cross,meta-llama/Llama-3.2-1B,meta-llama/Llama-3.1-8B,structured_extraction,structured_extraction_1,8,50,0.0,1.0,64,nf4,none,16.278008,4115.982857,61.43258,,19.445339,1.194577,9,67,58,4,5,72,0.805556,0.555556,0.444444,6.444444,7.444444,307.500365,72.073159,2767.503288,648.658434
llama32_1b_to_31_8b,llama_cross,meta-llama/Llama-3.2-1B,meta-llama/Llama-3.1-8B,structured_extraction,structured_extraction_1,8,50,0.9,1.0,64,nf4,none,16.404242,4145.269336,60.959843,,21.278218,1.297117,8,68,60,1,7,64,0.9375,0.875,0.125,7.5,8.5,319.462352,76.61787,2555.698812,612.94296
llama32_1b_to_31_8b,llama_cross,meta-llama/Llama-3.2-1B,meta-llama/Llama-3.1-8B,structured_extraction,structured_extraction_1,8,100,0.0,1.0,64,nf4,none,16.272008,4117.500514,61.455232,,18.924788,1.163027,9,67,58,3,6,72,0.805556,0.666667,0.333333,6.444444,7.444444,317.658586,72.384004,2858.927273,651.456039
llama32_1b_to_31_8b,llama_cross,meta-llama/Llama-3.2-1B,meta-llama/Llama-3.1-8B,structured_extraction,structured_extraction_1,8,100,0.9,1.0,64,nf4,none,16.20829,4133.687208,61.696824,,13.446756,0.829622,13,67,54,10,3,104,0.519231,0.230769,0.769231,4.153846,5.153846,305.712064,74.808678,3974.256827,972.512817
llama32_1b_to_31_8b,llama_cross,meta-llama/Llama-3.2-1B,meta-llama/Llama-3.1-8B,structured_extraction,structured_extraction_1,8,150,0.0,1.0,64,nf4,none,16.019683,4119.931645,62.423207,,21.597322,1.348174,8,66,58,1,7,64,0.90625,0.875,0.125,7.25,8.25,306.337083,72.372566,2450.696662,578.980527
llama32_1b_to_31_8b,llama_cross,meta-llama/Llama-3.2-1B,meta-llama/Llama-3.1-8B,structured_extraction,structured_extraction_1,8,150,0.9,1.0,64,nf4,none,15.960683,4135.16149,62.653962,,16.958528,1.062519,10,66,56,6,4,80,0.7,0.4,0.6,5.6,6.6,310.195852,75.887533,3101.958524,758.875328
llama32_1b_to_31_8b,llama_cross,meta-llama/Llama-3.2-1B,meta-llama/Llama-3.1-8B,structured_extraction,structured_extraction_1,8,200,0.0,1.0,64,nf4,none,16.292262,4112.381664,61.378831,,18.947819,1.162995,9,67,58,2,7,72,0.805556,0.777778,0.222222,6.444444,7.444444,317.301679,72.379815,2855.715113,651.418339
llama32_1b_to_31_8b,llama_cross,meta-llama/Llama-3.2-1B,meta-llama/Llama-3.1-8B,structured_extraction,structured_extraction_1,8,200,0.9,1.0,64,nf4,none,15.911047,4148.061485,62.849416,,16.865048,1.059958,10,66,56,6,4,80,0.7,0.4,0.6,5.6,6.6,312.364289,75.86227,3123.642888,758.622697
llama32_1b_to_31_8b,llama_cross,meta-llama/Llama-3.2-1B,meta-llama/Llama-3.1-8B,structured_extraction,structured_extraction_1,10,50,0.0,1.0,64,nf4,none,17.720533,4119.514971,56.431712,,19.168711,1.081723,8,73,65,3,5,80,0.8125,0.625,0.375,8.125,9.125,398.582334,73.476665,3188.658675,587.813322
llama32_1b_to_31_8b,llama_cross,meta-llama/Llama-3.2-1B,meta-llama/Llama-3.1-8B,structured_extraction,structured_extraction_1,10,50,0.9,1.0,64,nf4,none,17.135059,4143.551535,58.359881,,18.810977,1.097806,8,71,63,5,3,80,0.7875,0.375,0.625,7.875,8.875,389.935079,77.982618,3119.480632,623.860943
llama32_1b_to_31_8b,llama_cross,meta-llama/Llama-3.2-1B,meta-llama/Llama-3.1-8B,structured_extraction,structured_extraction_1,10,100,0.0,1.0,64,nf4,none,17.932633,4126.555309,55.764261,,19.882064,1.108709,8,74,66,2,6,80,0.825,0.75,0.25,8.25,9.25,388.320174,73.134569,3106.56139,585.076549
llama32_1b_to_31_8b,llama_cross,meta-llama/Llama-3.2-1B,meta-llama/Llama-3.1-8B,structured_extraction,structured_extraction_1,10,100,0.9,1.0,64,nf4,none,17.367929,4145.572029,57.577389,,15.314959,0.881795,10,72,62,6,4,100,0.62,0.4,0.6,6.2,7.2,389.625536,77.159592,3896.255362,771.595924
llama32_1b_to_31_8b,llama_cross,meta-llama/Llama-3.2-1B,meta-llama/Llama-3.1-8B,structured_extraction,structured_extraction_1,10,150,0.0,1.0,64,nf4,none,17.95471,4121.481252,55.695693,,22.192119,1.236005,7,74,67,1,6,70,0.957143,0.857143,0.142857,9.571429,10.571429,398.325634,73.77071,2788.279441,516.394973
llama32_1b_to_31_8b,llama_cross,meta-llama/Llama-3.2-1B,meta-llama/Llama-3.1-8B,structured_extraction,structured_extraction_1,10,150,0.9,1.0,64,nf4,none,17.81353,4154.145777,56.137105,,19.186494,1.077074,8,74,66,2,6,80,0.825,0.75,0.25,8.25,9.25,399.808731,78.45057,3198.46985,627.604564
llama32_1b_to_31_8b,llama_cross,meta-llama/Llama-3.2-1B,meta-llama/Llama-3.1-8B,structured_extraction,structured_extraction_1,10,200,0.0,1.0,64,nf4,none,15.709719,4137.566046,63.654862,,14.209167,0.904483,10,65,55,6,4,100,0.55,0.4,0.6,5.5,6.5,381.601158,72.685566,3816.011584,726.855662
llama32_1b_to_31_8b,llama_cross,meta-llama/Llama-3.2-1B,meta-llama/Llama-3.1-8B,structured_extraction,structured_extraction_1,10,200,0.9,1.0,64,nf4,none,17.113202,4148.843757,58.434419,,18.673437,1.091171,8,71,63,3,5,80,0.7875,0.625,0.375,7.875,8.875,393.364748,78.135599,3146.917987,625.084792
