aXce1-z/LLMSpeculativeSampling-model-pair-search-v2/outputs/run_20260313_094423_nf4_nf4/trial_results.csv
pair_name,family,approx_model_name,target_model_name,task,prompt_id,gamma,top_k,top_p,temperature,max_tokens,approx_quant,target_quant,baseline_large_tps,baseline_large_elapsed_ms,avg_target_baseline_generate_ms_per_token,baseline_small_tps,speculative_tps,speedup,rounds,generated_tokens,accepted_count,resample_count,target_sample_count,proposed_draft_tokens,acceptance_rate,all_accept_round_rate,resample_round_rate,avg_accepted_per_round,avg_contributed_per_round,avg_draft_generate_ms_per_round,avg_target_verify_ms_per_round,draft_generate_ms_total,target_verify_ms_total
llama32_1b_to_31_8b,llama_cross,meta-llama/Llama-3.2-1B,meta-llama/Llama-3.1-8B,continuation,continuation_0,4,50,0.0,1.0,64,nf4,nf4,14.096159,4824.009216,70.941312,,15.129225,1.073287,15,68,53,4,11,60,0.883333,0.733333,0.266667,3.533333,4.533333,160.568602,136.767789,2408.529027,2051.516839
llama32_1b_to_31_8b,llama_cross,meta-llama/Llama-3.2-1B,meta-llama/Llama-3.1-8B,continuation,continuation_0,4,50,0.9,1.0,64,nf4,nf4,13.3479,4794.761772,74.918153,,13.26398,0.993713,16,64,48,6,10,64,0.75,0.625,0.375,3,4,160.697048,138.702093,2571.152764,2219.233489
llama32_1b_to_31_8b,llama_cross,meta-llama/Llama-3.2-1B,meta-llama/Llama-3.1-8B,continuation,continuation_0,4,100,0.0,1.0,64,nf4,nf4,14.236777,4706.121501,70.240619,,15.808441,1.110395,14,67,53,1,13,56,0.946429,0.928571,0.071429,3.785714,4.785714,163.405071,137.073204,2287.670993,1919.02485
llama32_1b_to_31_8b,llama_cross,meta-llama/Llama-3.2-1B,meta-llama/Llama-3.1-8B,continuation,continuation_0,4,100,0.9,1.0,64,nf4,nf4,13.977131,4721.999074,71.545441,,14.420297,1.031707,15,66,51,3,12,60,0.85,0.8,0.2,3.4,4.4,163.750068,139.15141,2456.251022,2087.271149
llama32_1b_to_31_8b,llama_cross,meta-llama/Llama-3.2-1B,meta-llama/Llama-3.1-8B,continuation,continuation_0,4,150,0.0,1.0,64,nf4,nf4,14.234842,4777.011358,70.250167,,15.008469,1.054347,15,68,53,3,12,60,0.883333,0.8,0.2,3.533333,4.533333,162.713532,136.999124,2440.702986,2054.98686
llama32_1b_to_31_8b,llama_cross,meta-llama/Llama-3.2-1B,meta-llama/Llama-3.1-8B,continuation,continuation_0,4,150,0.9,1.0,64,nf4,nf4,13.935526,4807.855937,71.759044,,15.691161,1.125983,14,67,53,2,12,56,0.946429,0.857143,0.142857,3.785714,4.785714,163.978078,138.738658,2295.693098,1942.341207
llama32_1b_to_31_8b,llama_cross,meta-llama/Llama-3.2-1B,meta-llama/Llama-3.1-8B,continuation,continuation_0,4,200,0.0,1.0,64,nf4,nf4,14.296259,4756.489134,69.94837,,15.071194,1.054205,15,68,53,3,12,60,0.883333,0.8,0.2,3.533333,4.533333,161.913017,136.56744,2428.695261,2048.511595
llama32_1b_to_31_8b,llama_cross,meta-llama/Llama-3.2-1B,meta-llama/Llama-3.1-8B,continuation,continuation_0,4,200,0.9,1.0,64,nf4,nf4,14.255408,4770.119524,70.148817,,14.607158,1.024675,15,68,53,3,12,60,0.883333,0.8,0.2,3.533333,4.533333,168.870449,139.078252,2533.056729,2086.173776
llama32_1b_to_31_8b,llama_cross,meta-llama/Llama-3.2-1B,meta-llama/Llama-3.1-8B,continuation,continuation_0,6,50,0.0,1.0,64,nf4,nf4,14.600681,4794.296997,68.489957,,14.1645,0.970126,13,70,57,4,9,78,0.730769,0.692308,0.307692,4.384615,5.384615,239.55548,137.885642,3114.221235,1792.513352
llama32_1b_to_31_8b,llama_cross,meta-llama/Llama-3.2-1B,meta-llama/Llama-3.1-8B,continuation,continuation_0,6,50,0.9,1.0,64,nf4,nf4,14.719892,4755.469625,67.93528,,12.221664,0.830282,15,70,55,8,7,90,0.611111,0.466667,0.533333,3.666667,4.666667,238.828419,140.394749,3582.42628,2105.92123
llama32_1b_to_31_8b,llama_cross,meta-llama/Llama-3.2-1B,meta-llama/Llama-3.1-8B,continuation,continuation_0,6,100,0.0,1.0,64,nf4,nf4,14.41699,4716.657176,69.362606,,17.628193,1.222737,10,68,58,1,9,60,0.966667,0.9,0.1,5.8,6.8,244.241796,138.416766,2442.417963,1384.167655
llama32_1b_to_31_8b,llama_cross,meta-llama/Llama-3.2-1B,meta-llama/Llama-3.1-8B,continuation,continuation_0,6,100,0.9,1.0,64,nf4,nf4,13.852404,4836.705487,72.189634,,13.544152,0.977747,13,67,54,6,7,78,0.692308,0.538462,0.461538,4.153846,5.153846,236.914319,140.949713,3079.886146,1832.346272
llama32_1b_to_31_8b,llama_cross,meta-llama/Llama-3.2-1B,meta-llama/Llama-3.1-8B,continuation,continuation_0,6,150,0.0,1.0,64,nf4,nf4,13.459891,4754.867737,74.294808,,16.64583,1.236699,10,64,54,1,9,60,0.9,0.9,0.1,5.4,6.4,243.074505,138.51739,2430.745045,1385.1739
llama32_1b_to_31_8b,llama_cross,meta-llama/Llama-3.2-1B,meta-llama/Llama-3.1-8B,continuation,continuation_0,6,150,0.9,1.0,64,nf4,nf4,14.584481,4799.622444,68.566035,,14.032203,0.962133,13,70,57,4,9,78,0.730769,0.692308,0.307692,4.384615,5.384615,240.2845,140.774235,3123.698497,1830.065049
llama32_1b_to_31_8b,llama_cross,meta-llama/Llama-3.2-1B,meta-llama/Llama-3.1-8B,continuation,continuation_0,6,200,0.0,1.0,64,nf4,nf4,14.254235,4770.51197,70.154588,,14.8859,1.044314,12,68,56,3,9,72,0.777778,0.75,0.25,4.666667,5.666667,239.554458,138.308047,2874.6535,1659.69656
llama32_1b_to_31_8b,llama_cross,meta-llama/Llama-3.2-1B,meta-llama/Llama-3.1-8B,continuation,continuation_0,6,200,0.9,1.0,64,nf4,nf4,13.960938,4799.104311,71.628423,,17.355707,1.243162,10,67,57,1,9,60,0.95,0.9,0.1,5.7,6.7,241.623152,141.453871,2416.231517,1414.538708
llama32_1b_to_31_8b,llama_cross,meta-llama/Llama-3.2-1B,meta-llama/Llama-3.1-8B,continuation,continuation_0,8,50,0.0,1.0,64,nf4,nf4,14.109704,4748.505067,70.87321,,11.556055,0.819015,13,67,54,8,5,104,0.519231,0.384615,0.615385,4.153846,5.153846,304.575141,138.641506,3959.47683,1802.33958
llama32_1b_to_31_8b,llama_cross,meta-llama/Llama-3.2-1B,meta-llama/Llama-3.1-8B,continuation,continuation_0,8,50,0.9,1.0,64,nf4,nf4,14.673368,4770.547535,68.150679,,13.869175,0.945194,11,70,59,4,7,88,0.670455,0.636364,0.363636,5.363636,6.363636,313.057374,142.760056,3443.631111,1570.360615
llama32_1b_to_31_8b,llama_cross,meta-llama/Llama-3.2-1B,meta-llama/Llama-3.1-8B,continuation,continuation_0,8,100,0.0,1.0,64,nf4,nf4,13.513859,4735.878849,73.998107,,17.645542,1.305737,8,64,56,3,5,64,0.875,0.625,0.375,7,8,309.912011,139.894074,2479.296084,1119.152596
llama32_1b_to_31_8b,llama_cross,meta-llama/Llama-3.2-1B,meta-llama/Llama-3.1-8B,continuation,continuation_0,8,100,0.9,1.0,64,nf4,nf4,14.106469,4749.593799,70.88946,,10.479614,0.742894,14,67,53,9,5,112,0.473214,0.357143,0.642857,3.785714,4.785714,311.662086,142.292048,4363.269206,1992.088676
llama32_1b_to_31_8b,llama_cross,meta-llama/Llama-3.2-1B,meta-llama/Llama-3.1-8B,continuation,continuation_0,8,150,0.0,1.0,64,nf4,nf4,15.014901,4728.635942,66.600506,,17.316606,1.153295,9,71,62,2,7,72,0.861111,0.777778,0.222222,6.888889,7.888889,312.127314,139.949433,2809.145826,1259.544894
llama32_1b_to_31_8b,llama_cross,meta-llama/Llama-3.2-1B,meta-llama/Llama-3.1-8B,continuation,continuation_0,8,150,0.9,1.0,64,nf4,nf4,13.651833,4761.265278,73.250235,,14.125411,1.03469,10,65,55,5,5,80,0.6875,0.5,0.5,5.5,6.5,313.619916,143.437648,3136.199156,1434.376477
llama32_1b_to_31_8b,llama_cross,meta-llama/Llama-3.2-1B,meta-llama/Llama-3.1-8B,continuation,continuation_0,8,200,0.0,1.0,64,nf4,nf4,13.533781,4728.907578,73.889181,,17.435962,1.288329,8,64,56,1,7,64,0.875,0.875,0.125,7,8,315.336804,140.101696,2522.694435,1120.813564
llama32_1b_to_31_8b,llama_cross,meta-llama/Llama-3.2-1B,meta-llama/Llama-3.1-8B,continuation,continuation_0,8,200,0.9,1.0,64,nf4,nf4,13.892837,4750.649702,71.979541,,12.999898,0.935727,11,66,55,7,4,88,0.625,0.363636,0.636364,5,6,315.399232,143.061234,3469.391553,1573.67357
llama32_1b_to_31_8b,llama_cross,meta-llama/Llama-3.2-1B,meta-llama/Llama-3.1-8B,continuation,continuation_0,10,50,0.0,1.0,64,nf4,nf4,14.024356,4777.403023,71.304523,,14.197344,1.012335,9,67,58,5,4,90,0.644444,0.444444,0.555556,6.444444,7.444444,380.795729,140.069114,3427.161559,1260.622023
llama32_1b_to_31_8b,llama_cross,meta-llama/Llama-3.2-1B,meta-llama/Llama-3.1-8B,continuation,continuation_0,10,50,0.9,1.0,64,nf4,nf4,13.925637,4739.460145,71.810002,,13.800737,0.991031,9,66,57,6,3,90,0.633333,0.333333,0.666667,6.333333,7.333333,383.455744,144.430021,3451.101697,1299.870192
llama32_1b_to_31_8b,llama_cross,meta-llama/Llama-3.2-1B,meta-llama/Llama-3.1-8B,continuation,continuation_0,10,100,0.0,1.0,64,nf4,nf4,13.89038,4751.489874,71.992271,,17.727861,1.276269,7,66,59,3,4,70,0.842857,0.571429,0.428571,8.428571,9.428571,386.489221,141.248244,2705.424545,988.737711
llama32_1b_to_31_8b,llama_cross,meta-llama/Llama-3.2-1B,meta-llama/Llama-3.1-8B,continuation,continuation_0,10,100,0.9,1.0,64,nf4,nf4,13.324902,4803.037266,75.047457,,16.769695,1.258523,7,64,57,2,5,70,0.814286,0.714286,0.285714,8.142857,9.142857,395.495015,145.828363,2768.465102,1020.798544
llama32_1b_to_31_8b,llama_cross,meta-llama/Llama-3.2-1B,meta-llama/Llama-3.1-8B,continuation,continuation_0,10,150,0.0,1.0,64,nf4,nf4,15.57159,4752.244218,64.219516,,17.413871,1.11831,8,74,66,2,6,80,0.825,0.75,0.25,8.25,9.25,386.492005,140.828254,3091.936042,1126.626034
llama32_1b_to_31_8b,llama_cross,meta-llama/Llama-3.2-1B,meta-llama/Llama-3.1-8B,continuation,continuation_0,10,150,0.9,1.0,64,nf4,nf4,14.106049,4749.735311,70.891572,,15.564395,1.103384,8,67,59,4,4,80,0.7375,0.5,0.5,7.375,8.375,389.10606,145.254352,3112.848479,1162.034818
llama32_1b_to_31_8b,llama_cross,meta-llama/Llama-3.2-1B,meta-llama/Llama-3.1-8B,continuation,continuation_0,10,200,0.0,1.0,64,nf4,nf4,13.654826,4760.221902,73.234183,,15.32659,1.12243,8,65,57,3,5,80,0.7125,0.625,0.375,7.125,8.125,385.563672,140.951693,3084.509377,1127.613544
llama32_1b_to_31_8b,llama_cross,meta-llama/Llama-3.2-1B,meta-llama/Llama-3.1-8B,continuation,continuation_0,10,200,0.9,1.0,64,nf4,nf4,13.385626,4781.248227,74.707004,,6.765538,0.505433,18,64,46,17,1,180,0.255556,0.055556,0.944444,2.555556,3.555556,380.371955,142.720107,6846.695194,2568.961931
llama32_1b_to_31_8b,llama_cross,meta-llama/Llama-3.2-1B,meta-llama/Llama-3.1-8B,continuation,continuation_1,4,50,0.0,1.0,64,nf4,nf4,14.199776,4718.384406,70.423648,,13.780246,0.970455,16,67,51,4,12,64,0.796875,0.75,0.25,3.1875,4.1875,164.874212,136.702947,2637.987393,2187.247152
llama32_1b_to_31_8b,llama_cross,meta-llama/Llama-3.2-1B,meta-llama/Llama-3.1-8B,continuation,continuation_1,4,50,0.9,1.0,64,nf4,nf4,13.496265,4816.147203,74.094572,,13.341146,0.988507,16,65,49,6,10,64,0.765625,0.625,0.375,3.0625,4.0625,163.687253,138.529321,2618.996046,2216.469132
llama32_1b_to_31_8b,llama_cross,meta-llama/Llama-3.2-1B,meta-llama/Llama-3.1-8B,continuation,continuation_1,4,100,0.0,1.0,64,nf4,nf4,13.693161,4746.895108,73.029156,,15.347626,1.120824,14,65,51,2,12,56,0.910714,0.857143,0.142857,3.642857,4.642857,163.557843,136.599347,2289.809803,1912.390861
llama32_1b_to_31_8b,llama_cross,meta-llama/Llama-3.2-1B,meta-llama/Llama-3.1-8B,continuation,continuation_1,4,100,0.9,1.0,64,nf4,nf4,13.331627,4800.614344,75.009599,,13.882921,1.041352,15,64,49,5,10,60,0.816667,0.666667,0.333333,3.266667,4.266667,166.066222,138.92621,2490.993337,2083.89315
llama32_1b_to_31_8b,llama_cross,meta-llama/Llama-3.2-1B,meta-llama/Llama-3.1-8B,continuation,continuation_1,4,150,0.0,1.0,64,nf4,nf4,13.363323,4789.228036,74.831688,,15.012156,1.123385,14,64,50,2,12,56,0.892857,0.857143,0.142857,3.571429,4.571429,165.513181,136.637526,2317.184536,1912.925362
llama32_1b_to_31_8b,llama_cross,meta-llama/Llama-3.2-1B,meta-llama/Llama-3.1-8B,continuation,continuation_1,4,150,0.9,1.0,64,nf4,nf4,13.781231,4789.122183,72.562457,,14.404838,1.04525,15,66,51,5,10,60,0.85,0.666667,0.333333,3.4,4.4,164.350484,138.717992,2465.257258,2080.769883
llama32_1b_to_31_8b,llama_cross,meta-llama/Llama-3.2-1B,meta-llama/Llama-3.1-8B,continuation,continuation_1,4,200,0.0,1.0,64,nf4,nf4,14.403875,4720.9519,69.425763,,15.025991,1.043191,15,68,53,4,11,60,0.883333,0.733333,0.266667,3.533333,4.533333,163.034439,136.283669,2445.516584,2044.25504
llama32_1b_to_31_8b,llama_cross,meta-llama/Llama-3.2-1B,meta-llama/Llama-3.1-8B,continuation,continuation_1,4,200,0.9,1.0,64,nf4,nf4,13.80251,4781.739079,72.450592,,14.282317,1.034762,15,66,51,6,9,60,0.85,0.6,0.4,3.4,4.4,166.646756,138.981262,2499.701339,2084.718924
llama32_1b_to_31_8b,llama_cross,meta-llama/Llama-3.2-1B,meta-llama/Llama-3.1-8B,continuation,continuation_1,6,50,0.0,1.0,64,nf4,nf4,13.437816,4762.678609,74.416853,,11.484062,0.854608,15,64,49,10,5,90,0.544444,0.333333,0.666667,3.266667,4.266667,231.683622,137.307137,3475.254336,2059.60705
llama32_1b_to_31_8b,llama_cross,meta-llama/Llama-3.2-1B,meta-llama/Llama-3.1-8B,continuation,continuation_1,6,50,0.9,1.0,64,nf4,nf4,14.273544,4764.058527,70.059684,,14.830056,1.038989,12,68,56,4,8,72,0.777778,0.666667,0.333333,4.666667,5.666667,238.531965,140.804865,2862.383575,1689.65838
llama32_1b_to_31_8b,llama_cross,meta-llama/Llama-3.2-1B,meta-llama/Llama-3.1-8B,continuation,continuation_1,6,100,0.0,1.0,64,nf4,nf4,13.967426,4725.280015,71.595152,,17.409711,1.246451,10,66,56,1,9,60,0.933333,0.9,0.1,5.6,6.6,238.06363,138.123148,2380.636295,1381.231482
llama32_1b_to_31_8b,llama_cross,meta-llama/Llama-3.2-1B,meta-llama/Llama-3.1-8B,continuation,continuation_1,6,100,0.9,1.0,64,nf4,nf4,14.462398,4770.992874,69.144824,,13.007791,0.899421,14,69,55,6,8,84,0.654762,0.571429,0.428571,3.928571,4.928571,235.817301,140.532095,3301.442212,1967.449328
llama32_1b_to_31_8b,llama_cross,meta-llama/Llama-3.2-1B,meta-llama/Llama-3.1-8B,continuation,continuation_1,6,150,0.0,1.0,64,nf4,nf4,14.166156,4800.173041,70.59078,,15.041443,1.061787,12,68,56,4,8,72,0.777778,0.666667,0.333333,4.666667,5.666667,235.802536,138.163431,2829.630434,1657.961175
llama32_1b_to_31_8b,llama_cross,meta-llama/Llama-3.2-1B,meta-llama/Llama-3.1-8B,continuation,continuation_1,6,150,0.9,1.0,64,nf4,nf4,13.383507,4782.005369,74.718834,,12.914366,0.964946,13,64,51,7,6,78,0.653846,0.461538,0.538462,3.923077,4.923077,237.990344,140.539763,3093.874473,1827.016917
llama32_1b_to_31_8b,llama_cross,meta-llama/Llama-3.2-1B,meta-llama/Llama-3.1-8B,continuation,continuation_1,6,200,0.0,1.0,64,nf4,nf4,13.431415,4764.948378,74.452318,,16.760645,1.247869,10,64,54,2,8,60,0.9,0.8,0.2,5.4,6.4,239.994204,138.773457,2399.942038,1387.73457
llama32_1b_to_31_8b,llama_cross,meta-llama/Llama-3.2-1B,meta-llama/Llama-3.1-8B,continuation,continuation_1,6,200,0.9,1.0,64,nf4,nf4,13.757102,4797.521869,72.689725,,15.702409,1.141404,11,66,55,3,8,66,0.833333,0.727273,0.272727,5,6,238.341295,140.910515,2621.754243,1550.01566
llama32_1b_to_31_8b,llama_cross,meta-llama/Llama-3.2-1B,meta-llama/Llama-3.1-8B,continuation,continuation_1,8,50,0.0,1.0,64,nf4,nf4,14.76336,4741.468162,67.735259,,18.98043,1.285644,8,70,62,1,7,64,0.96875,0.875,0.125,7.75,8.75,317.174044,140.160516,2537.392348,1121.28413
llama32_1b_to_31_8b,llama_cross,meta-llama/Llama-3.2-1B,meta-llama/Llama-3.1-8B,continuation,continuation_1,8,50,0.9,1.0,64,nf4,nf4,14.406312,4720.15308,69.414016,,14.796424,1.027079,10,68,58,4,6,80,0.725,0.6,0.4,5.8,6.8,313.618701,142.712154,3136.187013,1427.121537
llama32_1b_to_31_8b,llama_cross,meta-llama/Llama-3.2-1B,meta-llama/Llama-3.1-8B,continuation,continuation_1,8,100,0.0,1.0,64,nf4,nf4,15.26733,4715.952401,65.499339,,19.527689,1.279051,8,72,64,0,8,64,1.0,1.0,0.0,8,9,317.17656,140.048507,2537.412482,1120.388058
llama32_1b_to_31_8b,llama_cross,meta-llama/Llama-3.2-1B,meta-llama/Llama-3.1-8B,continuation,continuation_1,8,100,0.9,1.0,64,nf4,nf4,13.728971,4734.513502,72.838669,,9.028604,0.657632,16,65,49,12,4,128,0.382812,0.25,0.75,3.0625,4.0625,305.937676,141.491981,4895.002821,2263.871696
llama32_1b_to_31_8b,llama_cross,meta-llama/Llama-3.2-1B,meta-llama/Llama-3.1-8B,continuation,continuation_1,8,150,0.0,1.0,64,nf4,nf4,15.112481,4764.273936,66.170471,,19.686251,1.302649,8,72,64,0,8,64,1.0,1.0,0.0,8,9,313.244562,140.216388,2505.956497,1121.731107
llama32_1b_to_31_8b,llama_cross,meta-llama/Llama-3.2-1B,meta-llama/Llama-3.1-8B,continuation,continuation_1,8,150,0.9,1.0,64,nf4,nf4,13.463232,4753.687571,74.276368,,15.517804,1.152606,9,64,55,3,6,72,0.763889,0.666667,0.333333,6.111111,7.111111,311.609005,143.398268,2804.481041,1290.584413
llama32_1b_to_31_8b,llama_cross,meta-llama/Llama-3.2-1B,meta-llama/Llama-3.1-8B,continuation,continuation_1,8,200,0.0,1.0,64,nf4,nf4,15.329885,4696.708421,65.232061,,19.777778,1.290145,8,72,64,0,8,64,1.0,1.0,0.0,8,9,311.41317,140.054887,2491.305358,1120.439094
llama32_1b_to_31_8b,llama_cross,meta-llama/Llama-3.2-1B,meta-llama/Llama-3.1-8B,continuation,continuation_1,8,200,0.9,1.0,64,nf4,nf4,13.838028,4697.201042,72.264631,,13.027266,0.941411,11,65,54,7,4,88,0.613636,0.363636,0.636364,4.909091,5.909091,307.609007,142.99582,3383.699073,1572.954024
llama32_1b_to_31_8b,llama_cross,meta-llama/Llama-3.2-1B,meta-llama/Llama-3.1-8B,continuation,continuation_1,10,50,0.0,1.0,64,nf4,nf4,14.731302,4683.903861,67.882665,,14.450951,0.980969,9,69,60,5,4,90,0.666667,0.444444,0.555556,6.666667,7.666667,386.487644,140.486147,3478.388794,1264.375326
llama32_1b_to_31_8b,llama_cross,meta-llama/Llama-3.2-1B,meta-llama/Llama-3.1-8B,continuation,continuation_1,10,50,0.9,1.0,64,nf4,nf4,13.665776,4756.407367,73.175498,,13.653688,0.999115,9,65,56,8,1,90,0.622222,0.111111,0.888889,6.222222,7.222222,381.0479,144.331691,3429.431099,1298.985215
llama32_1b_to_31_8b,llama_cross,meta-llama/Llama-3.2-1B,meta-llama/Llama-3.1-8B,continuation,continuation_1,10,100,0.0,1.0,64,nf4,nf4,14.789846,4732.976986,67.613957,,9.630432,0.651152,14,70,56,10,4,140,0.4,0.285714,0.714286,4,5,377.208249,139.249502,5280.915483,1949.493028
llama32_1b_to_31_8b,llama_cross,meta-llama/Llama-3.2-1B,meta-llama/Llama-3.1-8B,continuation,continuation_1,10,100,0.9,1.0,64,nf4,nf4,14.729853,4752.253788,67.88934,,13.349039,0.906257,10,70,60,6,4,100,0.6,0.4,0.6,6,7,377.302267,143.858351,3773.022671,1438.583514
llama32_1b_to_31_8b,llama_cross,meta-llama/Llama-3.2-1B,meta-llama/Llama-3.1-8B,continuation,continuation_1,10,150,0.0,1.0,64,nf4,nf4,13.568959,4864.042977,73.697621,,12.593714,0.928127,10,66,56,7,3,100,0.56,0.3,0.7,5.6,6.6,380.802585,140.036064,3808.02585,1400.360643
llama32_1b_to_31_8b,llama_cross,meta-llama/Llama-3.2-1B,meta-llama/Llama-3.1-8B,continuation,continuation_1,10,150,0.9,1.0,64,nf4,nf4,14.622095,4787.275769,68.389654,,14.656849,1.002377,9,70,61,5,4,90,0.677778,0.444444,0.555556,6.777778,7.777778,382.399996,144.753029,3441.599963,1302.777262
llama32_1b_to_31_8b,llama_cross,meta-llama/Llama-3.2-1B,meta-llama/Llama-3.1-8B,continuation,continuation_1,10,200,0.0,1.0,64,nf4,nf4,14.758906,4742.898812,67.755697,,18.666108,1.264735,7,70,63,2,5,70,0.9,0.714286,0.285714,9,10,390.442014,141.146374,2733.094096,988.024621
llama32_1b_to_31_8b,llama_cross,meta-llama/Llama-3.2-1B,meta-llama/Llama-3.1-8B,continuation,continuation_1,10,200,0.9,1.0,64,nf4,nf4,13.631638,4768.319201,73.358757,,13.445119,0.986317,9,65,56,6,3,90,0.622222,0.333333,0.666667,6.222222,7.222222,388.771831,144.923708,3498.946475,1304.31337
llama32_1b_to_31_8b,llama_cross,meta-llama/Llama-3.2-1B,meta-llama/Llama-3.1-8B,code_completion,code_completion_0,4,50,0.0,1.0,64,nf4,nf4,14.238369,4705.594996,70.232761,,13.010888,0.913791,17,67,50,5,12,68,0.735294,0.705882,0.294118,2.941176,3.941176,164.692323,135.978758,2799.769496,2311.638894
llama32_1b_to_31_8b,llama_cross,meta-llama/Llama-3.2-1B,meta-llama/Llama-3.1-8B,code_completion,code_completion_0,4,50,0.9,1.0,64,nf4,nf4,14.199488,4788.905127,70.425075,,14.027194,0.987866,16,68,52,5,11,64,0.8125,0.6875,0.3125,3.25,4.25,162.30782,138.321175,2596.925115,2213.138793
llama32_1b_to_31_8b,llama_cross,meta-llama/Llama-3.2-1B,meta-llama/Llama-3.1-8B,code_completion,code_completion_0,4,100,0.0,1.0,64,nf4,nf4,13.743513,4802.265717,72.761602,,13.059612,0.950238,17,66,49,6,11,68,0.720588,0.647059,0.352941,2.882353,3.882353,159.251355,135.824086,2707.273027,2309.009464
llama32_1b_to_31_8b,llama_cross,meta-llama/Llama-3.2-1B,meta-llama/Llama-3.1-8B,code_completion,code_completion_0,4,100,0.9,1.0,64,nf4,nf4,14.231568,4778.110052,70.266324,,13.156704,0.924473,17,68,51,8,9,68,0.75,0.529412,0.470588,3,4,163.214581,138.430358,2774.647874,2353.316082
llama32_1b_to_31_8b,llama_cross,meta-llama/Llama-3.2-1B,meta-llama/Llama-3.1-8B,code_completion,code_completion_0,4,150,0.0,1.0,64,nf4,nf4,13.862156,4761.164046,72.138849,,13.020684,0.939297,17,66,49,6,11,68,0.720588,0.647059,0.352941,2.882353,3.882353,160.083171,135.859545,2721.413899,2309.61226
llama32_1b_to_31_8b,llama_cross,meta-llama/Llama-3.2-1B,meta-llama/Llama-3.1-8B,code_completion,code_completion_0,4,150,0.9,1.0,64,nf4,nf4,13.828534,4700.425907,72.314245,,15.242625,1.102259,14,65,51,2,12,56,0.910714,0.857143,0.142857,3.642857,4.642857,163.722654,138.592261,2292.117153,1940.291655
llama32_1b_to_31_8b,llama_cross,meta-llama/Llama-3.2-1B,meta-llama/Llama-3.1-8B,code_completion,code_completion_0,4,200,0.0,1.0,64,nf4,nf4,13.730179,4806.929266,72.832262,,12.933464,0.941973,17,66,49,6,11,68,0.720588,0.647059,0.352941,2.882353,3.882353,162.134554,135.820187,2756.287415,2308.943175
llama32_1b_to_31_8b,llama_cross,meta-llama/Llama-3.2-1B,meta-llama/Llama-3.1-8B,code_completion,code_completion_0,4,200,0.9,1.0,64,nf4,nf4,14.031914,4846.095761,71.266114,,13.770184,0.981348,16,68,52,4,12,64,0.8125,0.75,0.25,3.25,4.25,167.701172,138.536161,2683.218744,2216.57857
llama32_1b_to_31_8b,llama_cross,meta-llama/Llama-3.2-1B,meta-llama/Llama-3.1-8B,code_completion,code_completion_0,6,50,0.0,1.0,64,nf4,nf4,14.650027,4778.148341,68.259262,,13.344367,0.910877,14,70,56,5,9,84,0.666667,0.642857,0.357143,4,5,235.163486,136.890238,3292.288802,1916.463326
llama32_1b_to_31_8b,llama_cross,meta-llama/Llama-3.2-1B,meta-llama/Llama-3.1-8B,code_completion,code_completion_0,6,50,0.9,1.0,64,nf4,nf4,14.722234,4754.713267,67.924475,,13.368389,0.908041,14,70,56,8,6,84,0.666667,0.428571,0.571429,4,5,231.392832,139.958148,3239.499642,1959.414071
llama32_1b_to_31_8b,llama_cross,meta-llama/Llama-3.2-1B,meta-llama/Llama-3.1-8B,code_completion,code_completion_0,6,100,0.0,1.0,64,nf4,nf4,14.116678,4675.320919,70.838196,,12.599061,0.892495,14,66,52,7,7,84,0.619048,0.5,0.5,3.714286,4.714286,234.597658,136.918613,3284.367208,1916.860578
llama32_1b_to_31_8b,llama_cross,meta-llama/Llama-3.2-1B,meta-llama/Llama-3.1-8B,code_completion,code_completion_0,6,100,0.9,1.0,64,nf4,nf4,14.187836,4792.838149,70.482914,,12.871162,0.907197,14,68,54,8,6,84,0.642857,0.428571,0.571429,3.857143,4.857143,234.68924,140.014976,3285.649361,1960.209659
llama32_1b_to_31_8b,llama_cross,meta-llama/Llama-3.2-1B,meta-llama/Llama-3.1-8B,code_completion,code_completion_0,6,150,0.0,1.0,64,nf4,nf4,13.809472,4779.328314,72.414065,,12.578409,0.910854,14,66,52,7,7,84,0.619048,0.5,0.5,3.714286,4.714286,235.274154,136.909184,3293.838153,1916.728578
llama32_1b_to_31_8b,llama_cross,meta-llama/Llama-3.2-1B,meta-llama/Llama-3.1-8B,code_completion,code_completion_0,6,150,0.9,1.0,64,nf4,nf4,13.664477,4756.859616,73.182456,,14.396894,1.0536,12,65,53,5,7,72,0.736111,0.583333,0.416667,4.416667,5.416667,233.119912,140.404963,2797.438946,1684.859553
llama32_1b_to_31_8b,llama_cross,meta-llama/Llama-3.2-1B,meta-llama/Llama-3.1-8B,code_completion,code_completion_0,6,200,0.0,1.0,64,nf4,nf4,13.901188,4747.795766,71.936299,,12.569004,0.904168,14,66,52,7,7,84,0.619048,0.5,0.5,3.714286,4.714286,235.627166,136.846534,3298.780327,1915.851481
llama32_1b_to_31_8b,llama_cross,meta-llama/Llama-3.2-1B,meta-llama/Llama-3.1-8B,code_completion,code_completion_0,6,200,0.9,1.0,64,nf4,nf4,14.307576,4752.72685,69.893042,,16.040725,1.121135,11,68,57,2,9,66,0.863636,0.818182,0.181818,5.181818,6.181818,241.537634,140.999026,2656.913978,1550.989283
llama32_1b_to_31_8b,llama_cross,meta-llama/Llama-3.2-1B,meta-llama/Llama-3.1-8B,code_completion,code_completion_0,8,50,0.0,1.0,64,nf4,nf4,14.113623,4747.186498,70.85353,,12.473118,0.883764,12,67,55,6,6,96,0.572917,0.5,0.5,4.583333,5.583333,306.598046,138.143238,3679.176552,1657.718858
llama32_1b_to_31_8b,llama_cross,meta-llama/Llama-3.2-1B,meta-llama/Llama-3.1-8B,code_completion,code_completion_0,8,50,0.9,1.0,64,nf4,nf4,14.263293,4697.372468,70.110037,,12.292908,0.861856,12,67,55,6,6,96,0.572917,0.5,0.5,4.583333,5.583333,309.487194,141.904474,3713.846329,1702.853691
llama32_1b_to_31_8b,llama_cross,meta-llama/Llama-3.2-1B,meta-llama/Llama-3.1-8B,code_completion,code_completion_0,8,100,0.0,1.0,64,nf4,nf4,14.47903,4765.51271,69.065402,,11.780449,0.813621,13,69,56,7,6,104,0.538462,0.461538,0.538462,4.307692,5.307692,309.652582,138.050329,4025.483569,1794.654271
llama32_1b_to_31_8b,llama_cross,meta-llama/Llama-3.2-1B,meta-llama/Llama-3.1-8B,code_completion,code_completion_0,8,100,0.9,1.0,64,nf4,nf4,14.130957,4812.129791,70.766615,,12.315733,0.871543,12,68,56,7,5,96,0.583333,0.416667,0.583333,4.666667,5.666667,315.275935,141.870595,3783.311225,1702.447138
llama32_1b_to_31_8b,llama_cross,meta-llama/Llama-3.2-1B,meta-llama/Llama-3.1-8B,code_completion,code_completion_0,8,150,0.0,1.0,64,nf4,nf4,14.528508,4749.283144,68.83019,,11.844663,0.81527,13,69,56,7,6,104,0.538462,0.461538,0.538462,4.307692,5.307692,307.080228,138.215992,3992.042962,1796.8079
llama32_1b_to_31_8b,llama_cross,meta-llama/Llama-3.2-1B,meta-llama/Llama-3.1-8B,code_completion,code_completion_0,8,150,0.9,1.0,64,nf4,nf4,14.354537,4737.178082,69.664384,,14.606935,1.017583,10,68,58,4,6,80,0.725,0.6,0.4,5.8,6.8,319.625806,142.658733,3196.258059,1426.587331
llama32_1b_to_31_8b,llama_cross,meta-llama/Llama-3.2-1B,meta-llama/Llama-3.1-8B,code_completion,code_completion_0,8,200,0.0,1.0,64,nf4,nf4,14.509164,4824.537236,68.921961,,11.898029,0.820035,13,70,57,7,6,104,0.548077,0.461538,0.538462,4.384615,5.384615,311.481031,138.240912,4049.253404,1797.131861
llama32_1b_to_31_8b,llama_cross,meta-llama/Llama-3.2-1B,meta-llama/Llama-3.1-8B,code_completion,code_completion_0,8,200,0.9,1.0,64,nf4,nf4,13.570648,4863.437457,73.688446,,17.604114,1.29722,8,66,58,2,6,64,0.90625,0.75,0.25,7.25,8.25,321.216237,143.803319,2569.729894,1150.426554
llama32_1b_to_31_8b,llama_cross,meta-llama/Llama-3.2-1B,meta-llama/Llama-3.1-8B,code_completion,code_completion_0,10,50,0.0,1.0,64,nf4,nf4,13.895812,4821.596718,71.96413,,11.473441,0.825676,11,67,56,6,5,110,0.509091,0.454545,0.545455,5.090909,6.090909,388.439228,139.376092,4272.831513,1533.137016
llama32_1b_to_31_8b,llama_cross,meta-llama/Llama-3.2-1B,meta-llama/Llama-3.1-8B,code_completion,code_completion_0,10,50,0.9,1.0,64,nf4,nf4,13.713076,4740.0016,72.923102,,13.583247,0.990532,9,65,56,5,4,90,0.622222,0.444444,0.555556,6.222222,7.222222,384.023042,144.318632,3456.207376,1298.867689
llama32_1b_to_31_8b,llama_cross,meta-llama/Llama-3.2-1B,meta-llama/Llama-3.1-8B,code_completion,code_completion_0,10,100,0.0,1.0,64,nf4,nf4,14.488909,4693.244904,69.018307,,10.856977,0.74933,12,68,56,8,4,120,0.466667,0.333333,0.666667,4.666667,5.666667,379.853201,139.115518,4558.238415,1669.386219
llama32_1b_to_31_8b,llama_cross,meta-llama/Llama-3.2-1B,meta-llama/Llama-3.1-8B,code_completion,code_completion_0,10,100,0.9,1.0,64,nf4,nf4,13.932878,4808.769639,71.772681,,11.496591,0.825141,11,67,56,7,4,110,0.509091,0.363636,0.636364,5.090909,6.090909,383.507681,143.230149,4218.584494,1575.531639
llama32_1b_to_31_8b,llama_cross,meta-llama/Llama-3.2-1B,meta-llama/Llama-3.1-8B,code_completion,code_completion_0,10,150,0.0,1.0,64,nf4,nf4,14.258497,4769.086231,70.133621,,10.751324,0.754029,12,68,56,8,4,120,0.466667,0.333333,0.666667,4.666667,5.666667,384.624683,139.359924,4615.496199,1672.319088
llama32_1b_to_31_8b,llama_cross,meta-llama/Llama-3.2-1B,meta-llama/Llama-3.1-8B,code_completion,code_completion_0,10,150,0.9,1.0,64,nf4,nf4,13.557124,4794.527271,73.761958,,13.497054,0.995569,9,65,56,6,3,90,0.622222,0.333333,0.666667,6.222222,7.222222,387.494828,144.153773,3487.453451,1297.383954
llama32_1b_to_31_8b,llama_cross,meta-llama/Llama-3.2-1B,meta-llama/Llama-3.1-8B,code_completion,code_completion_0,10,200,0.0,1.0,64,nf4,nf4,14.427653,4713.171425,69.311344,,10.808831,0.749175,12,68,56,8,4,120,0.466667,0.333333,0.666667,4.666667,5.666667,381.777806,139.387451,4581.333677,1672.649412
llama32_1b_to_31_8b,llama_cross,meta-llama/Llama-3.2-1B,meta-llama/Llama-3.1-8B,code_completion,code_completion_0,10,200,0.9,1.0,64,nf4,nf4,14.480456,4834.101893,69.058598,,16.119069,1.11316,8,70,62,3,5,80,0.775,0.625,0.375,7.75,8.75,393.965631,145.05577,3151.72505,1160.446164
llama32_1b_to_31_8b,llama_cross,meta-llama/Llama-3.2-1B,meta-llama/Llama-3.1-8B,code_completion,code_completion_1,4,50,0.0,1.0,64,nf4,nf4,14.181172,4795.090356,70.516035,,13.420368,0.946351,17,68,51,7,10,68,0.75,0.588235,0.411765,3,4,160.295374,135.414146,2725.021352,2302.040484
llama32_1b_to_31_8b,llama_cross,meta-llama/Llama-3.2-1B,meta-llama/Llama-3.1-8B,code_completion,code_completion_1,4,50,0.9,1.0,64,nf4,nf4,14.303059,4754.227601,69.915112,,13.300109,0.929879,17,68,51,7,10,68,0.75,0.588235,0.411765,3,4,160.942421,137.531175,2736.021152,2338.029981
llama32_1b_to_31_8b,llama_cross,meta-llama/Llama-3.2-1B,meta-llama/Llama-3.1-8B,code_completion,code_completion_1,4,100,0.0,1.0,64,nf4,nf4,13.592646,4708.428216,73.569191,,15.112306,1.1118,14,64,50,3,11,56,0.892857,0.785714,0.214286,3.571429,4.571429,164.443403,135.604299,2302.207647,1898.460186
llama32_1b_to_31_8b,llama_cross,meta-llama/Llama-3.2-1B,meta-llama/Llama-3.1-8B,code_completion,code_completion_1,4,100,0.9,1.0,64,nf4,nf4,13.542112,4799.842164,73.843726,,11.359534,0.83883,19,65,46,9,10,76,0.605263,0.526316,0.473684,2.421053,3.421053,161.623703,137.384214,3070.850352,2610.300066
llama32_1b_to_31_8b,llama_cross,meta-llama/Llama-3.2-1B,meta-llama/Llama-3.1-8B,code_completion,code_completion_1,4,150,0.0,1.0,64,nf4,nf4,13.416616,4770.20428,74.534442,,13.316829,0.992562,16,64,48,6,10,64,0.75,0.625,0.375,3,4,162.645833,135.380401,2602.333327,2166.08642
llama32_1b_to_31_8b,llama_cross,meta-llama/Llama-3.2-1B,meta-llama/Llama-3.1-8B,code_completion,code_completion_1,4,150,0.9,1.0,64,nf4,nf4,13.401889,4850.062671,74.616349,,13.470411,1.005113,16,65,49,5,11,64,0.765625,0.6875,0.3125,3.0625,4.0625,161.989039,137.328867,2591.824629,2197.261877
llama32_1b_to_31_8b,llama_cross,meta-llama/Llama-3.2-1B,meta-llama/Llama-3.1-8B,code_completion,code_completion_1,4,200,0.0,1.0,64,nf4,nf4,13.953436,4730.017874,71.666937,,13.057184,0.935768,17,66,49,7,10,68,0.720588,0.588235,0.411765,2.882353,3.882353,159.630616,135.418663,2713.720472,2302.117275
llama32_1b_to_31_8b,llama_cross,meta-llama/Llama-3.2-1B,meta-llama/Llama-3.1-8B,code_completion,code_completion_1,4,200,0.9,1.0,64,nf4,nf4,13.635643,4766.918516,73.337208,,13.439286,0.9856,16,65,49,5,11,64,0.765625,0.6875,0.3125,3.0625,4.0625,162.579488,137.435065,2601.271811,2198.961047
llama32_1b_to_31_8b,llama_cross,meta-llama/Llama-3.2-1B,meta-llama/Llama-3.1-8B,code_completion,code_completion_1,6,50,0.0,1.0,64,nf4,nf4,14.000574,4785.517989,71.425642,,12.90965,0.92208,14,67,53,7,7,84,0.630952,0.5,0.5,3.785714,4.785714,231.837932,136.258853,3245.731052,1907.623937
llama32_1b_to_31_8b,llama_cross,meta-llama/Llama-3.2-1B,meta-llama/Llama-3.1-8B,code_completion,code_completion_1,6,50,0.9,1.0,64,nf4,nf4,14.472805,4767.562223,69.095105,,11.450994,0.791208,16,69,53,11,5,96,0.552083,0.3125,0.6875,3.3125,4.3125,235.100399,138.876955,3761.606386,2222.031272
llama32_1b_to_31_8b,llama_cross,meta-llama/Llama-3.2-1B,meta-llama/Llama-3.1-8B,code_completion,code_completion_1,6,100,0.0,1.0,64,nf4,nf4,13.529409,4804.348716,73.913057,,15.514616,1.146733,11,65,54,3,8,66,0.818182,0.727273,0.272727,4.909091,5.909091,241.158273,136.790228,2652.740999,1504.692508
llama32_1b_to_31_8b,llama_cross,meta-llama/Llama-3.2-1B,meta-llama/Llama-3.1-8B,code_completion,code_completion_1,6,100,0.9,1.0,64,nf4,nf4,14.629551,4784.835978,68.3548,,14.263564,0.974983,13,70,57,6,7,78,0.730769,0.538462,0.461538,4.384615,5.384615,235.714011,139.039697,3064.28214,1807.516066
llama32_1b_to_31_8b,llama_cross,meta-llama/Llama-3.2-1B,meta-llama/Llama-3.1-8B,code_completion,code_completion_1,6,150,0.0,1.0,64,nf4,nf4,13.678291,4752.055683,73.108549,,15.823857,1.156859,11,65,54,3,8,66,0.818182,0.727273,0.272727,4.909091,5.909091,233.892684,136.698386,2572.819521,1503.682241
llama32_1b_to_31_8b,llama_cross,meta-llama/Llama-3.2-1B,meta-llama/Llama-3.1-8B,code_completion,code_completion_1,6,150,0.9,1.0,64,nf4,nf4,13.849352,4837.771343,72.205542,,14.634943,1.056724,12,67,55,5,7,72,0.763889,0.583333,0.416667,4.583333,5.583333,238.806208,139.825083,2865.674493,1677.900993
llama32_1b_to_31_8b,llama_cross,meta-llama/Llama-3.2-1B,meta-llama/Llama-3.1-8B,code_completion,code_completion_1,6,200,0.0,1.0,64,nf4,nf4,13.925256,4739.589616,71.811964,,13.584971,0.975563,13,66,53,5,8,78,0.679487,0.615385,0.384615,4.076923,5.076923,234.811097,136.294505,3052.544261,1771.828569
llama32_1b_to_31_8b,llama_cross,meta-llama/Llama-3.2-1B,meta-llama/Llama-3.1-8B,code_completion,code_completion_1,6,200,0.9,1.0,64,nf4,nf4,13.538915,4727.114415,73.861163,,13.120831,0.96912,13,64,51,6,7,78,0.653846,0.538462,0.461538,3.923077,4.923077,233.477494,139.151517,3035.207418,1808.969719
llama32_1b_to_31_8b,llama_cross,meta-llama/Llama-3.2-1B,meta-llama/Llama-3.1-8B,code_completion,code_completion_1,8,50,0.0,1.0,64,nf4,nf4,13.881947,4682.340311,72.036005,,14.48617,1.043526,10,65,55,5,5,80,0.6875,0.5,0.5,5.5,6.5,308.189059,137.381595,3081.890587,1373.815946
llama32_1b_to_31_8b,llama_cross,meta-llama/Llama-3.2-1B,meta-llama/Llama-3.1-8B,code_completion,code_completion_1,8,50,0.9,1.0,64,nf4,nf4,13.43135,4764.971666,74.452682,,12.764958,0.950385,11,64,53,6,5,88,0.602273,0.454545,0.545455,4.818182,5.818182,312.224755,140.621308,3434.47231,1546.834389
llama32_1b_to_31_8b,llama_cross,meta-llama/Llama-3.2-1B,meta-llama/Llama-3.1-8B,code_completion,code_completion_1,8,100,0.0,1.0,64,nf4,nf4,14.159175,4731.914108,70.625584,,13.578551,0.958993,11,67,56,5,6,88,0.636364,0.545455,0.454545,5.090909,6.090909,307.788793,137.80927,3385.676724,1515.901966
llama32_1b_to_31_8b,llama_cross,meta-llama/Llama-3.2-1B,meta-llama/Llama-3.1-8B,code_completion,code_completion_1,8,100,0.9,1.0,64,nf4,nf4,14.975945,4740.936316,66.773751,,12.910933,0.862111,12,71,59,7,5,96,0.614583,0.416667,0.583333,4.916667,5.916667,313.952263,141.219241,3767.427161,1694.630886
llama32_1b_to_31_8b,llama_cross,meta-llama/Llama-3.2-1B,meta-llama/Llama-3.1-8B,code_completion,code_completion_1,8,150,0.0,1.0,64,nf4,nf4,14.313292,4820.693846,69.865128,,15.16867,1.059761,10,69,59,4,6,80,0.7375,0.6,0.4,5.9,6.9,313.834691,137.76447,3138.346908,1377.644698
llama32_1b_to_31_8b,llama_cross,meta-llama/Llama-3.2-1B,meta-llama/Llama-3.1-8B,code_completion,code_completion_1,8,150,0.9,1.0,64,nf4,nf4,13.642577,4837.795517,73.299932,,13.039037,0.955761,11,66,55,7,4,88,0.625,0.363636,0.636364,5,6,316.059078,141.004904,3476.649859,1551.053942
llama32_1b_to_31_8b,llama_cross,meta-llama/Llama-3.2-1B,meta-llama/Llama-3.1-8B,code_completion,code_completion_1,8,200,0.0,1.0,64,nf4,nf4,14.298345,4755.795286,69.938166,,12.564343,0.878727,12,68,56,6,6,96,0.583333,0.5,0.5,4.666667,5.666667,310.70268,137.381505,3728.432161,1648.578058
llama32_1b_to_31_8b,llama_cross,meta-llama/Llama-3.2-1B,meta-llama/Llama-3.1-8B,code_completion,code_completion_1,8,200,0.9,1.0,64,nf4,nf4,14.579845,4801.148508,68.587836,,11.737441,0.805046,13,70,57,8,5,104,0.548077,0.384615,0.615385,4.384615,5.384615,315.27346,140.613094,4098.55498,1827.970223
llama32_1b_to_31_8b,llama_cross,meta-llama/Llama-3.2-1B,meta-llama/Llama-3.1-8B,code_completion,code_completion_1,10,50,0.0,1.0,64,nf4,nf4,14.556919,4740.013946,68.695854,,9.404112,0.646024,14,69,55,12,2,140,0.392857,0.142857,0.857143,3.928571,4.928571,383.244584,137.966202,5365.424173,1931.526826
llama32_1b_to_31_8b,llama_cross,meta-llama/Llama-3.2-1B,meta-llama/Llama-3.1-8B,code_completion,code_completion_1,10,50,0.9,1.0,64,nf4,nf4,13.359816,4790.484995,74.851328,,10.924319,0.8177,11,64,53,8,3,110,0.481818,0.272727,0.727273,4.818182,5.818182,386.983864,142.414708,4256.822502,1566.561784
llama32_1b_to_31_8b,llama_cross,meta-llama/Llama-3.2-1B,meta-llama/Llama-3.1-8B,code_completion,code_completion_1,10,100,0.0,1.0,64,nf4,nf4,14.830375,4787.47157,67.429177,,16.700442,1.126097,8,71,63,2,6,80,0.7875,0.75,0.25,7.875,8.875,388.839603,138.869257,3110.716823,1110.954055
llama32_1b_to_31_8b,llama_cross,meta-llama/Llama-3.2-1B,meta-llama/Llama-3.1-8B,code_completion,code_completion_1,10,100,0.9,1.0,64,nf4,nf4,15.014944,4795.222617,66.600314,,12.300962,0.819248,11,72,61,7,4,110,0.554545,0.363636,0.636364,5.545455,6.545455,386.650357,142.174823,4253.153925,1563.923051
llama32_1b_to_31_8b,llama_cross,meta-llama/Llama-3.2-1B,meta-llama/Llama-3.1-8B,code_completion,code_completion_1,10,150,0.0,1.0,64,nf4,nf4,14.886862,4769.305872,67.173322,,16.899138,1.135171,8,71,63,2,6,80,0.7875,0.75,0.25,7.875,8.875,382.482694,139.000032,3059.861555,1112.000252
llama32_1b_to_31_8b,llama_cross,meta-llama/Llama-3.2-1B,meta-llama/Llama-3.1-8B,code_completion,code_completion_1,10,150,0.9,1.0,64,nf4,nf4,14.976653,4740.712026,66.770592,,12.300918,0.82134,11,71,60,9,2,110,0.545455,0.181818,0.818182,5.454545,6.454545,378.936761,142.400251,4168.304375,1566.402762
llama32_1b_to_31_8b,llama_cross,meta-llama/Llama-3.2-1B,meta-llama/Llama-3.1-8B,code_completion,code_completion_1,10,200,0.0,1.0,64,nf4,nf4,13.613228,4701.309647,73.457963,,12.37728,0.90921,10,64,54,6,4,100,0.54,0.4,0.6,5.4,6.4,375.658741,138.31429,3756.587412,1383.142896
llama32_1b_to_31_8b,llama_cross,meta-llama/Llama-3.2-1B,meta-llama/Llama-3.1-8B,code_completion,code_completion_1,10,200,0.9,1.0,64,nf4,nf4,15.467721,4719.506014,64.650767,,10.536374,0.681185,13,73,60,8,5,130,0.461538,0.384615,0.615385,4.615385,5.615385,388.001933,142.035031,5044.025133,1846.455399
llama32_1b_to_31_8b,llama_cross,meta-llama/Llama-3.2-1B,meta-llama/Llama-3.1-8B,structured_extraction,structured_extraction_0,4,50,0.0,1.0,64,nf4,nf4,13.60141,4705.394643,73.521791,,16.303324,1.19865,13,64,51,1,12,52,0.980769,0.923077,0.076923,3.923077,4.923077,163.255696,136.284933,2122.324049,1771.704125
llama32_1b_to_31_8b,llama_cross,meta-llama/Llama-3.2-1B,meta-llama/Llama-3.1-8B,structured_extraction,structured_extraction_0,4,50,0.9,1.0,64,nf4,nf4,13.844845,4767.117271,72.22905,,13.544397,0.978299,16,66,50,5,11,64,0.78125,0.6875,0.3125,3.125,4.125,163.76662,138.47622,2620.265923,2215.619519
llama32_1b_to_31_8b,llama_cross,meta-llama/Llama-3.2-1B,meta-llama/Llama-3.1-8B,structured_extraction,structured_extraction_0,4,100,0.0,1.0,64,nf4,nf4,13.352119,4793.246542,74.894477,,16.245267,1.216681,13,64,51,1,12,52,0.980769,0.923077,0.076923,3.923077,4.923077,164.40048,136.257529,2137.206234,1771.347877
llama32_1b_to_31_8b,llama_cross,meta-llama/Llama-3.2-1B,meta-llama/Llama-3.1-8B,structured_extraction,structured_extraction_0,4,100,0.9,1.0,64,nf4,nf4,14.237883,4705.755643,70.235159,,14.717055,1.033655,15,67,52,3,12,60,0.866667,0.8,0.2,3.466667,4.466667,162.755494,138.439806,2441.332411,2076.597095
llama32_1b_to_31_8b,llama_cross,meta-llama/Llama-3.2-1B,meta-llama/Llama-3.1-8B,structured_extraction,structured_extraction_0,4,150,0.0,1.0,64,nf4,nf4,13.661571,4684.673498,73.198023,,12.045112,0.881678,18,64,46,10,8,72,0.638889,0.444444,0.555556,2.555556,3.555556,156.972393,135.929209,2825.503071,2446.725763
llama32_1b_to_31_8b,llama_cross,meta-llama/Llama-3.2-1B,meta-llama/Llama-3.1-8B,structured_extraction,structured_extraction_0,4,150,0.9,1.0,64,nf4,nf4,14.059496,4765.462283,71.126303,,14.517222,1.032556,15,67,52,3,12,60,0.866667,0.8,0.2,3.466667,4.466667,166.552758,138.762181,2498.291367,2081.432721
llama32_1b_to_31_8b,llama_cross,meta-llama/Llama-3.2-1B,meta-llama/Llama-3.1-8B,structured_extraction,structured_extraction_0,4,200,0.0,1.0,64,nf4,nf4,13.908707,4745.228939,71.897408,,14.647687,1.053131,15,66,51,4,11,60,0.85,0.733333,0.266667,3.4,4.4,161.986636,136.02258,2429.799533,2040.338696
llama32_1b_to_31_8b,llama_cross,meta-llama/Llama-3.2-1B,meta-llama/Llama-3.1-8B,structured_extraction,structured_extraction_0,4,200,0.9,1.0,64,nf4,nf4,13.946295,4804.143154,71.703629,,14.612568,1.047774,15,67,52,3,12,60,0.866667,0.8,0.2,3.466667,4.466667,164.937286,138.419953,2474.059292,2076.299297
llama32_1b_to_31_8b,llama_cross,meta-llama/Llama-3.2-1B,meta-llama/Llama-3.1-8B,structured_extraction,structured_extraction_0,6,50,0.0,1.0,64,nf4,nf4,14.904873,4696.45069,67.092153,,18.532871,1.24341,10,70,60,0,10,60,1.0,1.0,0.0,6,7,237.18384,137.535714,2371.838399,1375.357136
llama32_1b_to_31_8b,llama_cross,meta-llama/Llama-3.2-1B,meta-llama/Llama-3.1-8B,structured_extraction,structured_extraction_0,6,50,0.9,1.0,64,nf4,nf4,13.976268,4722.290661,71.549858,,15.548964,1.112526,11,66,55,2,9,66,0.833333,0.818182,0.181818,5,6,242.332421,140.70541,2665.656629,1547.759515
llama32_1b_to_31_8b,llama_cross,meta-llama/Llama-3.2-1B,meta-llama/Llama-3.1-8B,structured_extraction,structured_extraction_0,6,100,0.0,1.0,64,nf4,nf4,13.970359,4724.287909,71.58012,,15.97321,1.143364,11,66,55,2,9,66,0.833333,0.818182,0.181818,5,6,235.529578,137.326926,2590.825354,1510.596185
llama32_1b_to_31_8b,llama_cross,meta-llama/Llama-3.2-1B,meta-llama/Llama-3.1-8B,structured_extraction,structured_extraction_0,6,100,0.9,1.0,64,nf4,nf4,14.27646,4763.085602,70.045376,,14.918063,1.044941,12,68,56,3,9,72,0.777778,0.75,0.25,4.666667,5.666667,237.213767,139.989521,2846.565201,1679.874257
llama32_1b_to_31_8b,llama_cross,meta-llama/Llama-3.2-1B,meta-llama/Llama-3.1-8B,structured_extraction,structured_extraction_0,6,150,0.0,1.0,64,nf4,nf4,14.178141,4725.584414,70.531111,,16.347129,1.152981,11,67,56,3,8,66,0.848485,0.727273,0.272727,5.090909,6.090909,232.569789,137.245156,2558.267682,1509.696711
llama32_1b_to_31_8b,llama_cross,meta-llama/Llama-3.2-1B,meta-llama/Llama-3.1-8B,structured_extraction,structured_extraction_0,6,150,0.9,1.0,64,nf4,nf4,14.135545,4810.567873,70.743645,,14.797537,1.046832,12,68,56,3,9,72,0.777778,0.75,0.25,4.666667,5.666667,239.939489,140.425378,2879.273863,1685.104542
llama32_1b_to_31_8b,llama_cross,meta-llama/Llama-3.2-1B,meta-llama/Llama-3.1-8B,structured_extraction,structured_extraction_0,6,200,0.0,1.0,64,nf4,nf4,14.125506,4743.192911,70.793924,,16.277771,1.152367,11,67,56,3,8,66,0.848485,0.727273,0.272727,5.090909,6.090909,234.021977,137.395645,2574.241751,1511.352096
llama32_1b_to_31_8b,llama_cross,meta-llama/Llama-3.2-1B,meta-llama/Llama-3.1-8B,structured_extraction,structured_extraction_0,6,200,0.9,1.0,64,nf4,nf4,14.413032,4717.952612,69.381656,,14.968735,1.038556,12,68,56,3,9,72,0.777778,0.75,0.25,4.666667,5.666667,236.168478,139.837852,2834.021733,1678.054227
llama32_1b_to_31_8b,llama_cross,meta-llama/Llama-3.2-1B,meta-llama/Llama-3.1-8B,structured_extraction,structured_extraction_0,8,50,0.0,1.0,64,nf4,nf4,14.821618,4722.831083,67.469015,,15.704817,1.059589,10,70,60,4,6,80,0.75,0.6,0.4,6,7,304.202437,138.344424,3042.024371,1383.444239
llama32_1b_to_31_8b,llama_cross,meta-llama/Llama-3.2-1B,meta-llama/Llama-3.1-8B,structured_extraction,structured_extraction_0,8,50,0.9,1.0,64,nf4,nf4,15.141188,4755.241191,66.045017,,14.503085,0.957857,11,72,61,6,5,88,0.693182,0.454545,0.545455,5.545455,6.545455,306.865563,141.358714,3375.521197,1554.945858
llama32_1b_to_31_8b,llama_cross,meta-llama/Llama-3.2-1B,meta-llama/Llama-3.1-8B,structured_extraction,structured_extraction_0,8,100,0.0,1.0,64,nf4,nf4,14.821771,4790.250693,67.46832,,15.707689,1.059771,10,71,61,3,7,80,0.7625,0.7,0.3,6.1,7.1,310.668693,138.224544,3106.686925,1382.245435
llama32_1b_to_31_8b,llama_cross,meta-llama/Llama-3.2-1B,meta-llama/Llama-3.1-8B,structured_extraction,structured_extraction_0,8,100,0.9,1.0,64,nf4,nf4,13.493574,4817.107751,74.10935,,17.895827,1.326248,8,65,57,2,6,64,0.890625,0.75,0.25,7.125,8.125,308.460505,142.210967,2467.684043,1137.687735
llama32_1b_to_31_8b,llama_cross,meta-llama/Llama-3.2-1B,meta-llama/Llama-3.1-8B,structured_extraction,structured_extraction_0,8,150,0.0,1.0,64,nf4,nf4,15.285883,4710.228496,65.41984,,14.608983,0.955717,11,72,61,4,7,88,0.693182,0.636364,0.363636,5.545455,6.545455,306.978851,138.128439,3376.767362,1519.41283
llama32_1b_to_31_8b,llama_cross,meta-llama/Llama-3.2-1B,meta-llama/Llama-3.1-8B,structured_extraction,structured_extraction_0,8,150,0.9,1.0,64,nf4,nf4,13.738567,4731.206718,72.787796,,17.452039,1.270295,8,65,57,2,6,64,0.890625,0.75,0.25,7.125,8.125,319.184865,142.834867,2553.478922,1142.678938
llama32_1b_to_31_8b,llama_cross,meta-llama/Llama-3.2-1B,meta-llama/Llama-3.1-8B,structured_extraction,structured_extraction_0,8,200,0.0,1.0,64,nf4,nf4,15.435019,4664.717258,64.78774,,14.738367,0.954865,11,72,61,4,7,88,0.693182,0.636364,0.363636,5.545455,6.545455,303.121898,138.088428,3334.340874,1518.972708
llama32_1b_to_31_8b,llama_cross,meta-llama/Llama-3.2-1B,meta-llama/Llama-3.1-8B,structured_extraction,structured_extraction_0,8,200,0.9,1.0,64,nf4,nf4,14.417367,4785.894768,69.360794,,15.020969,1.041866,10,69,59,3,7,80,0.7375,0.7,0.3,5.9,6.9,313.735421,142.438174,3137.354207,1424.381739
llama32_1b_to_31_8b,llama_cross,meta-llama/Llama-3.2-1B,meta-llama/Llama-3.1-8B,structured_extraction,structured_extraction_0,10,50,0.0,1.0,64,nf4,nf4,15.771178,4628.696652,63.406803,,12.884379,0.816957,11,73,62,8,3,110,0.563636,0.272727,0.727273,5.636364,6.636364,372.64644,139.220281,4099.110836,1531.423096
llama32_1b_to_31_8b,llama_cross,meta-llama/Llama-3.2-1B,meta-llama/Llama-3.1-8B,structured_extraction,structured_extraction_0,10,50,0.9,1.0,64,nf4,nf4,14.517213,4684.094624,68.883744,,18.115879,1.24789,7,68,61,1,6,70,0.871429,0.857143,0.142857,8.714286,9.714286,387.544208,144.852926,2712.809457,1013.970479
llama32_1b_to_31_8b,llama_cross,meta-llama/Llama-3.2-1B,meta-llama/Llama-3.1-8B,structured_extraction,structured_extraction_0,10,100,0.0,1.0,64,nf4,nf4,15.416956,4735.046153,64.863646,,17.523681,1.13665,8,73,65,3,5,80,0.8125,0.625,0.375,8.125,9.125,377.435749,139.548875,3019.485989,1116.391002
llama32_1b_to_31_8b,llama_cross,meta-llama/Llama-3.2-1B,meta-llama/Llama-3.1-8B,structured_extraction,structured_extraction_0,10,100,0.9,1.0,64,nf4,nf4,13.926249,4739.251918,71.806847,,17.578779,1.262277,7,66,59,2,5,70,0.842857,0.714286,0.285714,8.428571,9.428571,387.432696,145.129838,2712.028873,1015.908864
llama32_1b_to_31_8b,llama_cross,meta-llama/Llama-3.2-1B,meta-llama/Llama-3.1-8B,structured_extraction,structured_extraction_0,10,150,0.0,1.0,64,nf4,nf4,13.825264,4701.537807,72.331351,,15.492479,1.120592,8,65,57,3,5,80,0.7125,0.625,0.375,7.125,8.125,381.525681,139.4584,3052.205448,1115.667204
llama32_1b_to_31_8b,llama_cross,meta-llama/Llama-3.2-1B,meta-llama/Llama-3.1-8B,structured_extraction,structured_extraction_0,10,150,0.9,1.0,64,nf4,nf4,13.717337,4811.429483,72.900447,,17.62493,1.284865,7,66,59,2,5,70,0.842857,0.714286,0.285714,8.428571,9.428571,386.305538,144.881273,2704.138769,1014.168909
llama32_1b_to_31_8b,llama_cross,meta-llama/Llama-3.2-1B,meta-llama/Llama-3.1-8B,structured_extraction,structured_extraction_0,10,200,0.0,1.0,64,nf4,nf4,15.87598,4661.129489,62.988236,,15.460541,0.973832,9,74,65,4,5,90,0.722222,0.555556,0.444444,7.222222,8.222222,388.489177,139.657959,3496.402595,1256.921635
llama32_1b_to_31_8b,llama_cross,meta-llama/Llama-3.2-1B,meta-llama/Llama-3.1-8B,structured_extraction,structured_extraction_0,10,200,0.9,1.0,64,nf4,nf4,13.403005,4775.048755,74.610137,,13.283866,0.991111,9,64,55,6,3,90,0.611111,0.333333,0.666667,6.111111,7.111111,387.932837,143.937951,3491.395529,1295.441563
llama32_1b_to_31_8b,llama_cross,meta-llama/Llama-3.2-1B,meta-llama/Llama-3.1-8B,structured_extraction,structured_extraction_1,4,50,0.0,1.0,64,nf4,nf4,13.546561,4798.265715,73.819473,,16.228105,1.19795,13,65,52,0,13,52,1.0,1.0,0.0,4,5,169.389098,136.440031,2202.058272,1773.720404
llama32_1b_to_31_8b,llama_cross,meta-llama/Llama-3.2-1B,meta-llama/Llama-3.1-8B,structured_extraction,structured_extraction_1,4,50,0.9,1.0,64,nf4,nf4,13.6554,4760.021773,73.231104,,14.142336,1.035659,15,65,50,3,12,60,0.833333,0.8,0.2,3.333333,4.333333,165.720538,138.503859,2485.808065,2077.557882
llama32_1b_to_31_8b,llama_cross,meta-llama/Llama-3.2-1B,meta-llama/Llama-3.1-8B,structured_extraction,structured_extraction_1,4,100,0.0,1.0,64,nf4,nf4,14.517634,4683.958875,68.881748,,16.138089,1.11162,14,68,54,1,13,56,0.964286,0.928571,0.071429,3.857143,4.857143,162.556854,136.150984,2275.795957,1906.113774
llama32_1b_to_31_8b,llama_cross,meta-llama/Llama-3.2-1B,meta-llama/Llama-3.1-8B,structured_extraction,structured_extraction_1,4,100,0.9,1.0,64,nf4,nf4,14.087007,4756.155796,70.9874,,11.737993,0.83325,19,67,48,9,10,76,0.631579,0.526316,0.473684,2.526316,3.526316,160.217667,138.091569,3044.13567,2623.739814
llama32_1b_to_31_8b,llama_cross,meta-llama/Llama-3.2-1B,meta-llama/Llama-3.1-8B,structured_extraction,structured_extraction_1,4,150,0.0,1.0,64,nf4,nf4,13.854821,4835.861804,72.177042,,14.981126,1.081293,15,67,52,4,11,60,0.866667,0.733333,0.266667,3.466667,4.466667,159.930258,136.016324,2398.953874,2040.244853
llama32_1b_to_31_8b,llama_cross,meta-llama/Llama-3.2-1B,meta-llama/Llama-3.1-8B,structured_extraction,structured_extraction_1,4,150,0.9,1.0,64,nf4,nf4,13.480088,4747.74361,74.183494,,16.123158,1.196072,13,64,51,1,12,52,0.980769,0.923077,0.076923,3.923077,4.923077,164.316371,138.759841,2136.112818,1803.877933
llama32_1b_to_31_8b,llama_cross,meta-llama/Llama-3.2-1B,meta-llama/Llama-3.1-8B,structured_extraction,structured_extraction_1,4,200,0.0,1.0,64,nf4,nf4,14.497993,4690.304252,68.975063,,14.728849,1.015923,15,68,53,3,12,60,0.883333,0.8,0.2,3.533333,4.533333,169.058995,136.306836,2535.88492,2044.602542
llama32_1b_to_31_8b,llama_cross,meta-llama/Llama-3.2-1B,meta-llama/Llama-3.1-8B,structured_extraction,structured_extraction_1,4,200,0.9,1.0,64,nf4,nf4,13.701869,4670.895481,72.982742,,15.972148,1.165691,13,64,51,1,12,52,0.980769,0.923077,0.076923,3.923077,4.923077,167.117421,138.811503,2172.526472,1804.549539
llama32_1b_to_31_8b,llama_cross,meta-llama/Llama-3.2-1B,meta-llama/Llama-3.1-8B,structured_extraction,structured_extraction_1,6,50,0.0,1.0,64,nf4,nf4,14.689385,4765.345735,68.076368,,17.071864,1.16219,11,70,59,3,8,66,0.893939,0.727273,0.272727,5.363636,6.363636,231.642141,138.200234,2548.063553,1520.202575
llama32_1b_to_31_8b,llama_cross,meta-llama/Llama-3.2-1B,meta-llama/Llama-3.1-8B,structured_extraction,structured_extraction_1,6,50,0.9,1.0,64,nf4,nf4,14.454868,4773.478429,69.180847,,14.056359,0.972431,13,69,56,5,8,78,0.717949,0.615385,0.384615,4.307692,5.307692,234.44149,140.498774,3047.739366,1826.484056
llama32_1b_to_31_8b,llama_cross,meta-llama/Llama-3.2-1B,meta-llama/Llama-3.1-8B,structured_extraction,structured_extraction_1,6,100,0.0,1.0,64,nf4,nf4,13.559751,4793.598202,73.747665,,15.816093,1.1664,11,65,54,4,7,66,0.818182,0.636364,0.363636,4.909091,5.909091,233.086873,137.73281,2563.955608,1515.060905
llama32_1b_to_31_8b,llama_cross,meta-llama/Llama-3.2-1B,meta-llama/Llama-3.1-8B,structured_extraction,structured_extraction_1,6,100,0.9,1.0,64,nf4,nf4,14.010318,4710.813917,71.375968,,15.830892,1.129945,11,66,55,5,6,66,0.833333,0.545455,0.454545,5,6,235.362854,140.817093,2588.991389,1548.98802
llama32_1b_to_31_8b,llama_cross,meta-llama/Llama-3.2-1B,meta-llama/Llama-3.1-8B,structured_extraction,structured_extraction_1,6,150,0.0,1.0,64,nf4,nf4,14.25948,4838.886052,70.128783,,14.148397,0.99221,13,69,56,6,7,78,0.717949,0.538462,0.461538,4.307692,5.307692,235.015802,137.372432,3055.205421,1785.841613
llama32_1b_to_31_8b,llama_cross,meta-llama/Llama-3.2-1B,meta-llama/Llama-3.1-8B,structured_extraction,structured_extraction_1,6,150,0.9,1.0,64,nf4,nf4,13.41337,4771.358813,74.552481,,15.324596,1.142487,11,64,53,4,7,66,0.80303,0.636364,0.363636,4.818182,5.818182,236.139588,140.825213,2597.535471,1549.077344
llama32_1b_to_31_8b,llama_cross,meta-llama/Llama-3.2-1B,meta-llama/Llama-3.1-8B,structured_extraction,structured_extraction_1,6,200,0.0,1.0,64,nf4,nf4,14.685386,4766.643674,68.09491,,18.36305,1.25043,10,70,60,0,10,60,1.0,1.0,0.0,6,7,240.319324,138.037269,2403.193244,1380.372694
llama32_1b_to_31_8b,llama_cross,meta-llama/Llama-3.2-1B,meta-llama/Llama-3.1-8B,structured_extraction,structured_extraction_1,6,200,0.9,1.0,64,nf4,nf4,13.716908,4738.677395,72.902729,,15.490863,1.129326,11,65,54,4,7,66,0.818182,0.636364,0.363636,4.909091,5.909091,237.628803,141.025797,2613.916828,1551.283772
llama32_1b_to_31_8b,llama_cross,meta-llama/Llama-3.2-1B,meta-llama/Llama-3.1-8B,structured_extraction,structured_extraction_1,8,50,0.0,1.0,64,nf4,nf4,13.969278,4796.239307,71.585661,,16.784658,1.201541,9,67,58,4,5,72,0.805556,0.555556,0.444444,6.444444,7.444444,301.371822,138.728623,2712.346399,1248.557608
llama32_1b_to_31_8b,llama_cross,meta-llama/Llama-3.2-1B,meta-llama/Llama-3.1-8B,structured_extraction,structured_extraction_1,8,50,0.9,1.0,64,nf4,nf4,13.668794,4828.516721,73.159344,,14.317303,1.047445,10,66,56,4,6,80,0.7,0.6,0.4,5.6,6.6,315.093859,142.784863,3150.938589,1427.848629
llama32_1b_to_31_8b,llama_cross,meta-llama/Llama-3.2-1B,meta-llama/Llama-3.1-8B,structured_extraction,structured_extraction_1,8,100,0.0,1.0,64,nf4,nf4,14.536376,4677.919718,68.792937,,16.750033,1.152284,9,68,59,2,7,72,0.819444,0.777778,0.222222,6.555556,7.555556,308.944108,138.818081,2780.496968,1249.362726
llama32_1b_to_31_8b,llama_cross,meta-llama/Llama-3.2-1B,meta-llama/Llama-3.1-8B,structured_extraction,structured_extraction_1,8,100,0.9,1.0,64,nf4,nf4,14.51781,4752.78293,68.880912,,13.7861,0.949599,11,69,58,6,5,88,0.659091,0.454545,0.545455,5.272727,6.272727,309.832824,142.175085,3408.161061,1563.925936
llama32_1b_to_31_8b,llama_cross,meta-llama/Llama-3.2-1B,meta-llama/Llama-3.1-8B,structured_extraction,structured_extraction_1,8,150,0.0,1.0,64,nf4,nf4,14.546761,4743.323812,68.743823,,18.837263,1.294945,8,69,61,1,7,64,0.953125,0.875,0.125,7.625,8.625,314.953817,139.324711,2519.630533,1114.597687
llama32_1b_to_31_8b,llama_cross,meta-llama/Llama-3.2-1B,meta-llama/Llama-3.1-8B,structured_extraction,structured_extraction_1,8,150,0.9,1.0,64,nf4,nf4,13.794361,4784.56392,72.493393,,14.484496,1.05003,10,66,56,7,3,80,0.7,0.3,0.7,5.6,6.6,309.122893,143.367719,3091.228931,1433.677186
llama32_1b_to_31_8b,llama_cross,meta-llama/Llama-3.2-1B,meta-llama/Llama-3.1-8B,structured_extraction,structured_extraction_1,8,200,0.0,1.0,64,nf4,nf4,15.332755,4695.829286,65.219851,,19.723122,1.286339,8,72,64,0,8,64,1.0,1.0,0.0,8,9,313.623055,139.098212,2508.984442,1112.785697
llama32_1b_to_31_8b,llama_cross,meta-llama/Llama-3.2-1B,meta-llama/Llama-3.1-8B,structured_extraction,structured_extraction_1,8,200,0.9,1.0,64,nf4,nf4,15.002742,4799.122654,66.654481,,15.910143,1.060482,10,72,62,5,5,80,0.775,0.5,0.5,6.2,7.2,306.412735,142.862968,3064.127352,1428.62968
llama32_1b_to_31_8b,llama_cross,meta-llama/Llama-3.2-1B,meta-llama/Llama-3.1-8B,structured_extraction,structured_extraction_1,10,50,0.0,1.0,64,nf4,nf4,14.885017,4702.715543,67.181651,,15.070221,1.012442,9,70,61,5,4,90,0.677778,0.444444,0.555556,6.777778,7.777778,372.633532,140.019331,3353.701785,1260.173979
llama32_1b_to_31_8b,llama_cross,meta-llama/Llama-3.2-1B,meta-llama/Llama-3.1-8B,structured_extraction,structured_extraction_1,10,50,0.9,1.0,64,nf4,nf4,13.742844,4729.73431,72.765143,,10.401784,0.756887,12,65,53,11,1,120,0.441667,0.083333,0.916667,4.416667,5.416667,374.751711,143.025465,4497.020527,1716.305585
llama32_1b_to_31_8b,llama_cross,meta-llama/Llama-3.2-1B,meta-llama/Llama-3.1-8B,structured_extraction,structured_extraction_1,10,100,0.0,1.0,64,nf4,nf4,14.509899,4755.374233,68.918467,,16.408277,1.130833,8,69,61,3,5,80,0.7625,0.625,0.375,7.625,8.625,382.078087,139.945427,3056.624699,1119.563413
llama32_1b_to_31_8b,llama_cross,meta-llama/Llama-3.2-1B,meta-llama/Llama-3.1-8B,structured_extraction,structured_extraction_1,10,100,0.9,1.0,64,nf4,nf4,13.731555,4660.797654,72.824963,,12.070402,0.879027,10,64,54,7,3,100,0.54,0.3,0.7,5.4,6.4,383.429294,143.741046,3834.292944,1437.410462
llama32_1b_to_31_8b,llama_cross,meta-llama/Llama-3.2-1B,meta-llama/Llama-3.1-8B,structured_extraction,structured_extraction_1,10,150,0.0,1.0,64,nf4,nf4,14.619836,4719.615317,68.400222,,16.54315,1.131555,8,69,61,3,5,80,0.7625,0.625,0.375,7.625,8.625,377.365629,140.199475,3018.925036,1121.595802
llama32_1b_to_31_8b,llama_cross,meta-llama/Llama-3.2-1B,meta-llama/Llama-3.1-8B,structured_extraction,structured_extraction_1,10,150,0.9,1.0,64,nf4,nf4,14.149905,4735.013965,70.67185,,13.999912,0.9894,9,67,58,6,3,90,0.644444,0.333333,0.666667,6.444444,7.444444,384.207371,144.131675,3457.866336,1297.185074
llama32_1b_to_31_8b,llama_cross,meta-llama/Llama-3.2-1B,meta-llama/Llama-3.1-8B,structured_extraction,structured_extraction_1,10,200,0.0,1.0,64,nf4,nf4,13.458343,4904.021246,74.303352,,20.586567,1.529651,6,66,60,0,6,60,1.0,1.0,0.0,10,11,388.778249,141.298145,2332.669493,847.788871
llama32_1b_to_31_8b,llama_cross,meta-llama/Llama-3.2-1B,meta-llama/Llama-3.1-8B,structured_extraction,structured_extraction_1,10,200,0.9,1.0,64,nf4,nf4,15.021325,4726.613757,66.572025,,16.511654,1.099214,8,71,63,3,5,80,0.7875,0.625,0.375,7.875,8.875,388.685096,145.060997,3109.480768,1160.487974
