aXce1-z/LLMSpeculativeSampling-model-pair-search-v2/outputs/run_20260313_083635_none_nf4/trial_results.csv
pair_name,family,approx_model_name,target_model_name,task,prompt_id,gamma,top_k,top_p,temperature,max_tokens,approx_quant,target_quant,baseline_large_tps,baseline_large_elapsed_ms,avg_target_baseline_generate_ms_per_token,baseline_small_tps,speculative_tps,speedup,rounds,generated_tokens,accepted_count,resample_count,target_sample_count,proposed_draft_tokens,acceptance_rate,all_accept_round_rate,resample_round_rate,avg_accepted_per_round,avg_contributed_per_round,avg_draft_generate_ms_per_round,avg_target_verify_ms_per_round,draft_generate_ms_total,target_verify_ms_total
llama32_1b_to_31_8b,llama_cross,meta-llama/Llama-3.2-1B,meta-llama/Llama-3.1-8B,continuation,continuation_0,4,50,0.0,1.0,64,none,nf4,13.531964,4951.240055,73.899105,,20.885816,1.543443,14,67,53,1,13,56,0.946429,0.928571,0.071429,3.785714,4.785714,88.980918,137.789278,1245.732855,1929.049886
llama32_1b_to_31_8b,llama_cross,meta-llama/Llama-3.2-1B,meta-llama/Llama-3.1-8B,continuation,continuation_0,4,50,0.9,1.0,64,none,nf4,12.886241,4966.537651,77.602151,,18.243776,1.415756,15,64,49,5,10,60,0.816667,0.666667,0.333333,3.266667,4.266667,91.062259,140.497807,1365.933882,2107.467107
llama32_1b_to_31_8b,llama_cross,meta-llama/Llama-3.2-1B,meta-llama/Llama-3.1-8B,continuation,continuation_0,4,100,0.0,1.0,64,none,nf4,13.505378,4886.941961,74.044575,,20.627452,1.527351,14,66,52,1,13,56,0.928571,0.928571,0.071429,3.714286,4.714286,87.96598,138.308239,1231.523726,1936.315344
llama32_1b_to_31_8b,llama_cross,meta-llama/Llama-3.2-1B,meta-llama/Llama-3.1-8B,continuation,continuation_0,4,100,0.9,1.0,64,none,nf4,13.609053,4923.193475,73.4805,,20.457811,1.50325,14,67,53,1,13,56,0.946429,0.928571,0.071429,3.785714,4.785714,91.079916,140.58632,1275.118831,1968.208486
llama32_1b_to_31_8b,llama_cross,meta-llama/Llama-3.2-1B,meta-llama/Llama-3.1-8B,continuation,continuation_0,4,150,0.0,1.0,64,none,nf4,13.596365,4927.787655,73.549069,,20.844114,1.533065,14,67,53,2,12,56,0.946429,0.857143,0.142857,3.785714,4.785714,89.108537,138.142459,1247.519519,1933.994423
llama32_1b_to_31_8b,llama_cross,meta-llama/Llama-3.2-1B,meta-llama/Llama-3.1-8B,continuation,continuation_0,4,150,0.9,1.0,64,none,nf4,13.590173,4930.033037,73.582583,,19.184803,1.411667,15,67,52,5,10,60,0.866667,0.666667,0.333333,3.466667,4.466667,90.481177,139.980896,1357.217649,2099.713442
llama32_1b_to_31_8b,llama_cross,meta-llama/Llama-3.2-1B,meta-llama/Llama-3.1-8B,continuation,continuation_0,4,200,0.0,1.0,64,none,nf4,13.818842,4848.45251,72.364963,,18.443135,1.334637,16,67,51,4,12,64,0.796875,0.75,0.25,3.1875,4.1875,87.563956,137.319432,1401.023304,2197.11091
llama32_1b_to_31_8b,llama_cross,meta-llama/Llama-3.2-1B,meta-llama/Llama-3.1-8B,continuation,continuation_0,4,200,0.9,1.0,64,none,nf4,13.78382,4933.320438,72.54883,,18.243485,1.323544,16,68,52,7,9,64,0.8125,0.5625,0.4375,3.25,4.25,90.772005,139.846144,1452.352079,2237.538302
llama32_1b_to_31_8b,llama_cross,meta-llama/Llama-3.2-1B,meta-llama/Llama-3.1-8B,continuation,continuation_0,6,50,0.0,1.0,64,none,nf4,13.13415,4948.930789,76.137397,,19.940059,1.518184,12,65,53,5,7,72,0.736111,0.583333,0.416667,4.416667,5.416667,130.224998,138.706009,1562.699972,1664.472107
llama32_1b_to_31_8b,llama_cross,meta-llama/Llama-3.2-1B,meta-llama/Llama-3.1-8B,continuation,continuation_0,6,50,0.9,1.0,64,none,nf4,14.085025,4969.817281,70.99739,,20.885742,1.482833,12,70,58,3,9,72,0.805556,0.75,0.25,4.833333,5.833333,134.571643,141.969631,1614.859714,1703.635569
llama32_1b_to_31_8b,llama_cross,meta-llama/Llama-3.2-1B,meta-llama/Llama-3.1-8B,continuation,continuation_0,6,100,0.0,1.0,64,none,nf4,13.99966,4857.260893,71.430307,,20.699797,1.478593,12,68,56,4,8,72,0.777778,0.666667,0.333333,4.666667,5.666667,132.128048,138.892054,1585.536574,1666.704642
llama32_1b_to_31_8b,llama_cross,meta-llama/Llama-3.2-1B,meta-llama/Llama-3.1-8B,continuation,continuation_0,6,100,0.9,1.0,64,none,nf4,13.325215,4877.970112,75.045694,,23.252622,1.745009,10,65,55,1,9,60,0.916667,0.9,0.1,5.5,6.5,134.110478,142.591746,1341.104777,1425.917464
llama32_1b_to_31_8b,llama_cross,meta-llama/Llama-3.2-1B,meta-llama/Llama-3.1-8B,continuation,continuation_0,6,150,0.0,1.0,64,none,nf4,14.005587,4855.205292,71.400078,,20.812733,1.486031,12,68,56,4,8,72,0.777778,0.666667,0.333333,4.666667,5.666667,130.531623,139.013646,1566.379471,1668.163749
llama32_1b_to_31_8b,llama_cross,meta-llama/Llama-3.2-1B,meta-llama/Llama-3.1-8B,continuation,continuation_0,6,150,0.9,1.0,64,none,nf4,14.368387,4871.806337,69.597233,,19.396275,1.349927,13,70,57,6,7,78,0.730769,0.538462,0.461538,4.384615,5.384615,132.939173,141.976182,1728.209255,1845.690369
llama32_1b_to_31_8b,llama_cross,meta-llama/Llama-3.2-1B,meta-llama/Llama-3.1-8B,continuation,continuation_0,6,200,0.0,1.0,64,none,nf4,13.121787,4877.38464,76.209135,,23.203824,1.768343,10,64,54,1,9,60,0.9,0.9,0.1,5.4,6.4,133.166032,139.697943,1331.660324,1396.979431
llama32_1b_to_31_8b,llama_cross,meta-llama/Llama-3.2-1B,meta-llama/Llama-3.1-8B,continuation,continuation_0,6,200,0.9,1.0,64,none,nf4,13.462923,4902.352924,74.278075,,21.308465,1.582752,11,66,55,5,6,66,0.833333,0.545455,0.454545,5,6,135.669376,142.895913,1492.363139,1571.855046
llama32_1b_to_31_8b,llama_cross,meta-llama/Llama-3.2-1B,meta-llama/Llama-3.1-8B,continuation,continuation_0,8,50,0.0,1.0,64,none,nf4,13.439138,4836.619808,74.409536,,22.945361,1.707354,9,65,56,3,6,72,0.777778,0.666667,0.333333,6.222222,7.222222,171.026353,140.47791,1539.237177,1264.301193
llama32_1b_to_31_8b,llama_cross,meta-llama/Llama-3.2-1B,meta-llama/Llama-3.1-8B,continuation,continuation_0,8,50,0.9,1.0,64,none,nf4,14.512179,4892.442482,68.907641,,18.166192,1.251789,12,71,59,6,6,96,0.614583,0.5,0.5,4.916667,5.916667,178.888598,143.733284,2146.663178,1724.799408
llama32_1b_to_31_8b,llama_cross,meta-llama/Llama-3.2-1B,meta-llama/Llama-3.1-8B,continuation,continuation_0,8,100,0.0,1.0,64,none,nf4,14.97053,4809.448954,66.797902,,25.39225,1.696149,9,72,63,3,6,72,0.875,0.666667,0.333333,7,8,171.275136,140.346567,1541.476227,1263.119106
llama32_1b_to_31_8b,llama_cross,meta-llama/Llama-3.2-1B,meta-llama/Llama-3.1-8B,continuation,continuation_0,8,100,0.9,1.0,64,none,nf4,14.83715,4852.684124,67.398391,,21.925479,1.477742,10,72,62,4,6,80,0.775,0.6,0.4,6.2,7.2,181.009615,144.04383,1810.096151,1440.438297
llama32_1b_to_31_8b,llama_cross,meta-llama/Llama-3.2-1B,meta-llama/Llama-3.1-8B,continuation,continuation_0,8,150,0.0,1.0,64,none,nf4,13.085495,4890.911641,76.420494,,22.441846,1.715017,9,64,55,4,5,72,0.763889,0.555556,0.444444,6.111111,7.111111,172.998778,140.55267,1556.989003,1264.974032
llama32_1b_to_31_8b,llama_cross,meta-llama/Llama-3.2-1B,meta-llama/Llama-3.1-8B,continuation,continuation_0,8,150,0.9,1.0,64,none,nf4,13.687274,4895.057907,73.060566,,18.982815,1.386895,11,67,56,7,4,88,0.636364,0.363636,0.636364,5.090909,6.090909,174.358018,143.484387,1917.938194,1578.328255
llama32_1b_to_31_8b,llama_cross,meta-llama/Llama-3.2-1B,meta-llama/Llama-3.1-8B,continuation,continuation_0,8,200,0.0,1.0,64,none,nf4,13.927468,4810.637433,71.800559,,23.706313,1.702127,9,67,58,3,6,72,0.805556,0.666667,0.333333,6.444444,7.444444,170.343072,140.387149,1533.087647,1263.484338
llama32_1b_to_31_8b,llama_cross,meta-llama/Llama-3.2-1B,meta-llama/Llama-3.1-8B,continuation,continuation_0,8,200,0.9,1.0,64,none,nf4,14.178409,4866.554389,70.529774,,19.554479,1.379173,11,69,58,6,5,88,0.659091,0.454545,0.545455,5.272727,6.272727,174.075791,143.627066,1914.833705,1579.897729
llama32_1b_to_31_8b,llama_cross,meta-llama/Llama-3.2-1B,meta-llama/Llama-3.1-8B,continuation,continuation_0,10,50,0.0,1.0,64,none,nf4,14.557385,4877.24953,68.693655,,21.969979,1.509198,9,71,62,5,4,90,0.688889,0.444444,0.555556,6.888889,7.888889,214.183305,141.281065,1927.649741,1271.529583
llama32_1b_to_31_8b,llama_cross,meta-llama/Llama-3.2-1B,meta-llama/Llama-3.1-8B,continuation,continuation_0,10,50,0.9,1.0,64,none,nf4,13.499393,4889.108784,74.077406,,17.881173,1.324591,10,66,56,5,5,100,0.56,0.5,0.5,5.6,6.6,220.594016,145.395462,2205.940163,1453.954622
llama32_1b_to_31_8b,llama_cross,meta-llama/Llama-3.2-1B,meta-llama/Llama-3.1-8B,continuation,continuation_0,10,100,0.0,1.0,64,none,nf4,14.16412,4871.463982,70.600927,,23.7665,1.677937,8,69,61,3,5,80,0.7625,0.625,0.375,7.625,8.625,217.688747,141.532723,1741.509975,1132.261784
llama32_1b_to_31_8b,llama_cross,meta-llama/Llama-3.2-1B,meta-llama/Llama-3.1-8B,continuation,continuation_0,10,100,0.9,1.0,64,none,nf4,13.278874,4970.300793,75.307588,,19.762888,1.488295,9,66,57,5,4,90,0.633333,0.444444,0.555556,6.333333,7.333333,221.763272,145.903477,1995.869446,1313.131297
llama32_1b_to_31_8b,llama_cross,meta-llama/Llama-3.2-1B,meta-llama/Llama-3.1-8B,continuation,continuation_0,10,150,0.0,1.0,64,none,nf4,14.09056,4896.895552,70.969501,,27.058592,1.920335,7,69,62,1,6,70,0.885714,0.857143,0.142857,8.857143,9.857143,217.872662,142.32003,1525.108634,996.240208
llama32_1b_to_31_8b,llama_cross,meta-llama/Llama-3.2-1B,meta-llama/Llama-3.1-8B,continuation,continuation_0,10,150,0.9,1.0,64,none,nf4,13.332135,4950.444848,75.00674,,19.759444,1.482091,9,66,57,5,4,90,0.633333,0.444444,0.555556,6.333333,7.333333,221.474978,146.15506,1993.274805,1315.395537
llama32_1b_to_31_8b,llama_cross,meta-llama/Llama-3.2-1B,meta-llama/Llama-3.1-8B,continuation,continuation_0,10,200,0.0,1.0,64,none,nf4,14.96107,4946.170147,66.840137,,22.719114,1.518549,9,74,65,4,5,90,0.722222,0.555556,0.444444,7.222222,8.222222,216.898348,141.42978,1952.08513,1272.868016
llama32_1b_to_31_8b,llama_cross,meta-llama/Llama-3.2-1B,meta-llama/Llama-3.1-8B,continuation,continuation_0,10,200,0.9,1.0,64,none,nf4,14.438061,4848.29662,69.26138,,19.046876,1.319213,10,70,60,6,4,100,0.6,0.4,0.6,6,7,218.688582,145.411973,2186.885819,1454.119728
llama32_1b_to_31_8b,llama_cross,meta-llama/Llama-3.2-1B,meta-llama/Llama-3.1-8B,continuation,continuation_1,4,50,0.0,1.0,64,none,nf4,13.467192,4900.799021,74.254531,,20.781045,1.543087,14,66,52,3,11,56,0.928571,0.785714,0.214286,3.714286,4.714286,87.288697,137.198412,1222.04176,1920.777763
llama32_1b_to_31_8b,llama_cross,meta-llama/Llama-3.2-1B,meta-llama/Llama-3.1-8B,continuation,continuation_1,4,50,0.9,1.0,64,none,nf4,13.633587,4840.985607,73.348267,,17.930904,1.315201,16,66,50,5,11,64,0.78125,0.6875,0.3125,3.125,4.125,88.666185,139.190428,1418.658963,2227.046845
llama32_1b_to_31_8b,llama_cross,meta-llama/Llama-3.2-1B,meta-llama/Llama-3.1-8B,continuation,continuation_1,4,100,0.0,1.0,64,none,nf4,13.056419,4978.394148,76.590679,,21.908033,1.677951,13,65,52,0,13,52,1.0,1.0,0.0,4,5,88.500872,137.342772,1150.511337,1785.456042
llama32_1b_to_31_8b,llama_cross,meta-llama/Llama-3.2-1B,meta-llama/Llama-3.1-8B,continuation,continuation_1,4,100,0.9,1.0,64,none,nf4,13.866666,4903.84629,72.115387,,19.304619,1.39216,15,68,53,4,11,60,0.883333,0.733333,0.266667,3.533333,4.533333,92.80874,139.589744,1392.131103,2093.846155
llama32_1b_to_31_8b,llama_cross,meta-llama/Llama-3.2-1B,meta-llama/Llama-3.1-8B,continuation,continuation_1,4,150,0.0,1.0,64,none,nf4,13.282314,4969.013754,75.288087,,20.783393,1.564742,14,66,52,2,12,56,0.928571,0.857143,0.142857,3.714286,4.714286,87.301214,137.209174,1222.217002,1920.928429
llama32_1b_to_31_8b,llama_cross,meta-llama/Llama-3.2-1B,meta-llama/Llama-3.1-8B,continuation,continuation_1,4,150,0.9,1.0,64,none,nf4,13.165008,4861.371793,75.958934,,19.817381,1.505307,14,64,50,3,11,56,0.892857,0.785714,0.214286,3.571429,4.571429,88.920629,139.470211,1244.888801,1952.582955
llama32_1b_to_31_8b,llama_cross,meta-llama/Llama-3.2-1B,meta-llama/Llama-3.1-8B,continuation,continuation_1,4,200,0.0,1.0,64,none,nf4,13.823549,4846.801672,72.340323,,20.783858,1.503511,14,67,53,1,13,56,0.946429,0.928571,0.071429,3.785714,4.785714,90.606579,137.304499,1268.492107,1922.26299
llama32_1b_to_31_8b,llama_cross,meta-llama/Llama-3.2-1B,meta-llama/Llama-3.1-8B,continuation,continuation_1,4,200,0.9,1.0,64,none,nf4,13.532258,4877.234924,73.897499,,18.925869,1.398574,15,66,51,4,11,60,0.85,0.733333,0.266667,3.4,4.4,90.360382,139.758376,1355.40573,2096.375647
llama32_1b_to_31_8b,llama_cross,meta-llama/Llama-3.2-1B,meta-llama/Llama-3.1-8B,continuation,continuation_1,6,50,0.0,1.0,64,none,nf4,12.773733,5010.281603,78.28565,,21.508979,1.683844,11,64,53,4,7,66,0.80303,0.636364,0.363636,4.818182,5.818182,128.846278,138.872563,1417.309057,1527.598188
llama32_1b_to_31_8b,llama_cross,meta-llama/Llama-3.2-1B,meta-llama/Llama-3.1-8B,continuation,continuation_1,6,50,0.9,1.0,64,none,nf4,13.066672,4974.487885,76.530583,,20.995363,1.606787,11,65,54,3,8,66,0.818182,0.727273,0.272727,4.909091,5.909091,136.007081,142.66831,1496.077886,1569.351405
llama32_1b_to_31_8b,llama_cross,meta-llama/Llama-3.2-1B,meta-llama/Llama-3.1-8B,continuation,continuation_1,6,100,0.0,1.0,64,none,nf4,14.10201,4822.007806,70.911879,,22.371374,1.586396,11,68,57,2,9,66,0.863636,0.818182,0.181818,5.181818,6.181818,134.304721,139.179192,1477.351928,1530.971115
llama32_1b_to_31_8b,llama_cross,meta-llama/Llama-3.2-1B,meta-llama/Llama-3.1-8B,continuation,continuation_1,6,100,0.9,1.0,64,none,nf4,14.137828,4880.523481,70.732224,,20.732558,1.46646,12,69,57,6,6,72,0.791667,0.5,0.5,4.75,5.75,132.667857,141.805242,1592.014283,1701.662903
llama32_1b_to_31_8b,llama_cross,meta-llama/Llama-3.2-1B,meta-llama/Llama-3.1-8B,continuation,continuation_1,6,150,0.0,1.0,64,none,nf4,13.432907,4913.307214,74.444049,,21.756736,1.619659,11,66,55,3,8,66,0.833333,0.727273,0.272727,5,6,133.731795,139.17872,1471.049747,1530.965924
llama32_1b_to_31_8b,llama_cross,meta-llama/Llama-3.2-1B,meta-llama/Llama-3.1-8B,continuation,continuation_1,6,150,0.9,1.0,64,none,nf4,13.054791,4902.414729,76.60023,,20.7363,1.588405,11,64,53,4,7,66,0.80303,0.636364,0.363636,4.818182,5.818182,135.471083,142.273747,1490.181915,1565.011222
llama32_1b_to_31_8b,llama_cross,meta-llama/Llama-3.2-1B,meta-llama/Llama-3.1-8B,continuation,continuation_1,6,200,0.0,1.0,64,none,nf4,13.314856,4881.765203,75.10408,,23.777687,1.785801,10,65,55,1,9,60,0.916667,0.9,0.1,5.5,6.5,131.234914,139.238982,1312.349135,1392.38982
llama32_1b_to_31_8b,llama_cross,meta-llama/Llama-3.2-1B,meta-llama/Llama-3.1-8B,continuation,continuation_1,6,200,0.9,1.0,64,none,nf4,13.141524,4946.154056,76.094678,,21.201096,1.613291,11,65,54,4,7,66,0.818182,0.636364,0.363636,4.909091,5.909091,133.630989,142.20272,1469.940875,1564.229923
llama32_1b_to_31_8b,llama_cross,meta-llama/Llama-3.2-1B,meta-llama/Llama-3.1-8B,continuation,continuation_1,8,50,0.0,1.0,64,none,nf4,13.202429,4999.079916,75.743635,,22.486702,1.703225,9,66,57,4,5,72,0.791667,0.555556,0.444444,6.333333,7.333333,181.750165,140.846186,1635.751486,1267.615677
llama32_1b_to_31_8b,llama_cross,meta-llama/Llama-3.2-1B,meta-llama/Llama-3.1-8B,continuation,continuation_1,8,50,0.9,1.0,64,none,nf4,13.199498,4924.429544,75.760455,,19.80579,1.500496,10,65,55,6,4,80,0.6875,0.4,0.6,5.5,6.5,180.845861,144.092302,1808.458612,1440.923025
llama32_1b_to_31_8b,llama_cross,meta-llama/Llama-3.2-1B,meta-llama/Llama-3.1-8B,continuation,continuation_1,8,100,0.0,1.0,64,none,nf4,12.889063,4965.450172,77.585159,,20.043681,1.555092,10,64,54,5,5,80,0.675,0.5,0.5,5.4,6.4,175.842154,140.229101,1758.421541,1402.291011
llama32_1b_to_31_8b,llama_cross,meta-llama/Llama-3.2-1B,meta-llama/Llama-3.1-8B,continuation,continuation_1,8,100,0.9,1.0,64,none,nf4,13.042608,4906.994002,76.671781,,23.995212,1.839756,8,64,56,2,6,64,0.875,0.75,0.25,7,8,184.719437,145.135306,1477.755495,1161.082451
llama32_1b_to_31_8b,llama_cross,meta-llama/Llama-3.2-1B,meta-llama/Llama-3.1-8B,continuation,continuation_1,8,150,0.0,1.0,64,none,nf4,13.036659,4909.233178,76.706768,,25.034603,1.920323,8,64,56,2,6,64,0.875,0.75,0.25,7,8,175.275179,140.783758,1402.201434,1126.270061
llama32_1b_to_31_8b,llama_cross,meta-llama/Llama-3.2-1B,meta-llama/Llama-3.1-8B,continuation,continuation_1,8,150,0.9,1.0,64,none,nf4,13.779555,4934.847194,72.571282,,20.705045,1.502592,10,68,58,4,6,80,0.725,0.6,0.4,5.8,6.8,181.020341,144.115317,1810.203413,1441.153175
llama32_1b_to_31_8b,llama_cross,meta-llama/Llama-3.2-1B,meta-llama/Llama-3.1-8B,continuation,continuation_1,8,200,0.0,1.0,64,none,nf4,14.280263,4971.897089,70.02672,,22.233204,1.556918,10,71,61,4,6,80,0.7625,0.6,0.4,6.1,7.1,175.868269,140.183442,1758.682688,1401.834416
llama32_1b_to_31_8b,llama_cross,meta-llama/Llama-3.2-1B,meta-llama/Llama-3.1-8B,continuation,continuation_1,8,200,0.9,1.0,64,none,nf4,12.930015,4949.723435,77.339429,,24.514936,1.895971,8,64,56,2,6,64,0.875,0.75,0.25,7,8,177.759803,145.106729,1422.078422,1160.85383
llama32_1b_to_31_8b,llama_cross,meta-llama/Llama-3.2-1B,meta-llama/Llama-3.1-8B,continuation,continuation_1,10,50,0.0,1.0,64,none,nf4,13.770665,4938.033234,72.618136,,20.890317,1.517016,9,68,59,5,4,90,0.655556,0.444444,0.555556,6.555556,7.555556,216.884693,141.255073,1951.962236,1271.295653
llama32_1b_to_31_8b,llama_cross,meta-llama/Llama-3.2-1B,meta-llama/Llama-3.1-8B,continuation,continuation_1,10,50,0.9,1.0,64,none,nf4,14.57712,5007.847822,68.600655,,22.09925,1.516023,9,73,64,6,3,90,0.711111,0.333333,0.666667,7.111111,8.111111,217.47874,145.771568,1957.308661,1311.944115
llama32_1b_to_31_8b,llama_cross,meta-llama/Llama-3.2-1B,meta-llama/Llama-3.1-8B,continuation,continuation_1,10,100,0.0,1.0,64,none,nf4,13.660531,4904.641115,73.203599,,18.551726,1.358053,10,67,57,7,3,100,0.57,0.3,0.7,5.7,6.7,216.865413,140.919091,2168.654132,1409.19091
llama32_1b_to_31_8b,llama_cross,meta-llama/Llama-3.2-1B,meta-llama/Llama-3.1-8B,continuation,continuation_1,10,100,0.9,1.0,64,none,nf4,14.641125,4917.65487,68.300762,,24.30506,1.660054,8,72,64,3,5,80,0.8,0.625,0.375,8,9,220.247933,146.239297,1761.983463,1169.914376
llama32_1b_to_31_8b,llama_cross,meta-llama/Llama-3.2-1B,meta-llama/Llama-3.1-8B,continuation,continuation_1,10,150,0.0,1.0,64,none,nf4,13.885208,4897.297894,72.019087,,26.822453,1.931729,7,68,61,2,5,70,0.871429,0.714286,0.285714,8.714286,9.714286,216.312926,141.808712,1514.190482,992.660983
llama32_1b_to_31_8b,llama_cross,meta-llama/Llama-3.2-1B,meta-llama/Llama-3.1-8B,continuation,continuation_1,10,150,0.9,1.0,64,none,nf4,14.818822,4926.16767,67.481749,,14.194001,0.957836,14,73,59,11,3,140,0.421429,0.214286,0.785714,4.214286,5.214286,220.21772,144.249033,3083.048076,2019.486465
llama32_1b_to_31_8b,llama_cross,meta-llama/Llama-3.2-1B,meta-llama/Llama-3.1-8B,continuation,continuation_1,10,200,0.0,1.0,64,none,nf4,13.331366,4950.730559,75.011069,,22.534823,1.690361,8,66,58,4,4,80,0.725,0.5,0.5,7.25,8.25,220.797677,141.544465,1766.381419,1132.355719
llama32_1b_to_31_8b,llama_cross,meta-llama/Llama-3.2-1B,meta-llama/Llama-3.1-8B,continuation,continuation_1,10,200,0.9,1.0,64,none,nf4,13.271219,4897.816744,75.351027,,14.795218,1.114835,12,65,53,9,3,120,0.441667,0.25,0.75,4.416667,5.416667,218.40592,144.793348,2620.871042,1737.520175
llama32_1b_to_31_8b,llama_cross,meta-llama/Llama-3.2-1B,meta-llama/Llama-3.1-8B,code_completion,code_completion_0,4,50,0.0,1.0,64,none,nf4,13.463553,4902.123566,74.274599,,19.360961,1.438028,15,66,51,4,11,60,0.85,0.733333,0.266667,3.4,4.4,87.788335,137.140188,1316.825027,2057.102823
llama32_1b_to_31_8b,llama_cross,meta-llama/Llama-3.2-1B,meta-llama/Llama-3.1-8B,code_completion,code_completion_0,4,50,0.9,1.0,64,none,nf4,13.281768,4893.926767,75.291181,,19.872256,1.496206,14,65,51,3,11,56,0.910714,0.785714,0.214286,3.642857,4.642857,91.427874,139.797271,1279.990235,1957.161788
llama32_1b_to_31_8b,llama_cross,meta-llama/Llama-3.2-1B,meta-llama/Llama-3.1-8B,code_completion,code_completion_0,4,100,0.0,1.0,64,none,nf4,13.502732,4887.899764,74.059087,,19.400519,1.436785,15,66,51,4,11,60,0.85,0.733333,0.266667,3.4,4.4,87.330888,137.151928,1309.963317,2057.278925
llama32_1b_to_31_8b,llama_cross,meta-llama/Llama-3.2-1B,meta-llama/Llama-3.1-8B,code_completion,code_completion_0,4,100,0.9,1.0,64,none,nf4,14.004163,4855.698913,71.407337,,18.408391,1.314494,16,68,52,4,12,64,0.8125,0.75,0.25,3.25,4.25,89.368635,139.268669,1429.89816,2228.2987
llama32_1b_to_31_8b,llama_cross,meta-llama/Llama-3.2-1B,meta-llama/Llama-3.1-8B,code_completion,code_completion_0,4,150,0.0,1.0,64,none,nf4,13.559693,4867.36691,73.747983,,19.337605,1.426109,15,66,51,4,11,60,0.85,0.733333,0.266667,3.4,4.4,88.091447,137.11563,1321.371708,2056.734447
llama32_1b_to_31_8b,llama_cross,meta-llama/Llama-3.2-1B,meta-llama/Llama-3.1-8B,code_completion,code_completion_0,4,150,0.9,1.0,64,none,nf4,12.946624,4943.373534,77.240211,,18.323265,1.415293,15,64,49,4,11,60,0.816667,0.733333,0.266667,3.266667,4.266667,90.963086,139.606096,1364.446293,2094.091436
llama32_1b_to_31_8b,llama_cross,meta-llama/Llama-3.2-1B,meta-llama/Llama-3.1-8B,code_completion,code_completion_0,4,200,0.0,1.0,64,none,nf4,13.611938,4848.685177,73.464927,,19.441684,1.428282,15,66,51,4,11,60,0.85,0.733333,0.266667,3.4,4.4,86.92121,137.088043,1303.818154,2056.32065
llama32_1b_to_31_8b,llama_cross,meta-llama/Llama-3.2-1B,meta-llama/Llama-3.1-8B,code_completion,code_completion_0,4,200,0.9,1.0,64,none,nf4,13.578272,4860.706733,73.647072,,18.956917,1.396121,15,66,51,3,12,60,0.85,0.8,0.2,3.4,4.4,90.204886,139.637344,1353.07329,2094.560158
llama32_1b_to_31_8b,llama_cross,meta-llama/Llama-3.2-1B,meta-llama/Llama-3.1-8B,code_completion,code_completion_0,6,50,0.0,1.0,64,none,nf4,14.347168,4879.011782,69.700168,,21.42922,1.49362,12,70,58,3,9,72,0.805556,0.75,0.25,4.833333,5.833333,131.020366,138.373297,1572.244389,1660.479568
llama32_1b_to_31_8b,llama_cross,meta-llama/Llama-3.2-1B,meta-llama/Llama-3.1-8B,code_completion,code_completion_0,6,50,0.9,1.0,64,none,nf4,14.342452,4880.615954,69.723085,,22.899709,1.596638,11,70,59,2,9,66,0.893939,0.818182,0.181818,5.363636,6.363636,133.425944,141.585904,1467.685382,1557.444942
llama32_1b_to_31_8b,llama_cross,meta-llama/Llama-3.2-1B,meta-llama/Llama-3.1-8B,code_completion,code_completion_0,6,100,0.0,1.0,64,none,nf4,14.358602,4875.126472,69.644664,,21.324419,1.485132,12,70,58,3,9,72,0.805556,0.75,0.25,4.833333,5.833333,132.002953,138.75888,1584.035439,1665.106559
llama32_1b_to_31_8b,llama_cross,meta-llama/Llama-3.2-1B,meta-llama/Llama-3.1-8B,code_completion,code_completion_0,6,100,0.9,1.0,64,none,nf4,13.901487,4963.497635,71.934748,,20.845704,1.49953,12,69,57,3,9,72,0.791667,0.75,0.25,4.75,5.75,131.90959,141.234928,1582.915082,1694.819139
llama32_1b_to_31_8b,llama_cross,meta-llama/Llama-3.2-1B,meta-llama/Llama-3.1-8B,code_completion,code_completion_0,6,150,0.0,1.0,64,none,nf4,14.53373,4816.382324,68.805462,,21.529276,1.481332,12,70,58,3,9,72,0.805556,0.75,0.25,4.833333,5.833333,129.874362,138.323371,1558.49234,1659.880449
llama32_1b_to_31_8b,llama_cross,meta-llama/Llama-3.2-1B,meta-llama/Llama-3.1-8B,code_completion,code_completion_0,6,150,0.9,1.0,64,none,nf4,14.153685,4875.055409,70.652977,,20.582386,1.454207,12,69,57,3,9,72,0.791667,0.75,0.25,4.75,5.75,134.950862,141.655649,1619.410347,1699.86779
llama32_1b_to_31_8b,llama_cross,meta-llama/Llama-3.2-1B,meta-llama/Llama-3.1-8B,code_completion,code_completion_0,6,200,0.0,1.0,64,none,nf4,14.468167,4838.207828,69.117255,,21.55142,1.489575,12,70,58,3,9,72,0.805556,0.75,0.25,4.833333,5.833333,129.617257,138.300187,1555.407087,1659.602243
llama32_1b_to_31_8b,llama_cross,meta-llama/Llama-3.2-1B,meta-llama/Llama-3.1-8B,code_completion,code_completion_0,6,200,0.9,1.0,64,none,nf4,14.13789,4880.501863,70.731911,,20.723632,1.465822,12,69,57,3,9,72,0.791667,0.75,0.25,4.75,5.75,133.340565,141.402592,1600.086778,1696.831105
llama32_1b_to_31_8b,llama_cross,meta-llama/Llama-3.2-1B,meta-llama/Llama-3.1-8B,code_completion,code_completion_0,8,50,0.0,1.0,64,none,nf4,14.414901,4856.085936,69.372656,,22.163856,1.537566,10,70,60,3,7,80,0.75,0.7,0.3,6,7,172.835515,139.829729,1728.355154,1398.297288
llama32_1b_to_31_8b,llama_cross,meta-llama/Llama-3.2-1B,meta-llama/Llama-3.1-8B,code_completion,code_completion_0,8,50,0.9,1.0,64,none,nf4,14.597424,4863.871786,68.505236,,24.359846,1.668777,9,71,62,2,7,72,0.861111,0.777778,0.222222,6.888889,7.888889,176.523204,143.932255,1588.708838,1295.390298
llama32_1b_to_31_8b,llama_cross,meta-llama/Llama-3.2-1B,meta-llama/Llama-3.1-8B,code_completion,code_completion_0,8,100,0.0,1.0,64,none,nf4,14.416131,4855.671599,69.366737,,22.309695,1.547551,10,70,60,3,7,80,0.75,0.7,0.3,6,7,170.891901,139.734888,1708.91901,1397.348881
llama32_1b_to_31_8b,llama_cross,meta-llama/Llama-3.2-1B,meta-llama/Llama-3.1-8B,code_completion,code_completion_0,8,100,0.9,1.0,64,none,nf4,14.261842,4838.084792,70.117171,,21.451046,1.504087,10,69,59,3,7,80,0.7375,0.7,0.3,5.9,6.9,174.984412,143.530686,1749.844119,1435.306858
llama32_1b_to_31_8b,llama_cross,meta-llama/Llama-3.2-1B,meta-llama/Llama-3.1-8B,code_completion,code_completion_0,8,150,0.0,1.0,64,none,nf4,14.473922,4836.284334,69.089776,,22.216333,1.534921,10,70,60,3,7,80,0.75,0.7,0.3,6,7,172.038072,139.876402,1720.380721,1398.764016
llama32_1b_to_31_8b,llama_cross,meta-llama/Llama-3.2-1B,meta-llama/Llama-3.1-8B,code_completion,code_completion_0,8,150,0.9,1.0,64,none,nf4,13.973612,4937.878704,71.563459,,21.048128,1.506277,10,69,59,3,7,80,0.7375,0.7,0.3,5.9,6.9,180.40227,144.110322,1804.022704,1441.103217
llama32_1b_to_31_8b,llama_cross,meta-llama/Llama-3.2-1B,meta-llama/Llama-3.1-8B,code_completion,code_completion_0,8,200,0.0,1.0,64,none,nf4,14.531969,4816.965983,68.8138,,22.173701,1.525857,10,70,60,3,7,80,0.75,0.7,0.3,6,7,172.683838,139.849977,1726.838384,1398.499767
llama32_1b_to_31_8b,llama_cross,meta-llama/Llama-3.2-1B,meta-llama/Llama-3.1-8B,code_completion,code_completion_0,8,200,0.9,1.0,64,none,nf4,14.052028,4910.323257,71.164105,,21.315449,1.516895,10,69,59,3,7,80,0.7375,0.7,0.3,5.9,6.9,176.980681,143.57964,1769.806812,1435.796403
llama32_1b_to_31_8b,llama_cross,meta-llama/Llama-3.2-1B,meta-llama/Llama-3.1-8B,code_completion,code_completion_0,10,50,0.0,1.0,64,none,nf4,14.879988,4905.918033,67.204357,,22.237585,1.494463,9,73,64,3,6,90,0.711111,0.666667,0.333333,7.111111,8.111111,220.086437,141.020109,1980.777932,1269.18098
llama32_1b_to_31_8b,llama_cross,meta-llama/Llama-3.2-1B,meta-llama/Llama-3.1-8B,code_completion,code_completion_0,10,50,0.9,1.0,64,none,nf4,14.205156,4927.788099,70.396973,,23.599134,1.661308,8,70,62,4,4,80,0.775,0.5,0.5,7.75,8.75,221.037151,145.905134,1768.297208,1167.241071
llama32_1b_to_31_8b,llama_cross,meta-llama/Llama-3.2-1B,meta-llama/Llama-3.1-8B,code_completion,code_completion_0,10,100,0.0,1.0,64,none,nf4,14.240394,4845.371619,70.222777,,21.379303,1.501314,9,69,60,4,5,90,0.666667,0.555556,0.444444,6.666667,7.666667,214.276946,140.861407,1928.492515,1267.75266
llama32_1b_to_31_8b,llama_cross,meta-llama/Llama-3.2-1B,meta-llama/Llama-3.1-8B,code_completion,code_completion_0,10,100,0.9,1.0,64,none,nf4,14.83075,4854.777917,67.427471,,21.723601,1.464768,9,72,63,3,6,90,0.7,0.666667,0.333333,7,8,219.465272,145.326229,1975.187451,1307.93606
llama32_1b_to_31_8b,llama_cross,meta-llama/Llama-3.2-1B,meta-llama/Llama-3.1-8B,code_completion,code_completion_0,10,150,0.0,1.0,64,none,nf4,14.294554,4827.013048,69.956711,,21.097222,1.475892,9,69,60,4,5,90,0.666667,0.555556,0.444444,6.666667,7.666667,218.500408,141.292119,1966.503669,1271.629071
llama32_1b_to_31_8b,llama_cross,meta-llama/Llama-3.2-1B,meta-llama/Llama-3.1-8B,code_completion,code_completion_0,10,150,0.9,1.0,64,none,nf4,14.678234,4905.222209,68.128086,,21.554531,1.468469,9,72,63,3,6,90,0.7,0.666667,0.333333,7,8,222.019672,145.584006,1998.177048,1310.256054
llama32_1b_to_31_8b,llama_cross,meta-llama/Llama-3.2-1B,meta-llama/Llama-3.1-8B,code_completion,code_completion_0,10,200,0.0,1.0,64,none,nf4,13.983663,4934.329283,71.512019,,21.302807,1.523407,9,69,60,4,5,90,0.666667,0.555556,0.444444,6.666667,7.666667,215.549654,140.85368,1939.946886,1267.683124
llama32_1b_to_31_8b,llama_cross,meta-llama/Llama-3.2-1B,meta-llama/Llama-3.1-8B,code_completion,code_completion_0,10,200,0.9,1.0,64,none,nf4,14.713643,4961.3817,67.964133,,19.779142,1.344272,10,73,63,4,6,100,0.63,0.6,0.4,6.3,7.3,220.712257,145.048115,2207.122573,1450.481155
llama32_1b_to_31_8b,llama_cross,meta-llama/Llama-3.2-1B,meta-llama/Llama-3.1-8B,code_completion,code_completion_1,4,50,0.0,1.0,64,none,nf4,13.79555,4929.125688,72.487142,,16.590701,1.202613,18,68,50,7,11,72,0.694444,0.611111,0.388889,2.777778,3.777778,88.626857,136.770481,1595.283427,2461.868662
llama32_1b_to_31_8b,llama_cross,meta-llama/Llama-3.2-1B,meta-llama/Llama-3.1-8B,code_completion,code_completion_1,4,50,0.9,1.0,64,none,nf4,13.428078,4915.074339,74.470823,,20.254198,1.508347,14,66,52,2,12,56,0.928571,0.857143,0.142857,3.714286,4.714286,91.560396,138.858549,1281.845549,1944.019685
llama32_1b_to_31_8b,llama_cross,meta-llama/Llama-3.2-1B,meta-llama/Llama-3.1-8B,code_completion,code_completion_1,4,100,0.0,1.0,64,none,nf4,13.305232,4885.296433,75.158407,,17.963925,1.35014,16,65,49,6,10,64,0.765625,0.625,0.375,3.0625,4.0625,87.48711,136.403476,1399.793754,2182.455619
llama32_1b_to_31_8b,llama_cross,meta-llama/Llama-3.2-1B,meta-llama/Llama-3.1-8B,code_completion,code_completion_1,4,100,0.9,1.0,64,none,nf4,13.573745,4935.999462,73.671634,,17.077003,1.258091,17,67,50,5,12,68,0.735294,0.705882,0.294118,2.941176,3.941176,89.940856,138.590435,1528.994549,2356.037397
llama32_1b_to_31_8b,llama_cross,meta-llama/Llama-3.2-1B,meta-llama/Llama-3.1-8B,code_completion,code_completion_1,4,150,0.0,1.0,64,none,nf4,12.983466,4929.346406,77.021038,,18.818416,1.449414,15,64,49,4,11,60,0.816667,0.733333,0.266667,3.266667,4.266667,87.819314,136.625777,1317.289707,2049.386658
llama32_1b_to_31_8b,llama_cross,meta-llama/Llama-3.2-1B,meta-llama/Llama-3.1-8B,code_completion,code_completion_1,4,150,0.9,1.0,64,none,nf4,13.536767,4949.483013,73.872881,,17.057763,1.260106,17,67,50,5,12,68,0.735294,0.705882,0.294118,2.941176,3.941176,90.21966,138.6149,1533.734218,2356.453301
llama32_1b_to_31_8b,llama_cross,meta-llama/Llama-3.2-1B,meta-llama/Llama-3.1-8B,code_completion,code_completion_1,4,200,0.0,1.0,64,none,nf4,13.6397,4912.131528,73.315396,,19.757744,1.448547,15,67,52,3,12,60,0.866667,0.8,0.2,3.466667,4.466667,87.144115,136.590281,1307.161726,2048.854214
llama32_1b_to_31_8b,llama_cross,meta-llama/Llama-3.2-1B,meta-llama/Llama-3.1-8B,code_completion,code_completion_1,4,200,0.9,1.0,64,none,nf4,13.788795,4859.01772,72.522653,,17.225068,1.249208,17,67,50,5,12,68,0.735294,0.705882,0.294118,2.941176,3.941176,88.317746,138.350637,1501.401675,2351.960836
llama32_1b_to_31_8b,llama_cross,meta-llama/Llama-3.2-1B,meta-llama/Llama-3.1-8B,code_completion,code_completion_1,6,50,0.0,1.0,64,none,nf4,13.258955,4826.926374,75.420725,,18.291331,1.379545,13,64,51,6,7,78,0.653846,0.538462,0.461538,3.923077,4.923077,129.208791,137.366444,1679.714283,1785.763778
llama32_1b_to_31_8b,llama_cross,meta-llama/Llama-3.2-1B,meta-llama/Llama-3.1-8B,code_completion,code_completion_1,6,50,0.9,1.0,64,none,nf4,13.837156,4842.035395,72.269185,,22.117586,1.59842,11,67,56,2,9,66,0.848485,0.818182,0.181818,5.090909,6.090909,132.083303,140.508213,1452.916336,1545.590344
llama32_1b_to_31_8b,llama_cross,meta-llama/Llama-3.2-1B,meta-llama/Llama-3.1-8B,code_completion,code_completion_1,6,100,0.0,1.0,64,none,nf4,14.075757,4831.001366,71.044138,,21.12279,1.50065,12,68,56,3,9,72,0.777778,0.75,0.25,4.666667,5.666667,128.337034,137.265862,1540.044406,1647.190346
llama32_1b_to_31_8b,llama_cross,meta-llama/Llama-3.2-1B,meta-llama/Llama-3.1-8B,code_completion,code_completion_1,6,100,0.9,1.0,64,none,nf4,13.909729,4960.556606,71.892125,,18.02096,1.295565,14,69,55,7,7,84,0.654762,0.5,0.5,3.928571,4.928571,130.77948,140.120549,1830.912726,1961.687683
llama32_1b_to_31_8b,llama_cross,meta-llama/Llama-3.2-1B,meta-llama/Llama-3.1-8B,code_completion,code_completion_1,6,150,0.0,1.0,64,none,nf4,13.417074,4844.573361,74.531898,,20.065839,1.495545,12,65,53,4,8,72,0.736111,0.666667,0.333333,4.416667,5.416667,129.79426,137.472271,1557.531114,1649.66725
llama32_1b_to_31_8b,llama_cross,meta-llama/Llama-3.2-1B,meta-llama/Llama-3.1-8B,code_completion,code_completion_1,6,150,0.9,1.0,64,none,nf4,14.205878,4857.144218,70.393394,,18.051712,1.270721,14,69,55,7,7,84,0.654762,0.5,0.5,3.928571,4.928571,130.620751,139.841659,1828.690515,1957.783231
llama32_1b_to_31_8b,llama_cross,meta-llama/Llama-3.2-1B,meta-llama/Llama-3.1-8B,code_completion,code_completion_1,6,200,0.0,1.0,64,none,nf4,14.039395,4843.513635,71.228142,,25.226224,1.796817,10,68,58,1,9,60,0.966667,0.9,0.1,5.8,6.8,128.801415,137.824774,1288.014149,1378.24774
llama32_1b_to_31_8b,llama_cross,meta-llama/Llama-3.2-1B,meta-llama/Llama-3.1-8B,code_completion,code_completion_1,6,200,0.9,1.0,64,none,nf4,14.258359,4839.266707,70.1343,,15.785655,1.107116,16,69,53,9,7,96,0.552083,0.4375,0.5625,3.3125,4.3125,130.976565,139.794761,2095.625043,2236.716174
llama32_1b_to_31_8b,llama_cross,meta-llama/Llama-3.2-1B,meta-llama/Llama-3.1-8B,code_completion,code_completion_1,8,50,0.0,1.0,64,none,nf4,13.908728,4889.016376,71.8973,,21.582511,1.551724,10,68,58,3,7,80,0.725,0.7,0.3,5.8,6.8,173.041115,138.857441,1730.411147,1388.574408
llama32_1b_to_31_8b,llama_cross,meta-llama/Llama-3.2-1B,meta-llama/Llama-3.1-8B,code_completion,code_completion_1,8,50,0.9,1.0,64,none,nf4,14.477987,4903.996697,69.070376,,24.456026,1.689187,9,71,62,2,7,72,0.861111,0.777778,0.222222,6.888889,7.888889,176.548878,142.610849,1588.939902,1283.49764
llama32_1b_to_31_8b,llama_cross,meta-llama/Llama-3.2-1B,meta-llama/Llama-3.1-8B,code_completion,code_completion_1,8,100,0.0,1.0,64,none,nf4,14.43992,4916.924582,69.252459,,20.46887,1.41752,11,71,60,4,7,88,0.681818,0.636364,0.363636,5.454545,6.454545,173.512058,138.743185,1908.632637,1526.175039
llama32_1b_to_31_8b,llama_cross,meta-llama/Llama-3.2-1B,meta-llama/Llama-3.1-8B,code_completion,code_completion_1,8,100,0.9,1.0,64,none,nf4,13.644376,4910.448246,73.290272,,17.27222,1.265886,12,67,55,6,6,96,0.572917,0.5,0.5,4.583333,5.583333,178.41834,142.007062,2141.020085,1704.084738
llama32_1b_to_31_8b,llama_cross,meta-llama/Llama-3.2-1B,meta-llama/Llama-3.1-8B,code_completion,code_completion_1,8,150,0.0,1.0,64,none,nf4,14.514332,4891.716847,68.89742,,20.459937,1.409637,11,71,60,4,7,88,0.681818,0.636364,0.363636,5.454545,6.454545,173.794028,138.606789,1911.734308,1524.674684
llama32_1b_to_31_8b,llama_cross,meta-llama/Llama-3.2-1B,meta-llama/Llama-3.1-8B,code_completion,code_completion_1,8,150,0.9,1.0,64,none,nf4,13.69851,4891.042789,73.000639,,17.299191,1.262852,12,67,55,6,6,96,0.572917,0.5,0.5,4.583333,5.583333,177.888967,141.976661,2134.667606,1703.719935
llama32_1b_to_31_8b,llama_cross,meta-llama/Llama-3.2-1B,meta-llama/Llama-3.1-8B,code_completion,code_completion_1,8,200,0.0,1.0,64,none,nf4,13.145636,4944.606719,76.070873,,20.639238,1.570045,10,65,55,4,6,80,0.6875,0.6,0.4,5.5,6.5,173.132053,138.742603,1731.320526,1387.426031
llama32_1b_to_31_8b,llama_cross,meta-llama/Llama-3.2-1B,meta-llama/Llama-3.1-8B,code_completion,code_completion_1,8,200,0.9,1.0,64,none,nf4,13.626895,4916.74738,73.384289,,17.34091,1.27255,12,67,55,6,6,96,0.572917,0.5,0.5,4.583333,5.583333,177.093288,142.002813,2125.119456,1704.033755
llama32_1b_to_31_8b,llama_cross,meta-llama/Llama-3.2-1B,meta-llama/Llama-3.1-8B,code_completion,code_completion_1,10,50,0.0,1.0,64,none,nf4,14.481412,4902.836858,69.05404,,22.140584,1.528897,9,71,62,3,6,90,0.688889,0.666667,0.333333,6.888889,7.888889,213.353037,139.542575,1920.17733,1255.883175
llama32_1b_to_31_8b,llama_cross,meta-llama/Llama-3.2-1B,meta-llama/Llama-3.1-8B,code_completion,code_completion_1,10,50,0.9,1.0,64,none,nf4,13.337004,4873.658137,74.979356,,19.434015,1.45715,9,65,56,6,3,90,0.622222,0.333333,0.666667,6.222222,7.222222,223.898315,144.20847,2015.084834,1297.876233
llama32_1b_to_31_8b,llama_cross,meta-llama/Llama-3.2-1B,meta-llama/Llama-3.1-8B,code_completion,code_completion_1,10,100,0.0,1.0,64,none,nf4,14.297974,4965.738379,69.939977,,22.05199,1.542316,9,71,62,3,6,90,0.688889,0.666667,0.333333,6.888889,7.888889,214.743568,139.527518,1932.692115,1255.74766
llama32_1b_to_31_8b,llama_cross,meta-llama/Llama-3.2-1B,meta-llama/Llama-3.1-8B,code_completion,code_completion_1,10,100,0.9,1.0,64,none,nf4,13.912127,4959.701738,71.879735,,15.694348,1.128106,12,69,57,9,3,120,0.475,0.25,0.75,4.75,5.75,220.012599,143.294444,2640.151184,1719.533328
llama32_1b_to_31_8b,llama_cross,meta-llama/Llama-3.2-1B,meta-llama/Llama-3.1-8B,code_completion,code_completion_1,10,150,0.0,1.0,64,none,nf4,14.701472,4829.448378,68.0204,,22.129985,1.50529,9,71,62,3,6,90,0.688889,0.666667,0.333333,6.888889,7.888889,213.553667,139.482714,1921.983002,1255.344428
llama32_1b_to_31_8b,llama_cross,meta-llama/Llama-3.2-1B,meta-llama/Llama-3.1-8B,code_completion,code_completion_1,10,150,0.9,1.0,64,none,nf4,14.16027,4872.788549,70.620124,,15.914012,1.123849,12,69,57,9,3,120,0.475,0.25,0.75,4.75,5.75,215.42109,142.90162,2585.053081,1714.819437
llama32_1b_to_31_8b,llama_cross,meta-llama/Llama-3.2-1B,meta-llama/Llama-3.1-8B,code_completion,code_completion_1,10,200,0.0,1.0,64,none,nf4,13.609176,4849.668975,73.479833,,26.293406,1.932035,7,66,59,2,5,70,0.842857,0.714286,0.285714,8.428571,9.428571,214.758812,139.942062,1503.311687,979.594431
llama32_1b_to_31_8b,llama_cross,meta-llama/Llama-3.2-1B,meta-llama/Llama-3.1-8B,code_completion,code_completion_1,10,200,0.9,1.0,64,none,nf4,14.074314,4902.547991,71.05142,,15.721004,1.117,12,69,57,9,3,120,0.475,0.25,0.75,4.75,5.75,219.258927,143.347461,2631.107123,1720.169533
llama32_1b_to_31_8b,llama_cross,meta-llama/Llama-3.2-1B,meta-llama/Llama-3.1-8B,structured_extraction,structured_extraction_0,4,50,0.0,1.0,64,none,nf4,13.089467,4965.824815,76.397305,,21.782577,1.66413,13,65,52,0,13,52,1.0,1.0,0.0,4,5,89.815584,137.360168,1167.602588,1785.682184
llama32_1b_to_31_8b,llama_cross,meta-llama/Llama-3.2-1B,meta-llama/Llama-3.1-8B,structured_extraction,structured_extraction_0,4,50,0.9,1.0,64,none,nf4,13.453516,4980.110772,74.330012,,20.609717,1.531921,14,67,53,1,13,56,0.946429,0.928571,0.071429,3.785714,4.785714,90.370614,139.528802,1265.188593,1953.403228
llama32_1b_to_31_8b,llama_cross,meta-llama/Llama-3.2-1B,meta-llama/Llama-3.1-8B,structured_extraction,structured_extraction_0,4,100,0.0,1.0,64,none,nf4,13.169325,4935.712387,75.934037,,21.761672,1.652452,13,65,52,0,13,52,1.0,1.0,0.0,4,5,89.999778,137.371785,1169.997116,1785.833206
llama32_1b_to_31_8b,llama_cross,meta-llama/Llama-3.2-1B,meta-llama/Llama-3.1-8B,structured_extraction,structured_extraction_0,4,100,0.9,1.0,64,none,nf4,13.225931,4914.587768,75.609043,,20.065951,1.517167,14,65,51,2,12,56,0.910714,0.857143,0.142857,3.642857,4.642857,89.632621,139.457921,1254.856692,1952.410899
llama32_1b_to_31_8b,llama_cross,meta-llama/Llama-3.2-1B,meta-llama/Llama-3.1-8B,structured_extraction,structured_extraction_0,4,150,0.0,1.0,64,none,nf4,13.477724,4822.772797,74.196505,,22.024701,1.634156,13,65,52,0,13,52,1.0,1.0,0.0,4,5,87.484622,137.216933,1137.300082,1783.820124
llama32_1b_to_31_8b,llama_cross,meta-llama/Llama-3.2-1B,meta-llama/Llama-3.1-8B,structured_extraction,structured_extraction_0,4,150,0.9,1.0,64,none,nf4,13.214552,4843.14573,75.674152,,18.427396,1.394478,15,64,49,5,10,60,0.816667,0.666667,0.333333,3.266667,4.266667,89.874835,139.370479,1348.122519,2090.557184
llama32_1b_to_31_8b,llama_cross,meta-llama/Llama-3.2-1B,meta-llama/Llama-3.1-8B,structured_extraction,structured_extraction_0,4,200,0.0,1.0,64,none,nf4,13.531894,4951.265411,73.899484,,20.707703,1.530289,14,67,53,1,13,56,0.946429,0.928571,0.071429,3.785714,4.785714,91.316237,137.300291,1278.427319,1922.204073
llama32_1b_to_31_8b,llama_cross,meta-llama/Llama-3.2-1B,meta-llama/Llama-3.1-8B,structured_extraction,structured_extraction_0,4,200,0.9,1.0,64,none,nf4,12.965458,4936.192915,77.128014,,17.244156,1.330008,16,64,48,9,7,64,0.75,0.4375,0.5625,3,4,90.278184,139.307222,1444.450943,2228.915551
llama32_1b_to_31_8b,llama_cross,meta-llama/Llama-3.2-1B,meta-llama/Llama-3.1-8B,structured_extraction,structured_extraction_0,6,50,0.0,1.0,64,none,nf4,14.232187,4848.165646,70.26327,,18.195808,1.278497,14,69,55,6,8,84,0.654762,0.571429,0.428571,3.928571,4.928571,130.22459,138.020627,1823.144258,1932.288772
llama32_1b_to_31_8b,llama_cross,meta-llama/Llama-3.2-1B,meta-llama/Llama-3.1-8B,structured_extraction,structured_extraction_0,6,50,0.9,1.0,64,none,nf4,13.168812,4935.904557,75.936993,,16.672925,1.266092,14,65,51,6,8,84,0.607143,0.571429,0.428571,3.642857,4.642857,134.939674,141.014969,1889.155442,1974.209564
llama32_1b_to_31_8b,llama_cross,meta-llama/Llama-3.2-1B,meta-llama/Llama-3.1-8B,structured_extraction,structured_extraction_0,6,100,0.0,1.0,64,none,nf4,12.95676,4939.506323,77.179786,,23.373173,1.803936,10,64,54,2,8,60,0.9,0.8,0.2,5.4,6.4,132.345932,138.528793,1323.459325,1385.287931
llama32_1b_to_31_8b,llama_cross,meta-llama/Llama-3.2-1B,meta-llama/Llama-3.1-8B,structured_extraction,structured_extraction_0,6,100,0.9,1.0,64,none,nf4,13.041526,4984.079316,76.678143,,16.811562,1.289079,14,65,51,7,7,84,0.607143,0.5,0.5,3.642857,4.642857,132.79194,140.866504,1859.087164,1972.131052
llama32_1b_to_31_8b,llama_cross,meta-llama/Llama-3.2-1B,meta-llama/Llama-3.1-8B,structured_extraction,structured_extraction_0,6,150,0.0,1.0,64,none,nf4,13.552296,4870.023343,73.788232,,18.765232,1.384653,13,66,53,7,6,78,0.679487,0.461538,0.538462,4.076923,5.076923,129.817266,138.064887,1687.624458,1794.843525
llama32_1b_to_31_8b,llama_cross,meta-llama/Llama-3.2-1B,meta-llama/Llama-3.1-8B,structured_extraction,structured_extraction_0,6,150,0.9,1.0,64,none,nf4,13.443283,4835.128498,74.386592,,16.919322,1.258571,14,65,51,7,7,84,0.607143,0.5,0.5,3.642857,4.642857,131.063418,140.838614,1834.887846,1971.740592
llama32_1b_to_31_8b,llama_cross,meta-llama/Llama-3.2-1B,meta-llama/Llama-3.1-8B,structured_extraction,structured_extraction_0,6,200,0.0,1.0,64,none,nf4,13.326698,4802.390026,75.037344,,23.601041,1.770959,10,64,54,1,9,60,0.9,0.9,0.1,5.4,6.4,129.756168,138.599822,1297.56168,1385.998217
llama32_1b_to_31_8b,llama_cross,meta-llama/Llama-3.2-1B,meta-llama/Llama-3.1-8B,structured_extraction,structured_extraction_0,6,200,0.9,1.0,64,none,nf4,14.379227,4868.133834,69.544769,,16.758695,1.16548,15,70,55,6,9,90,0.611111,0.6,0.4,3.666667,4.666667,134.977911,141.008977,2024.668668,2115.134649
llama32_1b_to_31_8b,llama_cross,meta-llama/Llama-3.2-1B,meta-llama/Llama-3.1-8B,structured_extraction,structured_extraction_0,8,50,0.0,1.0,64,none,nf4,13.705512,4888.544221,72.963347,,21.108871,1.540174,10,67,57,4,6,80,0.7125,0.6,0.4,5.7,6.7,174.993091,139.32104,1749.930912,1393.210398
llama32_1b_to_31_8b,llama_cross,meta-llama/Llama-3.2-1B,meta-llama/Llama-3.1-8B,structured_extraction,structured_extraction_0,8,50,0.9,1.0,64,none,nf4,13.643498,4837.469202,73.294988,,20.549555,1.506179,10,66,56,4,6,80,0.7,0.6,0.4,5.6,6.6,174.984779,143.099859,1749.847792,1430.998587
llama32_1b_to_31_8b,llama_cross,meta-llama/Llama-3.2-1B,meta-llama/Llama-3.1-8B,structured_extraction,structured_extraction_0,8,100,0.0,1.0,64,none,nf4,14.316717,4819.540704,69.848416,,22.076612,1.542016,10,69,59,4,6,80,0.7375,0.6,0.4,5.9,6.9,170.121035,139.250142,1701.210348,1392.501424
llama32_1b_to_31_8b,llama_cross,meta-llama/Llama-3.2-1B,meta-llama/Llama-3.1-8B,structured_extraction,structured_extraction_0,8,100,0.9,1.0,64,none,nf4,13.151265,4866.452139,76.038315,,22.127114,1.682508,9,64,55,3,6,72,0.763889,0.666667,0.333333,6.111111,7.111111,174.872604,143.355869,1573.853437,1290.202819
llama32_1b_to_31_8b,llama_cross,meta-llama/Llama-3.2-1B,meta-llama/Llama-3.1-8B,structured_extraction,structured_extraction_0,8,150,0.0,1.0,64,none,nf4,13.835444,4842.634621,72.278129,,26.553262,1.91922,8,67,59,2,6,64,0.921875,0.75,0.25,7.375,8.375,171.988524,139.838892,1375.908188,1118.711136
llama32_1b_to_31_8b,llama_cross,meta-llama/Llama-3.2-1B,meta-llama/Llama-3.1-8B,structured_extraction,structured_extraction_0,8,150,0.9,1.0,64,none,nf4,13.239632,4833.971253,75.530801,,22.143129,1.672488,9,64,55,3,6,72,0.763889,0.666667,0.333333,6.111111,7.111111,174.554685,143.403008,1570.992163,1290.62707
llama32_1b_to_31_8b,llama_cross,meta-llama/Llama-3.2-1B,meta-llama/Llama-3.1-8B,structured_extraction,structured_extraction_0,8,200,0.0,1.0,64,none,nf4,13.853456,4836.338197,72.184152,,26.205268,1.891605,8,67,59,2,6,64,0.921875,0.75,0.25,7.375,8.375,176.156706,139.886761,1409.253651,1119.09409
llama32_1b_to_31_8b,llama_cross,meta-llama/Llama-3.2-1B,meta-llama/Llama-3.1-8B,structured_extraction,structured_extraction_0,8,200,0.9,1.0,64,none,nf4,13.315697,4881.45678,75.099335,,24.672313,1.852874,8,65,57,2,6,64,0.890625,0.75,0.25,7.125,8.125,181.343032,144.314139,1450.744259,1154.513109
llama32_1b_to_31_8b,llama_cross,meta-llama/Llama-3.2-1B,meta-llama/Llama-3.1-8B,structured_extraction,structured_extraction_0,10,50,0.0,1.0,64,none,nf4,14.008722,4925.502798,71.384099,,21.123256,1.507865,9,69,60,4,5,90,0.666667,0.555556,0.444444,6.666667,7.666667,218.499903,140.921907,1966.49913,1268.297167
llama32_1b_to_31_8b,llama_cross,meta-llama/Llama-3.2-1B,meta-llama/Llama-3.1-8B,structured_extraction,structured_extraction_0,10,50,0.9,1.0,64,none,nf4,13.136155,4872.049652,76.125776,,24.78428,1.886723,7,64,57,2,5,70,0.814286,0.714286,0.285714,8.142857,9.142857,218.938736,146.184266,1532.571152,1023.289865
llama32_1b_to_31_8b,llama_cross,meta-llama/Llama-3.2-1B,meta-llama/Llama-3.1-8B,structured_extraction,structured_extraction_0,10,100,0.0,1.0,64,none,nf4,13.306665,4809.619726,75.150308,,29.629614,2.226675,6,64,58,1,5,60,0.966667,0.833333,0.166667,9.666667,10.666667,214.043716,141.759434,1284.262297,850.556605
llama32_1b_to_31_8b,llama_cross,meta-llama/Llama-3.2-1B,meta-llama/Llama-3.1-8B,structured_extraction,structured_extraction_0,10,100,0.9,1.0,64,none,nf4,14.837895,4852.440442,67.395006,,21.858147,1.47313,9,72,63,5,4,90,0.7,0.444444,0.555556,7,8,217.305572,145.117332,1955.750151,1306.055989
llama32_1b_to_31_8b,llama_cross,meta-llama/Llama-3.2-1B,meta-llama/Llama-3.1-8B,structured_extraction,structured_extraction_0,10,150,0.0,1.0,64,none,nf4,13.542107,4873.687695,73.843753,,30.26611,2.234963,6,66,60,0,6,60,1.0,1.0,0.0,10,11,216.963697,142.205216,1301.782182,853.231295
llama32_1b_to_31_8b,llama_cross,meta-llama/Llama-3.2-1B,meta-llama/Llama-3.1-8B,structured_extraction,structured_extraction_0,10,150,0.9,1.0,64,none,nf4,13.184911,4929.87787,75.844275,,19.458856,1.475843,9,65,56,5,4,90,0.622222,0.444444,0.555556,6.222222,7.222222,222.260763,145.509956,2000.346866,1309.589608
llama32_1b_to_31_8b,llama_cross,meta-llama/Llama-3.2-1B,meta-llama/Llama-3.1-8B,structured_extraction,structured_extraction_0,10,200,0.0,1.0,64,none,nf4,13.489124,4892.830574,74.133797,,29.940185,2.21958,6,66,60,0,6,60,1.0,1.0,0.0,10,11,220.150887,142.792291,1320.905322,856.753744
llama32_1b_to_31_8b,llama_cross,meta-llama/Llama-3.2-1B,meta-llama/Llama-3.1-8B,structured_extraction,structured_extraction_0,10,200,0.9,1.0,64,none,nf4,15.085047,4905.520067,66.290812,,22.245363,1.474663,9,74,65,3,6,90,0.722222,0.666667,0.333333,7.222222,8.222222,220.493315,145.502347,1984.439832,1309.521125
llama32_1b_to_31_8b,llama_cross,meta-llama/Llama-3.2-1B,meta-llama/Llama-3.1-8B,structured_extraction,structured_extraction_1,4,50,0.0,1.0,64,none,nf4,13.491314,4892.036476,74.121765,,20.555287,1.523594,14,66,52,1,13,56,0.928571,0.928571,0.071429,3.714286,4.714286,89.555719,137.397831,1253.780063,1923.569637
llama32_1b_to_31_8b,llama_cross,meta-llama/Llama-3.2-1B,meta-llama/Llama-3.1-8B,structured_extraction,structured_extraction_1,4,50,0.9,1.0,64,none,nf4,13.164192,4937.636902,75.963645,,14.752305,1.120639,19,65,46,10,9,76,0.605263,0.473684,0.526316,2.421053,3.421053,90.703942,139.048716,1723.374902,2641.925595
llama32_1b_to_31_8b,llama_cross,meta-llama/Llama-3.2-1B,meta-llama/Llama-3.1-8B,structured_extraction,structured_extraction_1,4,100,0.0,1.0,64,none,nf4,13.368806,4862.064707,74.800995,,17.91305,1.339914,16,65,49,4,12,64,0.765625,0.75,0.25,3.0625,4.0625,87.581488,137.029018,1401.303811,2192.464281
llama32_1b_to_31_8b,llama_cross,meta-llama/Llama-3.2-1B,meta-llama/Llama-3.1-8B,structured_extraction,structured_extraction_1,4,100,0.9,1.0,64,none,nf4,14.022435,4849.371765,71.314291,,15.598723,1.112412,19,68,49,8,11,76,0.644737,0.578947,0.421053,2.578947,3.578947,88.40083,138.936355,1679.615775,2639.79075
llama32_1b_to_31_8b,llama_cross,meta-llama/Llama-3.2-1B,meta-llama/Llama-3.1-8B,structured_extraction,structured_extraction_1,4,150,0.0,1.0,64,none,nf4,13.500013,4814.810286,74.074004,,20.442439,1.514253,14,65,51,3,11,56,0.910714,0.785714,0.214286,3.642857,4.642857,87.49871,137.269858,1224.981945,1921.778007
llama32_1b_to_31_8b,llama_cross,meta-llama/Llama-3.2-1B,meta-llama/Llama-3.1-8B,structured_extraction,structured_extraction_1,4,150,0.9,1.0,64,none,nf4,13.523672,4954.275555,73.944411,,19.168561,1.417408,15,67,52,4,11,60,0.866667,0.733333,0.266667,3.466667,4.466667,91.173958,139.53941,1367.609371,2093.091148
llama32_1b_to_31_8b,llama_cross,meta-llama/Llama-3.2-1B,meta-llama/Llama-3.1-8B,structured_extraction,structured_extraction_1,4,200,0.0,1.0,64,none,nf4,13.196588,4925.515741,75.777165,,21.816099,1.653162,13,65,52,0,13,52,1.0,1.0,0.0,4,5,89.460342,137.39465,1162.98445,1786.130452
llama32_1b_to_31_8b,llama_cross,meta-llama/Llama-3.2-1B,meta-llama/Llama-3.1-8B,structured_extraction,structured_extraction_1,4,200,0.9,1.0,64,none,nf4,13.682933,4896.610941,73.083745,,19.194998,1.402842,15,67,52,4,11,60,0.866667,0.733333,0.266667,3.466667,4.466667,90.766271,139.597345,1361.49407,2093.960171
llama32_1b_to_31_8b,llama_cross,meta-llama/Llama-3.2-1B,meta-llama/Llama-3.1-8B,structured_extraction,structured_extraction_1,6,50,0.0,1.0,64,none,nf4,13.364893,4863.488392,74.822898,,19.913201,1.489963,12,65,53,5,7,72,0.736111,0.583333,0.416667,4.416667,5.416667,130.470945,138.828177,1565.651339,1665.938123
llama32_1b_to_31_8b,llama_cross,meta-llama/Llama-3.2-1B,meta-llama/Llama-3.1-8B,structured_extraction,structured_extraction_1,6,50,0.9,1.0,64,none,nf4,13.642001,4911.302869,73.303028,,21.770836,1.595868,11,67,56,3,8,66,0.848485,0.727273,0.272727,5.090909,6.090909,134.736203,142.191795,1482.098234,1564.109741
llama32_1b_to_31_8b,llama_cross,meta-llama/Llama-3.2-1B,meta-llama/Llama-3.1-8B,structured_extraction,structured_extraction_1,6,100,0.0,1.0,64,none,nf4,13.144383,4945.078087,76.078124,,19.889831,1.513181,12,65,53,5,7,72,0.736111,0.583333,0.416667,4.416667,5.416667,130.945628,138.692422,1571.347534,1664.309066
llama32_1b_to_31_8b,llama_cross,meta-llama/Llama-3.2-1B,meta-llama/Llama-3.1-8B,structured_extraction,structured_extraction_1,6,100,0.9,1.0,64,none,nf4,14.146273,4948.299756,70.689997,,22.555098,1.59442,11,70,59,2,9,66,0.893939,0.818182,0.181818,5.363636,6.363636,137.045925,142.182805,1507.505174,1564.010855
llama32_1b_to_31_8b,llama_cross,meta-llama/Llama-3.2-1B,meta-llama/Llama-3.1-8B,structured_extraction,structured_extraction_1,6,150,0.0,1.0,64,none,nf4,13.826935,4917.93734,72.322608,,24.90092,1.8009,10,68,58,1,9,60,0.966667,0.9,0.1,5.8,6.8,131.060816,139.063078,1310.608163,1390.630776
llama32_1b_to_31_8b,llama_cross,meta-llama/Llama-3.2-1B,meta-llama/Llama-3.1-8B,structured_extraction,structured_extraction_1,6,150,0.9,1.0,64,none,nf4,14.154367,4945.470324,70.649576,,22.919963,1.619286,11,70,59,2,9,66,0.893939,0.818182,0.181818,5.363636,6.363636,132.843809,141.974605,1461.281903,1561.720658
llama32_1b_to_31_8b,llama_cross,meta-llama/Llama-3.2-1B,meta-llama/Llama-3.1-8B,structured_extraction,structured_extraction_1,6,200,0.0,1.0,64,none,nf4,13.920358,4813.09448,71.837231,,24.549335,1.763556,10,67,57,2,8,60,0.95,0.8,0.2,5.7,6.7,130.666743,139.221201,1306.667428,1392.212005
llama32_1b_to_31_8b,llama_cross,meta-llama/Llama-3.2-1B,meta-llama/Llama-3.1-8B,structured_extraction,structured_extraction_1,6,200,0.9,1.0,64,none,nf4,14.265528,4906.933637,70.099052,,22.314772,1.564244,11,70,59,2,9,66,0.893939,0.818182,0.181818,5.363636,6.363636,139.8987,142.336454,1538.885703,1565.700993
llama32_1b_to_31_8b,llama_cross,meta-llama/Llama-3.2-1B,meta-llama/Llama-3.1-8B,structured_extraction,structured_extraction_1,8,50,0.0,1.0,64,none,nf4,13.430572,4914.161547,74.456993,,15.99794,1.191159,13,66,53,9,4,104,0.509615,0.307692,0.692308,4.076923,5.076923,174.874405,139.561992,2273.367269,1814.305899
llama32_1b_to_31_8b,llama_cross,meta-llama/Llama-3.2-1B,meta-llama/Llama-3.1-8B,structured_extraction,structured_extraction_1,8,50,0.9,1.0,64,none,nf4,13.011307,4918.798687,76.856229,,15.086132,1.159463,13,64,51,10,3,104,0.490385,0.230769,0.769231,3.923077,4.923077,180.122682,143.304803,2341.594869,1862.962441
llama32_1b_to_31_8b,llama_cross,meta-llama/Llama-3.2-1B,meta-llama/Llama-3.1-8B,structured_extraction,structured_extraction_1,8,100,0.0,1.0,64,none,nf4,14.858316,4845.771275,67.302379,,28.330992,1.906743,8,72,64,0,8,64,1.0,1.0,0.0,8,9,173.612596,140.478859,1388.90077,1123.830869
llama32_1b_to_31_8b,llama_cross,meta-llama/Llama-3.2-1B,meta-llama/Llama-3.1-8B,structured_extraction,structured_extraction_1,8,100,0.9,1.0,64,none,nf4,13.50354,4887.607276,74.054656,,20.378634,1.509133,10,66,56,5,5,80,0.7,0.5,0.5,5.6,6.6,176.831753,143.883689,1768.317532,1438.836894
llama32_1b_to_31_8b,llama_cross,meta-llama/Llama-3.2-1B,meta-llama/Llama-3.1-8B,structured_extraction,structured_extraction_1,8,150,0.0,1.0,64,none,nf4,14.661184,4910.926566,68.207313,,25.231969,1.721005,9,72,63,2,7,72,0.875,0.777778,0.222222,7,8,173.322284,140.302908,1559.900558,1262.726174
llama32_1b_to_31_8b,llama_cross,meta-llama/Llama-3.2-1B,meta-llama/Llama-3.1-8B,structured_extraction,structured_extraction_1,8,150,0.9,1.0,64,none,nf4,13.661246,4904.38418,73.199764,,20.593261,1.507422,10,67,57,5,5,80,0.7125,0.5,0.5,5.7,6.7,178.205498,143.941198,1782.054978,1439.411983
llama32_1b_to_31_8b,llama_cross,meta-llama/Llama-3.2-1B,meta-llama/Llama-3.1-8B,structured_extraction,structured_extraction_1,8,200,0.0,1.0,64,none,nf4,13.345458,4870.57086,74.931859,,25.537486,1.913571,8,65,57,2,6,64,0.890625,0.75,0.25,7.125,8.125,173.920543,140.719459,1391.364346,1125.755672
llama32_1b_to_31_8b,llama_cross,meta-llama/Llama-3.2-1B,meta-llama/Llama-3.1-8B,structured_extraction,structured_extraction_1,8,200,0.9,1.0,64,none,nf4,14.034903,4845.063635,71.250936,,19.288927,1.374354,11,68,57,5,6,88,0.647727,0.545455,0.454545,5.181818,6.181818,174.177789,143.328746,1915.955677,1576.61621
llama32_1b_to_31_8b,llama_cross,meta-llama/Llama-3.2-1B,meta-llama/Llama-3.1-8B,structured_extraction,structured_extraction_1,10,50,0.0,1.0,64,none,nf4,13.941346,4805.848769,71.729086,,26.528979,1.902899,7,67,60,3,4,70,0.857143,0.571429,0.428571,8.571429,9.571429,215.124214,141.677787,1505.869496,991.744507
llama32_1b_to_31_8b,llama_cross,meta-llama/Llama-3.2-1B,meta-llama/Llama-3.1-8B,structured_extraction,structured_extraction_1,10,50,0.9,1.0,64,none,nf4,15.314734,4831.948122,65.296596,,20.128076,1.314295,10,74,64,5,5,100,0.64,0.5,0.5,6.4,7.4,219.110553,145.15527,2191.105531,1451.552698
llama32_1b_to_31_8b,llama_cross,meta-llama/Llama-3.2-1B,meta-llama/Llama-3.1-8B,structured_extraction,structured_extraction_1,10,100,0.0,1.0,64,none,nf4,14.463579,4839.742506,69.139179,,27.849057,1.925461,7,70,63,1,6,70,0.9,0.857143,0.142857,9,10,213.538381,141.587978,1494.768666,991.115844
llama32_1b_to_31_8b,llama_cross,meta-llama/Llama-3.2-1B,meta-llama/Llama-3.1-8B,structured_extraction,structured_extraction_1,10,100,0.9,1.0,64,none,nf4,14.69171,4832.657427,68.065598,,19.39706,1.320272,10,71,61,6,4,100,0.61,0.4,0.6,6.1,7.1,217.638334,145.071684,2176.383341,1450.716843
llama32_1b_to_31_8b,llama_cross,meta-llama/Llama-3.2-1B,meta-llama/Llama-3.1-8B,structured_extraction,structured_extraction_1,10,150,0.0,1.0,64,none,nf4,14.729892,4820.130448,67.889161,,28.179069,1.913053,7,71,64,1,6,70,0.914286,0.857143,0.142857,9.142857,10.142857,214.264828,141.685241,1499.853795,991.796688
llama32_1b_to_31_8b,llama_cross,meta-llama/Llama-3.2-1B,meta-llama/Llama-3.1-8B,structured_extraction,structured_extraction_1,10,150,0.9,1.0,64,none,nf4,14.633019,4852.040378,68.338597,,19.476473,1.330995,10,71,61,6,4,100,0.61,0.4,0.6,6.1,7.1,216.336928,144.909698,2163.369277,1449.096976
llama32_1b_to_31_8b,llama_cross,meta-llama/Llama-3.2-1B,meta-llama/Llama-3.1-8B,structured_extraction,structured_extraction_1,10,200,0.0,1.0,64,none,nf4,13.416507,4919.313157,74.535048,,25.809132,1.923685,7,66,59,2,5,70,0.842857,0.714286,0.285714,8.428571,9.428571,219.150867,142.093918,1534.056068,994.657426
llama32_1b_to_31_8b,llama_cross,meta-llama/Llama-3.2-1B,meta-llama/Llama-3.1-8B,structured_extraction,structured_extraction_1,10,200,0.9,1.0,64,none,nf4,12.949061,5019.668911,77.225676,,24.727551,1.909602,7,65,58,2,5,70,0.828571,0.714286,0.285714,8.285714,9.285714,224.556094,146.989664,1571.892661,1028.927651
