aXce1-z/LLMSpeculativeSampling-model-pair-search-v2/outputs/run_20260313_072711_L4/trial_results.csv
pair_name,family,approx_model_name,target_model_name,task,prompt_id,gamma,top_k,top_p,temperature,max_tokens,approx_quant,target_quant,baseline_large_tps,baseline_large_elapsed_ms,avg_target_baseline_generate_ms_per_token,baseline_small_tps,speculative_tps,speedup,rounds,generated_tokens,accepted_count,resample_count,target_sample_count,proposed_draft_tokens,acceptance_rate,all_accept_round_rate,resample_round_rate,avg_accepted_per_round,avg_contributed_per_round,avg_draft_generate_ms_per_round,avg_target_verify_ms_per_round,draft_generate_ms_total,target_verify_ms_total
llama32_1b_to_31_8b,llama_cross,meta-llama/Llama-3.2-1B,meta-llama/Llama-3.1-8B,continuation,continuation_0,4,50,0.0,1.0,64,none,none,16.427211,4078.598733,60.874608,,28.287327,1.72198,15,67,52,5,10,60,0.866667,0.666667,0.333333,3.466667,4.466667,86.388136,69.324859,1295.822037,1039.872879
llama32_1b_to_31_8b,llama_cross,meta-llama/Llama-3.2-1B,meta-llama/Llama-3.1-8B,continuation,continuation_0,4,50,0.9,1.0,64,none,none,16.166946,4144.258177,61.8546,,29.150775,1.80311,14,67,53,1,13,56,0.946429,0.928571,0.071429,3.785714,4.785714,90.014433,71.951488,1260.202057,1007.320826
llama32_1b_to_31_8b,llama_cross,meta-llama/Llama-3.2-1B,meta-llama/Llama-3.1-8B,continuation,continuation_0,4,100,0.0,1.0,64,none,none,16.158041,4084.6536,61.888691,,29.828841,1.846068,14,66,52,1,13,56,0.928571,0.928571,0.071429,3.714286,4.714286,86.531176,69.435692,1211.436464,972.099689
llama32_1b_to_31_8b,llama_cross,meta-llama/Llama-3.2-1B,meta-llama/Llama-3.1-8B,continuation,continuation_0,4,100,0.9,1.0,64,none,none,15.554279,4114.623299,64.290989,,28.169945,1.811074,14,64,50,3,11,56,0.892857,0.785714,0.214286,3.571429,4.571429,88.20628,71.875361,1234.887918,1006.255048
llama32_1b_to_31_8b,llama_cross,meta-llama/Llama-3.2-1B,meta-llama/Llama-3.1-8B,continuation,continuation_0,4,150,0.0,1.0,64,none,none,15.658362,4087.273109,63.863642,,28.803137,1.839473,14,64,50,3,11,56,0.892857,0.785714,0.214286,3.571429,4.571429,86.99215,69.540008,1217.890099,973.560118
llama32_1b_to_31_8b,llama_cross,meta-llama/Llama-3.2-1B,meta-llama/Llama-3.1-8B,continuation,continuation_0,4,150,0.9,1.0,64,none,none,16.269536,4118.126106,61.464569,,24.440563,1.502229,17,67,50,8,9,68,0.735294,0.529412,0.470588,2.941176,3.941176,87.651081,71.476352,1490.068371,1215.097978
llama32_1b_to_31_8b,llama_cross,meta-llama/Llama-3.2-1B,meta-llama/Llama-3.1-8B,continuation,continuation_0,4,200,0.0,1.0,64,none,none,15.880551,4093.056923,62.970107,,29.233619,1.840844,14,65,51,2,12,56,0.910714,0.857143,0.142857,3.642857,4.642857,86.981546,69.665592,1217.741644,975.318283
llama32_1b_to_31_8b,llama_cross,meta-llama/Llama-3.2-1B,meta-llama/Llama-3.1-8B,continuation,continuation_0,4,200,0.9,1.0,64,none,none,15.779065,4119.382201,63.375111,,26.71174,1.692859,15,65,50,6,9,60,0.833333,0.6,0.4,3.333333,4.333333,88.239581,71.789197,1323.59371,1076.837957
llama32_1b_to_31_8b,llama_cross,meta-llama/Llama-3.2-1B,meta-llama/Llama-3.1-8B,continuation,continuation_0,6,50,0.0,1.0,64,none,none,16.569541,4103.915847,60.351704,,26.073309,1.573569,13,68,55,6,7,78,0.705128,0.538462,0.461538,4.230769,5.230769,127.580405,70.503268,1658.545261,916.542487
llama32_1b_to_31_8b,llama_cross,meta-llama/Llama-3.2-1B,meta-llama/Llama-3.1-8B,continuation,continuation_0,6,50,0.9,1.0,64,none,none,15.759756,4124.429212,63.452757,,26.19345,1.662047,12,65,53,5,7,72,0.736111,0.583333,0.416667,4.416667,5.416667,130.391398,73.82858,1564.696774,885.942956
llama32_1b_to_31_8b,llama_cross,meta-llama/Llama-3.2-1B,meta-llama/Llama-3.1-8B,continuation,continuation_0,6,100,0.0,1.0,64,none,none,16.799365,4107.298156,59.52606,,28.499787,1.69648,12,69,57,4,8,72,0.791667,0.666667,0.333333,4.75,5.75,128.381774,70.726205,1540.581289,848.714462
llama32_1b_to_31_8b,llama_cross,meta-llama/Llama-3.2-1B,meta-llama/Llama-3.1-8B,continuation,continuation_0,6,100,0.9,1.0,64,none,none,15.491066,4131.413522,64.553336,,25.596618,1.652347,12,64,52,6,6,72,0.722222,0.5,0.5,4.333333,5.333333,131.706547,73.979735,1580.478563,887.756815
llama32_1b_to_31_8b,llama_cross,meta-llama/Llama-3.2-1B,meta-llama/Llama-3.1-8B,continuation,continuation_0,6,150,0.0,1.0,64,none,none,16.5447,4110.077446,60.442315,,33.612995,2.031647,10,68,58,1,9,60,0.966667,0.9,0.1,5.8,6.8,128.269174,71.189683,1282.691743,711.896832
llama32_1b_to_31_8b,llama_cross,meta-llama/Llama-3.2-1B,meta-llama/Llama-3.1-8B,continuation,continuation_0,6,150,0.9,1.0,64,none,none,16.9303,4134.598861,59.065698,,27.964689,1.651754,12,70,58,4,8,72,0.805556,0.666667,0.333333,4.833333,5.833333,131.992033,73.925297,1583.904401,887.103568
llama32_1b_to_31_8b,llama_cross,meta-llama/Llama-3.2-1B,meta-llama/Llama-3.1-8B,continuation,continuation_0,6,200,0.0,1.0,64,none,none,15.589379,4105.359292,64.146239,,31.630829,2.028999,10,64,54,1,9,60,0.9,0.9,0.1,5.4,6.4,128.507412,71.12545,1285.074116,711.254504
llama32_1b_to_31_8b,llama_cross,meta-llama/Llama-3.2-1B,meta-llama/Llama-3.1-8B,continuation,continuation_0,6,200,0.9,1.0,64,none,none,16.200596,4135.650219,61.726123,,27.097404,1.672618,12,67,55,5,7,72,0.763889,0.583333,0.416667,4.583333,5.583333,129.724929,73.69955,1556.699144,884.394601
llama32_1b_to_31_8b,llama_cross,meta-llama/Llama-3.2-1B,meta-llama/Llama-3.1-8B,continuation,continuation_0,8,50,0.0,1.0,64,none,none,16.081955,4103.978648,62.181495,,24.541324,1.526016,11,66,55,7,4,88,0.625,0.363636,0.636364,5,6,169.776341,71.751639,1867.539752,789.268026
llama32_1b_to_31_8b,llama_cross,meta-llama/Llama-3.2-1B,meta-llama/Llama-3.1-8B,continuation,continuation_0,8,50,0.9,1.0,64,none,none,17.435954,4129.39848,57.352757,,31.396929,1.8007,9,72,63,2,7,72,0.875,0.777778,0.222222,7,8,175.221169,76.26057,1576.990519,686.345131
llama32_1b_to_31_8b,llama_cross,meta-llama/Llama-3.2-1B,meta-llama/Llama-3.1-8B,continuation,continuation_0,8,100,0.0,1.0,64,none,none,15.611979,4099.416203,64.053378,,32.495603,2.081453,8,64,56,2,6,64,0.875,0.75,0.25,7,8,170.321094,72.497699,1362.568753,579.981591
llama32_1b_to_31_8b,llama_cross,meta-llama/Llama-3.2-1B,meta-llama/Llama-3.1-8B,continuation,continuation_0,8,100,0.9,1.0,64,none,none,16.970033,4124.918295,58.927404,,23.316552,1.373984,12,70,58,8,4,96,0.604167,0.333333,0.666667,4.833333,5.833333,172.309742,75.029231,2067.716898,900.350772
llama32_1b_to_31_8b,llama_cross,meta-llama/Llama-3.2-1B,meta-llama/Llama-3.1-8B,continuation,continuation_0,8,150,0.0,1.0,64,none,none,17.55881,4100.505679,56.951468,,32.303439,1.839728,9,72,63,3,6,72,0.875,0.666667,0.333333,7,8,171.94248,72.264952,1547.482323,650.38457
llama32_1b_to_31_8b,llama_cross,meta-llama/Llama-3.2-1B,meta-llama/Llama-3.1-8B,continuation,continuation_0,8,150,0.9,1.0,64,none,none,17.465258,4122.469849,57.256526,,26.060712,1.492146,11,72,61,7,4,88,0.693182,0.363636,0.636364,5.545455,6.545455,172.697395,75.388069,1899.671347,829.268756
llama32_1b_to_31_8b,llama_cross,meta-llama/Llama-3.2-1B,meta-llama/Llama-3.1-8B,continuation,continuation_0,8,200,0.0,1.0,64,none,none,16.308545,4108.275758,61.317549,,30.410123,1.864674,9,67,58,4,5,72,0.805556,0.555556,0.444444,6.444444,7.444444,169.254387,72.21613,1523.289486,649.945171
llama32_1b_to_31_8b,llama_cross,meta-llama/Llama-3.2-1B,meta-llama/Llama-3.1-8B,continuation,continuation_0,8,200,0.9,1.0,64,none,none,15.533543,4120.116063,64.376813,,25.379196,1.633832,10,64,54,5,5,80,0.675,0.5,0.5,5.4,6.4,173.410897,75.822145,1734.108969,758.221453
llama32_1b_to_31_8b,llama_cross,meta-llama/Llama-3.2-1B,meta-llama/Llama-3.1-8B,continuation,continuation_0,10,50,0.0,1.0,64,none,none,16.567616,4104.392534,60.358714,,26.069814,1.57354,9,68,59,5,4,90,0.655556,0.444444,0.555556,6.555556,7.555556,213.362559,73.018275,1920.263031,657.164474
llama32_1b_to_31_8b,llama_cross,meta-llama/Llama-3.2-1B,meta-llama/Llama-3.1-8B,continuation,continuation_0,10,50,0.9,1.0,64,none,none,15.758518,4124.753439,63.457745,,30.778464,1.953132,7,65,58,3,4,70,0.828571,0.571429,0.428571,8.285714,9.285714,218.810056,78.954382,1531.670392,552.680675
llama32_1b_to_31_8b,llama_cross,meta-llama/Llama-3.2-1B,meta-llama/Llama-3.1-8B,continuation,continuation_0,10,100,0.0,1.0,64,none,none,16.558243,4106.716035,60.392883,,29.238216,1.76578,8,68,60,3,5,80,0.75,0.625,0.375,7.5,8.5,213.793416,73.313158,1710.347325,586.505262
llama32_1b_to_31_8b,llama_cross,meta-llama/Llama-3.2-1B,meta-llama/Llama-3.1-8B,continuation,continuation_0,10,100,0.9,1.0,64,none,none,16.010819,4122.212669,62.457768,,24.46283,1.527894,9,66,57,5,4,90,0.633333,0.444444,0.555556,6.333333,7.333333,218.815646,77.628165,1969.340811,698.653483
llama32_1b_to_31_8b,llama_cross,meta-llama/Llama-3.2-1B,meta-llama/Llama-3.1-8B,continuation,continuation_0,10,150,0.0,1.0,64,none,none,16.307904,4108.437351,61.31996,,32.84672,2.01416,7,67,60,1,6,70,0.857143,0.857143,0.142857,8.571429,9.571429,213.96971,73.660707,1497.787968,515.624947
llama32_1b_to_31_8b,llama_cross,meta-llama/Llama-3.2-1B,meta-llama/Llama-3.1-8B,continuation,continuation_0,10,150,0.9,1.0,64,none,none,16.234456,4127.024659,61.597383,,22.71285,1.399052,10,67,57,7,3,100,0.57,0.3,0.7,5.7,6.7,214.825874,76.989092,2148.258738,769.890924
llama32_1b_to_31_8b,llama_cross,meta-llama/Llama-3.2-1B,meta-llama/Llama-3.1-8B,continuation,continuation_0,10,200,0.0,1.0,64,none,none,16.071798,4106.572345,62.220793,,25.22769,1.569687,9,66,57,5,4,90,0.633333,0.444444,0.555556,6.333333,7.333333,214.332363,73.008608,1928.991266,657.077473
llama32_1b_to_31_8b,llama_cross,meta-llama/Llama-3.2-1B,meta-llama/Llama-3.1-8B,continuation,continuation_0,10,200,0.9,1.0,64,none,none,15.988558,4127.952102,62.544729,,20.438254,1.278305,11,66,55,9,2,110,0.5,0.181818,0.818182,5,6,214.013563,76.525197,2354.149188,841.777166
llama32_1b_to_31_8b,llama_cross,meta-llama/Llama-3.2-1B,meta-llama/Llama-3.1-8B,continuation,continuation_1,4,50,0.0,1.0,64,none,none,16.552754,4108.077636,60.412906,,28.480185,1.720571,15,68,53,3,12,60,0.883333,0.8,0.2,3.533333,4.533333,87.316847,69.62825,1309.75271,1044.423753
llama32_1b_to_31_8b,llama_cross,meta-llama/Llama-3.2-1B,meta-llama/Llama-3.1-8B,continuation,continuation_1,4,50,0.9,1.0,64,none,none,16.027305,4117.972463,62.393522,,25.522254,1.592423,16,66,50,7,9,64,0.78125,0.5625,0.4375,3.125,4.125,87.910139,71.539494,1406.56222,1144.631905
llama32_1b_to_31_8b,llama_cross,meta-llama/Llama-3.2-1B,meta-llama/Llama-3.1-8B,continuation,continuation_1,4,100,0.0,1.0,64,none,none,16.293115,4112.166434,61.375618,,26.466122,1.624375,16,67,51,6,10,64,0.796875,0.625,0.375,3.1875,4.1875,86.780554,69.307331,1388.488859,1108.9173
llama32_1b_to_31_8b,llama_cross,meta-llama/Llama-3.2-1B,meta-llama/Llama-3.1-8B,continuation,continuation_1,4,100,0.9,1.0,64,none,none,15.775914,4120.204993,63.387769,,25.119958,1.592298,16,65,49,4,12,64,0.765625,0.75,0.25,3.0625,4.0625,88.194769,71.500341,1411.1163,1144.005456
llama32_1b_to_31_8b,llama_cross,meta-llama/Llama-3.2-1B,meta-llama/Llama-3.1-8B,continuation,continuation_1,4,150,0.0,1.0,64,none,none,16.303489,4109.549803,61.336564,,25.107231,1.539991,17,67,50,6,11,68,0.735294,0.647059,0.352941,2.941176,3.941176,85.746309,69.201901,1457.687247,1176.432322
llama32_1b_to_31_8b,llama_cross,meta-llama/Llama-3.2-1B,meta-llama/Llama-3.1-8B,continuation,continuation_1,4,150,0.9,1.0,64,none,none,15.769429,4121.899457,63.413838,,24.901675,1.579111,16,65,49,4,12,64,0.765625,0.75,0.25,3.0625,4.0625,89.355496,71.693808,1429.687935,1147.100923
llama32_1b_to_31_8b,llama_cross,meta-llama/Llama-3.2-1B,meta-llama/Llama-3.1-8B,continuation,continuation_1,4,200,0.0,1.0,64,none,none,16.313507,4107.026206,61.298899,,30.315843,1.858328,14,67,53,1,13,56,0.946429,0.928571,0.071429,3.785714,4.785714,86.260556,69.454149,1207.647777,972.358081
llama32_1b_to_31_8b,llama_cross,meta-llama/Llama-3.2-1B,meta-llama/Llama-3.1-8B,continuation,continuation_1,4,200,0.9,1.0,64,none,none,16.003076,4124.207242,62.487989,,23.889973,1.492836,17,66,49,6,11,68,0.720588,0.647059,0.352941,2.882353,3.882353,88.754553,71.632857,1508.827404,1217.758571
llama32_1b_to_31_8b,llama_cross,meta-llama/Llama-3.2-1B,meta-llama/Llama-3.1-8B,continuation,continuation_1,6,50,0.0,1.0,64,none,none,16.567115,4104.516787,60.360541,,24.195547,1.460456,14,68,54,6,8,84,0.642857,0.571429,0.428571,3.857143,4.857143,127.932138,70.404112,1791.049935,985.657564
llama32_1b_to_31_8b,llama_cross,meta-llama/Llama-3.2-1B,meta-llama/Llama-3.1-8B,continuation,continuation_1,6,50,0.9,1.0,64,none,none,15.751447,4126.605098,63.486232,,24.273534,1.541035,13,65,52,7,6,78,0.666667,0.461538,0.538462,4,5,129.911071,73.522117,1688.843921,955.787516
llama32_1b_to_31_8b,llama_cross,meta-llama/Llama-3.2-1B,meta-llama/Llama-3.1-8B,continuation,continuation_1,6,100,0.0,1.0,64,none,none,16.575765,4102.374857,60.329042,,28.068448,1.693343,12,68,56,4,8,72,0.777778,0.666667,0.333333,4.666667,5.666667,128.54434,70.690386,1542.532086,848.284629
llama32_1b_to_31_8b,llama_cross,meta-llama/Llama-3.2-1B,meta-llama/Llama-3.1-8B,continuation,continuation_1,6,100,0.9,1.0,64,none,none,16.959865,4127.391351,58.962734,,28.114128,1.657686,12,70,58,5,7,72,0.805556,0.583333,0.416667,4.833333,5.833333,130.94767,73.823581,1571.372041,885.882969
llama32_1b_to_31_8b,llama_cross,meta-llama/Llama-3.2-1B,meta-llama/Llama-3.1-8B,continuation,continuation_1,6,150,0.0,1.0,64,none,none,16.087227,4102.633704,62.161117,,27.019393,1.679556,12,66,54,5,7,72,0.75,0.583333,0.416667,4.5,5.5,130.093301,70.799956,1561.119607,849.599476
llama32_1b_to_31_8b,llama_cross,meta-llama/Llama-3.2-1B,meta-llama/Llama-3.1-8B,continuation,continuation_1,6,150,0.9,1.0,64,none,none,16.234763,4126.946496,61.596216,,29.175583,1.797106,11,67,56,2,9,66,0.848485,0.818182,0.181818,5.090909,6.090909,132.047043,74.070318,1452.517476,814.773503
llama32_1b_to_31_8b,llama_cross,meta-llama/Llama-3.2-1B,meta-llama/Llama-3.1-8B,continuation,continuation_1,6,200,0.0,1.0,64,none,none,15.826744,4106.972224,63.184188,,32.046309,2.02482,10,65,55,1,9,60,0.916667,0.9,0.1,5.5,6.5,129.108235,71.013821,1291.082349,710.138208
llama32_1b_to_31_8b,llama_cross,meta-llama/Llama-3.2-1B,meta-llama/Llama-3.1-8B,continuation,continuation_1,6,200,0.9,1.0,64,none,none,15.757209,4125.095948,63.463015,,24.286623,1.541302,13,65,52,6,7,78,0.666667,0.538462,0.461538,4,5,129.917385,73.488826,1688.926003,955.354739
llama32_1b_to_31_8b,llama_cross,meta-llama/Llama-3.2-1B,meta-llama/Llama-3.1-8B,continuation,continuation_1,8,50,0.0,1.0,64,none,none,17.289667,4106.498887,57.838012,,32.000816,1.850864,9,71,62,2,7,72,0.861111,0.777778,0.222222,6.888889,7.888889,171.063917,72.18217,1539.575251,649.63953
llama32_1b_to_31_8b,llama_cross,meta-llama/Llama-3.2-1B,meta-llama/Llama-3.1-8B,continuation,continuation_1,8,50,0.9,1.0,64,none,none,16.242722,4124.924478,61.566037,,26.659057,1.641292,10,67,57,4,6,80,0.7125,0.6,0.4,5.7,6.7,172.597843,75.707195,1725.978429,757.071946
llama32_1b_to_31_8b,llama_cross,meta-llama/Llama-3.2-1B,meta-llama/Llama-3.1-8B,continuation,continuation_1,8,100,0.0,1.0,64,none,none,16.56277,4105.593327,60.376372,,27.823092,1.679857,10,68,58,5,5,80,0.725,0.5,0.5,5.8,6.8,169.479947,71.849468,1694.799466,718.494676
llama32_1b_to_31_8b,llama_cross,meta-llama/Llama-3.2-1B,meta-llama/Llama-3.1-8B,continuation,continuation_1,8,100,0.9,1.0,64,none,none,16.973656,4124.037868,58.914827,,21.395096,1.260488,13,70,57,8,5,104,0.548077,0.384615,0.615385,4.384615,5.384615,173.825529,75.082394,2259.731883,976.07112
llama32_1b_to_31_8b,llama_cross,meta-llama/Llama-3.2-1B,meta-llama/Llama-3.1-8B,continuation,continuation_1,8,150,0.0,1.0,64,none,none,16.821702,4101.844259,59.447018,,34.876185,2.073285,8,69,61,1,7,64,0.953125,0.875,0.125,7.625,8.625,171.256297,72.531824,1370.050376,580.25459
llama32_1b_to_31_8b,llama_cross,meta-llama/Llama-3.2-1B,meta-llama/Llama-3.1-8B,continuation,continuation_1,8,150,0.9,1.0,64,none,none,17.193954,4129.358542,58.159979,,28.07852,1.633046,10,71,61,4,6,80,0.7625,0.6,0.4,6.1,7.1,173.798126,75.915818,1737.981258,759.158182
llama32_1b_to_31_8b,llama_cross,meta-llama/Llama-3.2-1B,meta-llama/Llama-3.1-8B,continuation,continuation_1,8,200,0.0,1.0,64,none,none,16.332163,4102.334789,61.228877,,22.816982,1.397058,12,67,55,7,5,96,0.572917,0.416667,0.583333,4.583333,5.583333,170.27929,71.593478,2043.351484,859.121733
llama32_1b_to_31_8b,llama_cross,meta-llama/Llama-3.2-1B,meta-llama/Llama-3.1-8B,continuation,continuation_1,8,200,0.9,1.0,64,none,none,16.969306,4125.094961,58.929928,,30.84298,1.817575,9,70,61,4,5,72,0.847222,0.555556,0.444444,6.777778,7.777778,172.828635,76.040972,1555.457711,684.368745
llama32_1b_to_31_8b,llama_cross,meta-llama/Llama-3.2-1B,meta-llama/Llama-3.1-8B,continuation,continuation_1,10,50,0.0,1.0,64,none,none,17.793197,4102.691559,56.201254,,25.132769,1.412493,10,73,63,6,4,100,0.63,0.4,0.6,6.3,7.3,214.242767,72.813906,2142.427672,728.139062
llama32_1b_to_31_8b,llama_cross,meta-llama/Llama-3.2-1B,meta-llama/Llama-3.1-8B,continuation,continuation_1,10,50,0.9,1.0,64,none,none,16.507751,4119.277098,60.577604,,23.019688,1.394478,10,68,58,8,2,100,0.58,0.2,0.8,5.8,6.8,215.15246,76.967151,2151.5246,769.671515
llama32_1b_to_31_8b,llama_cross,meta-llama/Llama-3.2-1B,meta-llama/Llama-3.1-8B,continuation,continuation_1,10,100,0.0,1.0,64,none,none,15.813619,4110.381024,63.236631,,32.10876,2.03045,7,65,58,3,4,70,0.828571,0.571429,0.428571,8.285714,9.285714,211.88552,73.502895,1483.198639,514.520264
llama32_1b_to_31_8b,llama_cross,meta-llama/Llama-3.2-1B,meta-llama/Llama-3.1-8B,continuation,continuation_1,10,100,0.9,1.0,64,none,none,17.713951,4121.04554,56.452679,,24.797364,1.399878,10,73,63,7,3,100,0.63,0.3,0.7,6.3,7.3,214.150299,76.898893,2141.502988,768.988926
llama32_1b_to_31_8b,llama_cross,meta-llama/Llama-3.2-1B,meta-llama/Llama-3.1-8B,continuation,continuation_1,10,150,0.0,1.0,64,none,none,16.536884,4112.020258,60.470886,,33.567469,2.029855,7,68,61,2,5,70,0.871429,0.714286,0.285714,8.714286,9.714286,211.861099,73.630738,1483.02769,515.415169
llama32_1b_to_31_8b,llama_cross,meta-llama/Llama-3.2-1B,meta-llama/Llama-3.1-8B,continuation,continuation_1,10,150,0.9,1.0,64,none,none,15.534213,4119.938335,64.374036,,23.919321,1.539783,9,64,55,7,2,90,0.611111,0.222222,0.777778,6.111111,7.111111,216.284789,77.538266,1946.563105,697.844396
llama32_1b_to_31_8b,llama_cross,meta-llama/Llama-3.2-1B,meta-llama/Llama-3.1-8B,continuation,continuation_1,10,200,0.0,1.0,64,none,none,17.753425,4111.882698,56.32716,,21.37328,1.203896,12,73,61,8,4,120,0.508333,0.333333,0.666667,5.083333,6.083333,209.57213,72.112313,2514.865558,865.34776
llama32_1b_to_31_8b,llama_cross,meta-llama/Llama-3.2-1B,meta-llama/Llama-3.1-8B,continuation,continuation_1,10,200,0.9,1.0,64,none,none,15.52194,4123.195821,64.424935,,23.996945,1.546002,9,64,55,7,2,90,0.611111,0.222222,0.777778,6.111111,7.111111,215.391318,77.522975,1938.521862,697.706774
llama32_1b_to_31_8b,llama_cross,meta-llama/Llama-3.2-1B,meta-llama/Llama-3.1-8B,code_completion,code_completion_0,4,50,0.0,1.0,64,none,none,16.570794,4103.605522,60.34714,,30.966192,1.868721,14,68,54,1,13,56,0.964286,0.928571,0.071429,3.857143,4.857143,85.436809,69.307691,1196.115331,970.30767
llama32_1b_to_31_8b,llama_cross,meta-llama/Llama-3.2-1B,meta-llama/Llama-3.1-8B,code_completion,code_completion_0,4,50,0.9,1.0,64,none,none,15.518041,4124.231884,64.441123,,27.957914,1.801639,14,64,50,2,12,56,0.892857,0.857143,0.142857,3.571429,4.571429,89.442483,71.861077,1252.194763,1006.055075
llama32_1b_to_31_8b,llama_cross,meta-llama/Llama-3.2-1B,meta-llama/Llama-3.1-8B,code_completion,code_completion_0,4,100,0.0,1.0,64,none,none,16.560895,4106.058337,60.383211,,30.882074,1.864759,14,68,54,1,13,56,0.964286,0.928571,0.071429,3.857143,4.857143,85.815401,69.327815,1201.415619,970.589404
llama32_1b_to_31_8b,llama_cross,meta-llama/Llama-3.2-1B,meta-llama/Llama-3.1-8B,code_completion,code_completion_0,4,100,0.9,1.0,64,none,none,16.000194,4124.949865,62.49924,,25.570664,1.598147,16,66,50,5,11,64,0.78125,0.6875,0.3125,3.125,4.125,87.695547,71.474704,1403.128744,1143.595268
llama32_1b_to_31_8b,llama_cross,meta-llama/Llama-3.2-1B,meta-llama/Llama-3.1-8B,code_completion,code_completion_0,4,150,0.0,1.0,64,none,none,16.560879,4106.062159,60.383267,,30.456802,1.839081,14,68,54,1,13,56,0.964286,0.928571,0.071429,3.857143,4.857143,87.507004,69.636051,1225.098052,974.904714
llama32_1b_to_31_8b,llama_cross,meta-llama/Llama-3.2-1B,meta-llama/Llama-3.1-8B,code_completion,code_completion_0,4,150,0.9,1.0,64,none,none,16.017222,4120.564608,62.432797,,27.032436,1.687711,15,66,51,3,12,60,0.85,0.8,0.2,3.4,4.4,88.917632,71.672787,1333.764477,1075.091802
llama32_1b_to_31_8b,llama_cross,meta-llama/Llama-3.2-1B,meta-llama/Llama-3.1-8B,code_completion,code_completion_0,4,200,0.0,1.0,64,none,none,16.565471,4104.924011,60.36653,,30.486959,1.840392,14,68,54,1,13,56,0.964286,0.928571,0.071429,3.857143,4.857143,87.584508,69.494148,1226.183112,972.918069
llama32_1b_to_31_8b,llama_cross,meta-llama/Llama-3.2-1B,meta-llama/Llama-3.1-8B,code_completion,code_completion_0,4,200,0.9,1.0,64,none,none,16.019693,4119.929058,62.423168,,27.00455,1.68571,15,66,51,3,12,60,0.85,0.8,0.2,3.4,4.4,89.082854,71.684594,1336.242811,1075.268913
llama32_1b_to_31_8b,llama_cross,meta-llama/Llama-3.2-1B,meta-llama/Llama-3.1-8B,code_completion,code_completion_0,6,50,0.0,1.0,64,none,none,15.585849,4106.288894,64.160764,,21.359407,1.370436,15,64,49,8,7,90,0.544444,0.466667,0.533333,3.266667,4.266667,127.284517,70.155728,1909.267762,1052.335922
llama32_1b_to_31_8b,llama_cross,meta-llama/Llama-3.2-1B,meta-llama/Llama-3.1-8B,code_completion,code_completion_0,6,50,0.9,1.0,64,none,none,16.01152,4122.032031,62.455031,,26.325564,1.644164,12,66,54,5,7,72,0.75,0.583333,0.416667,4.5,5.5,132.597379,73.623388,1591.168547,883.480656
llama32_1b_to_31_8b,llama_cross,meta-llama/Llama-3.2-1B,meta-llama/Llama-3.1-8B,code_completion,code_completion_0,6,100,0.0,1.0,64,none,none,16.079417,4104.626345,62.191308,,32.684057,2.032664,10,66,56,1,9,60,0.933333,0.9,0.1,5.6,6.6,128.477802,70.711254,1284.778017,707.112538
llama32_1b_to_31_8b,llama_cross,meta-llama/Llama-3.2-1B,meta-llama/Llama-3.1-8B,code_completion,code_completion_0,6,100,0.9,1.0,64,none,none,16.724556,4125.670039,59.792319,,27.523512,1.645695,12,69,57,3,9,72,0.791667,0.75,0.25,4.75,5.75,132.535914,73.686237,1590.430963,884.234842
llama32_1b_to_31_8b,llama_cross,meta-llama/Llama-3.2-1B,meta-llama/Llama-3.1-8B,code_completion,code_completion_0,6,150,0.0,1.0,64,none,none,17.062614,4102.53674,58.607668,,31.438444,1.842534,11,70,59,2,9,66,0.893939,0.818182,0.181818,5.363636,6.363636,129.073858,70.59642,1419.812438,776.560618
llama32_1b_to_31_8b,llama_cross,meta-llama/Llama-3.2-1B,meta-llama/Llama-3.1-8B,code_completion,code_completion_0,6,150,0.9,1.0,64,none,none,16.718535,4127.155778,59.813852,,27.728801,1.658566,12,69,57,3,9,72,0.791667,0.75,0.25,4.75,5.75,131.318906,73.463472,1575.826876,881.561659
llama32_1b_to_31_8b,llama_cross,meta-llama/Llama-3.2-1B,meta-llama/Llama-3.1-8B,code_completion,code_completion_0,6,200,0.0,1.0,64,none,none,17.07227,4100.216274,58.574518,,31.71402,1.857633,11,70,59,2,9,66,0.893939,0.818182,0.181818,5.363636,6.363636,127.389339,70.565736,1401.282731,776.223101
llama32_1b_to_31_8b,llama_cross,meta-llama/Llama-3.2-1B,meta-llama/Llama-3.1-8B,code_completion,code_completion_0,6,200,0.9,1.0,64,none,none,16.706087,4130.231089,59.858422,,27.819492,1.665231,12,69,57,3,9,72,0.791667,0.75,0.25,4.75,5.75,130.653052,73.452104,1567.836623,881.425254
llama32_1b_to_31_8b,llama_cross,meta-llama/Llama-3.2-1B,meta-llama/Llama-3.1-8B,code_completion,code_completion_0,8,50,0.0,1.0,64,none,none,16.572245,4103.246006,60.341853,,30.709117,1.853045,9,68,59,2,7,72,0.819444,0.777778,0.222222,6.555556,7.555556,170.753909,72.098125,1536.785184,648.883126
llama32_1b_to_31_8b,llama_cross,meta-llama/Llama-3.2-1B,meta-llama/Llama-3.1-8B,code_completion,code_completion_0,8,50,0.9,1.0,64,none,none,16.711223,4128.961595,59.840023,,25.121352,1.503262,11,69,58,5,6,88,0.659091,0.545455,0.454545,5.272727,6.272727,171.76464,75.090696,1889.411037,825.997653
llama32_1b_to_31_8b,llama_cross,meta-llama/Llama-3.2-1B,meta-llama/Llama-3.1-8B,code_completion,code_completion_0,8,100,0.0,1.0,64,none,none,16.569312,4103.972423,60.352536,,30.134199,1.818675,9,68,59,2,7,72,0.819444,0.777778,0.222222,6.555556,7.555556,175.341326,72.135055,1578.071932,649.215499
llama32_1b_to_31_8b,llama_cross,meta-llama/Llama-3.2-1B,meta-llama/Llama-3.1-8B,code_completion,code_completion_0,8,100,0.9,1.0,64,none,none,16.737275,4122.534818,59.746881,,27.255576,1.628436,10,69,59,3,7,80,0.7375,0.7,0.3,5.9,6.9,174.524474,75.574814,1745.244742,755.748145
llama32_1b_to_31_8b,llama_cross,meta-llama/Llama-3.2-1B,meta-llama/Llama-3.1-8B,code_completion,code_completion_0,8,150,0.0,1.0,64,none,none,16.568171,4104.25499,60.356691,,30.651521,1.850024,9,68,59,2,7,72,0.819444,0.777778,0.222222,6.555556,7.555556,171.221595,72.103702,1540.994355,648.93332
llama32_1b_to_31_8b,llama_cross,meta-llama/Llama-3.2-1B,meta-llama/Llama-3.1-8B,code_completion,code_completion_0,8,150,0.9,1.0,64,none,none,16.732142,4123.799637,59.765212,,27.340907,1.634035,10,69,59,3,7,80,0.7375,0.7,0.3,5.9,6.9,173.86195,75.485982,1738.619503,754.85982
llama32_1b_to_31_8b,llama_cross,meta-llama/Llama-3.2-1B,meta-llama/Llama-3.1-8B,code_completion,code_completion_0,8,200,0.0,1.0,64,none,none,16.559316,4106.449764,60.388967,,30.509768,1.842453,9,68,59,2,7,72,0.819444,0.777778,0.222222,6.555556,7.555556,172.407884,72.033112,1551.670959,648.298005
llama32_1b_to_31_8b,llama_cross,meta-llama/Llama-3.2-1B,meta-llama/Llama-3.1-8B,code_completion,code_completion_0,8,200,0.9,1.0,64,none,none,16.72769,4124.897181,59.781119,,27.474827,1.642476,10,69,59,3,7,80,0.7375,0.7,0.3,5.9,6.9,172.718093,75.468729,1727.18093,754.687289
llama32_1b_to_31_8b,llama_cross,meta-llama/Llama-3.2-1B,meta-llama/Llama-3.1-8B,code_completion,code_completion_0,10,50,0.0,1.0,64,none,none,16.813206,4103.916983,59.477058,,29.793548,1.772033,8,69,61,3,5,80,0.7625,0.625,0.375,7.625,8.625,212.77742,73.07686,1702.219362,584.614881
llama32_1b_to_31_8b,llama_cross,meta-llama/Llama-3.2-1B,meta-llama/Llama-3.1-8B,code_completion,code_completion_0,10,50,0.9,1.0,64,none,none,15.528509,4121.451612,64.397681,,26.963806,1.736407,8,64,56,4,4,80,0.7,0.5,0.5,7,8,215.627902,77.561632,1725.023214,620.493055
llama32_1b_to_31_8b,llama_cross,meta-llama/Llama-3.2-1B,meta-llama/Llama-3.1-8B,code_completion,code_completion_0,10,100,0.0,1.0,64,none,none,16.821484,4101.897229,59.447786,,29.660048,1.763224,8,69,61,3,5,80,0.7625,0.625,0.375,7.625,8.625,214.030669,73.101948,1712.245352,584.815584
llama32_1b_to_31_8b,llama_cross,meta-llama/Llama-3.2-1B,meta-llama/Llama-3.1-8B,code_completion,code_completion_0,10,100,0.9,1.0,64,none,none,17.473229,4120.589365,57.230408,,26.601416,1.52241,9,72,63,3,6,90,0.7,0.666667,0.333333,7,8,220.104774,77.25313,1980.942966,695.278166
llama32_1b_to_31_8b,llama_cross,meta-llama/Llama-3.2-1B,meta-llama/Llama-3.1-8B,code_completion,code_completion_0,10,150,0.0,1.0,64,none,none,16.826007,4100.794624,59.431806,,29.753318,1.768293,8,69,61,3,5,80,0.7625,0.625,0.375,7.625,8.625,213.172746,73.068067,1705.381964,584.544535
llama32_1b_to_31_8b,llama_cross,meta-llama/Llama-3.2-1B,meta-llama/Llama-3.1-8B,code_completion,code_completion_0,10,150,0.9,1.0,64,none,none,17.453831,4125.168796,57.294011,,27.026592,1.548462,9,72,63,3,6,90,0.7,0.666667,0.333333,7,8,215.588373,77.069894,1940.295358,693.629044
llama32_1b_to_31_8b,llama_cross,meta-llama/Llama-3.2-1B,meta-llama/Llama-3.1-8B,code_completion,code_completion_0,10,200,0.0,1.0,64,none,none,16.812457,4104.099596,59.479704,,29.928052,1.780112,8,69,61,3,5,80,0.7625,0.625,0.375,7.625,8.625,211.600655,72.964388,1692.805239,583.715103
llama32_1b_to_31_8b,llama_cross,meta-llama/Llama-3.2-1B,meta-llama/Llama-3.1-8B,code_completion,code_completion_0,10,200,0.9,1.0,64,none,none,17.707443,4122.5601,56.473426,,24.712699,1.395611,10,73,63,4,6,100,0.63,0.6,0.4,6.3,7.3,215.442772,76.773605,2154.427717,767.736046
llama32_1b_to_31_8b,llama_cross,meta-llama/Llama-3.2-1B,meta-llama/Llama-3.1-8B,code_completion,code_completion_1,4,50,0.0,1.0,64,none,none,15.828775,4106.445439,63.176084,,22.941684,1.449366,18,65,47,8,10,72,0.652778,0.555556,0.444444,2.611111,3.611111,86.567359,68.787649,1558.212463,1238.177684
llama32_1b_to_31_8b,llama_cross,meta-llama/Llama-3.2-1B,meta-llama/Llama-3.1-8B,code_completion,code_completion_1,4,50,0.9,1.0,64,none,none,16.533663,4112.821219,60.482665,,22.359135,1.35234,19,68,49,8,11,76,0.644737,0.578947,0.421053,2.578947,3.578947,87.506293,70.559749,1662.619561,1340.635225
llama32_1b_to_31_8b,llama_cross,meta-llama/Llama-3.2-1B,meta-llama/Llama-3.1-8B,code_completion,code_completion_1,4,100,0.0,1.0,64,none,none,15.586993,4105.987682,64.156058,,24.023793,1.541272,17,64,47,8,9,68,0.691176,0.529412,0.470588,2.764706,3.764706,85.860648,68.782487,1459.631009,1169.302281
llama32_1b_to_31_8b,llama_cross,meta-llama/Llama-3.2-1B,meta-llama/Llama-3.1-8B,code_completion,code_completion_1,4,100,0.9,1.0,64,none,none,16.277661,4116.070419,61.433887,,24.482933,1.504082,17,67,50,5,12,68,0.735294,0.705882,0.294118,2.941176,3.941176,88.086106,70.801052,1497.463803,1203.617892
llama32_1b_to_31_8b,llama_cross,meta-llama/Llama-3.2-1B,meta-llama/Llama-3.1-8B,code_completion,code_completion_1,4,150,0.0,1.0,64,none,none,15.836472,4104.449461,63.145376,,29.394995,1.856158,14,65,51,2,12,56,0.910714,0.857143,0.142857,3.642857,4.642857,86.737007,69.059831,1214.318099,966.83763
llama32_1b_to_31_8b,llama_cross,meta-llama/Llama-3.2-1B,meta-llama/Llama-3.1-8B,code_completion,code_completion_1,4,150,0.9,1.0,64,none,none,16.289014,4113.201759,61.391071,,24.319415,1.492995,17,67,50,5,12,68,0.735294,0.705882,0.294118,2.941176,3.941176,89.013388,70.926849,1513.227602,1205.756427
llama32_1b_to_31_8b,llama_cross,meta-llama/Llama-3.2-1B,meta-llama/Llama-3.1-8B,code_completion,code_completion_1,4,200,0.0,1.0,64,none,none,15.848554,4101.320652,63.097241,,29.341472,1.851366,14,65,51,2,12,56,0.910714,0.857143,0.142857,3.642857,4.642857,87.039047,69.041885,1218.54666,966.586394
llama32_1b_to_31_8b,llama_cross,meta-llama/Llama-3.2-1B,meta-llama/Llama-3.1-8B,code_completion,code_completion_1,4,200,0.9,1.0,64,none,none,16.261628,4120.128686,61.494458,,24.50915,1.507177,17,67,50,5,12,68,0.735294,0.705882,0.294118,2.941176,3.941176,87.923764,70.811204,1494.703984,1203.790474
llama32_1b_to_31_8b,llama_cross,meta-llama/Llama-3.2-1B,meta-llama/Llama-3.1-8B,code_completion,code_completion_1,6,50,0.0,1.0,64,none,none,16.593919,4097.886709,60.26304,,28.279706,1.704221,12,68,56,3,9,72,0.777778,0.75,0.25,4.666667,5.666667,127.919354,69.907042,1535.032249,838.884504
llama32_1b_to_31_8b,llama_cross,meta-llama/Llama-3.2-1B,meta-llama/Llama-3.1-8B,code_completion,code_completion_1,6,50,0.9,1.0,64,none,none,16.242206,4125.05546,61.567992,,25.263454,1.55542,13,67,54,5,8,78,0.692308,0.615385,0.384615,4.153846,5.153846,129.10248,72.407472,1678.332241,941.297135
llama32_1b_to_31_8b,llama_cross,meta-llama/Llama-3.2-1B,meta-llama/Llama-3.1-8B,code_completion,code_completion_1,6,100,0.0,1.0,64,none,none,15.856585,4099.243387,63.065283,,26.872097,1.694696,12,65,53,4,8,72,0.736111,0.666667,0.333333,4.416667,5.416667,128.924981,70.050442,1547.099768,840.605309
llama32_1b_to_31_8b,llama_cross,meta-llama/Llama-3.2-1B,meta-llama/Llama-3.1-8B,code_completion,code_completion_1,6,100,0.9,1.0,64,none,none,16.739696,4121.938559,59.73824,,24.183216,1.444663,14,69,55,7,7,84,0.654762,0.5,0.5,3.928571,4.928571,129.092901,72.257528,1807.30062,1011.605389
llama32_1b_to_31_8b,llama_cross,meta-llama/Llama-3.2-1B,meta-llama/Llama-3.1-8B,code_completion,code_completion_1,6,150,0.0,1.0,64,none,none,16.578827,4101.617198,60.3179,,33.461078,2.018302,10,68,58,1,9,60,0.966667,0.9,0.1,5.8,6.8,129.983225,70.372039,1299.832247,703.720393
llama32_1b_to_31_8b,llama_cross,meta-llama/Llama-3.2-1B,meta-llama/Llama-3.1-8B,code_completion,code_completion_1,6,150,0.9,1.0,64,none,none,16.740298,4121.790431,59.736093,,24.053241,1.436847,14,69,55,7,7,84,0.654762,0.5,0.5,3.928571,4.928571,130.050567,72.359563,1820.707944,1013.033886
llama32_1b_to_31_8b,llama_cross,meta-llama/Llama-3.2-1B,meta-llama/Llama-3.1-8B,code_completion,code_completion_1,6,200,0.0,1.0,64,none,none,16.57782,4101.866235,60.321562,,34.02293,2.052316,10,68,58,1,9,60,0.966667,0.9,0.1,5.8,6.8,126.911026,70.160266,1269.110263,701.602662
llama32_1b_to_31_8b,llama_cross,meta-llama/Llama-3.2-1B,meta-llama/Llama-3.1-8B,code_completion,code_completion_1,6,200,0.9,1.0,64,none,none,16.736248,4122.787748,59.750547,,21.116351,1.261714,16,69,53,9,7,96,0.552083,0.4375,0.5625,3.3125,4.3125,129.76422,72.127946,2076.227523,1154.047143
llama32_1b_to_31_8b,llama_cross,meta-llama/Llama-3.2-1B,meta-llama/Llama-3.1-8B,code_completion,code_completion_1,8,50,0.0,1.0,64,none,none,16.584128,4100.306026,60.298618,,27.869132,1.68047,10,68,58,3,7,80,0.725,0.7,0.3,5.8,6.8,169.977548,71.035772,1699.775483,710.357716
llama32_1b_to_31_8b,llama_cross,meta-llama/Llama-3.2-1B,meta-llama/Llama-3.1-8B,code_completion,code_completion_1,8,50,0.9,1.0,64,none,none,15.543944,4117.359207,64.333738,,21.264935,1.368053,12,64,52,9,3,96,0.541667,0.25,0.75,4.333333,5.333333,173.894916,74.076027,2086.738993,888.912326
llama32_1b_to_31_8b,llama_cross,meta-llama/Llama-3.2-1B,meta-llama/Llama-3.1-8B,code_completion,code_completion_1,8,100,0.0,1.0,64,none,none,16.104138,4098.325566,62.095842,,24.6949,1.533451,11,66,55,5,6,88,0.625,0.545455,0.454545,5,6,169.28866,70.866816,1862.175261,779.534981
llama32_1b_to_31_8b,llama_cross,meta-llama/Llama-3.2-1B,meta-llama/Llama-3.1-8B,code_completion,code_completion_1,8,100,0.9,1.0,64,none,none,16.749873,4119.434324,59.701947,,25.155259,1.501818,11,69,58,4,7,88,0.659091,0.636364,0.363636,5.272727,6.272727,172.435249,74.097093,1896.78774,815.068027
llama32_1b_to_31_8b,llama_cross,meta-llama/Llama-3.2-1B,meta-llama/Llama-3.1-8B,code_completion,code_completion_1,8,150,0.0,1.0,64,none,none,15.849621,4101.044477,63.092992,,26.5671,1.676198,10,65,55,4,6,80,0.6875,0.6,0.4,5.5,6.5,170.50496,71.156281,1705.049604,711.562811
llama32_1b_to_31_8b,llama_cross,meta-llama/Llama-3.2-1B,meta-llama/Llama-3.1-8B,code_completion,code_completion_1,8,150,0.9,1.0,64,none,none,16.739573,4121.968872,59.738679,,25.160329,1.503045,11,69,58,4,7,88,0.659091,0.636364,0.363636,5.272727,6.272727,172.472649,74.062542,1897.199144,814.68796
llama32_1b_to_31_8b,llama_cross,meta-llama/Llama-3.2-1B,meta-llama/Llama-3.1-8B,code_completion,code_completion_1,8,200,0.0,1.0,64,none,none,15.847426,4101.612499,63.101731,,26.469309,1.670259,10,65,55,4,6,80,0.6875,0.6,0.4,5.5,6.5,171.396374,71.176537,1713.963741,711.765374
llama32_1b_to_31_8b,llama_cross,meta-llama/Llama-3.2-1B,meta-llama/Llama-3.1-8B,code_completion,code_completion_1,8,200,0.9,1.0,64,none,none,16.774283,4113.439626,59.615067,,23.106215,1.377479,12,69,57,6,6,96,0.59375,0.5,0.5,4.75,5.75,172.139119,73.960071,2065.669434,887.520858
llama32_1b_to_31_8b,llama_cross,meta-llama/Llama-3.2-1B,meta-llama/Llama-3.1-8B,code_completion,code_completion_1,10,50,0.0,1.0,64,none,none,17.286248,4107.311162,57.849453,,27.619229,1.597757,9,71,62,3,6,90,0.688889,0.666667,0.333333,6.888889,7.888889,210.497758,71.831753,1894.479818,646.485774
llama32_1b_to_31_8b,llama_cross,meta-llama/Llama-3.2-1B,meta-llama/Llama-3.1-8B,code_completion,code_completion_1,10,50,0.9,1.0,64,none,none,16.038696,4115.047654,62.349207,,20.459612,1.275641,11,66,55,8,3,110,0.5,0.272727,0.727273,5,6,214.870634,75.391357,2363.576979,829.304924
llama32_1b_to_31_8b,llama_cross,meta-llama/Llama-3.2-1B,meta-llama/Llama-3.1-8B,code_completion,code_completion_1,10,100,0.0,1.0,64,none,none,17.309171,4101.871713,57.772841,,27.525948,1.590252,9,71,62,3,6,90,0.688889,0.666667,0.333333,6.888889,7.888889,211.520013,71.766817,1903.680119,645.901357
llama32_1b_to_31_8b,llama_cross,meta-llama/Llama-3.2-1B,meta-llama/Llama-3.1-8B,code_completion,code_completion_1,10,100,0.9,1.0,64,none,none,17.26196,4113.090229,57.930848,,18.67327,1.081758,13,71,58,10,3,130,0.446154,0.230769,0.769231,4.461538,5.461538,214.330242,75.195458,2786.293143,977.54096
llama32_1b_to_31_8b,llama_cross,meta-llama/Llama-3.2-1B,meta-llama/Llama-3.1-8B,code_completion,code_completion_1,10,150,0.0,1.0,64,none,none,16.10951,4096.958819,62.075134,,32.759353,2.033541,7,66,59,2,5,70,0.842857,0.714286,0.285714,8.428571,9.428571,211.653135,72.351465,1481.571946,506.460255
llama32_1b_to_31_8b,llama_cross,meta-llama/Llama-3.2-1B,meta-llama/Llama-3.1-8B,code_completion,code_completion_1,10,150,0.9,1.0,64,none,none,17.225411,4121.81758,58.053769,,20.166234,1.170726,12,71,59,8,4,120,0.491667,0.333333,0.666667,4.916667,5.916667,215.302674,75.165068,2583.632089,901.980817
llama32_1b_to_31_8b,llama_cross,meta-llama/Llama-3.2-1B,meta-llama/Llama-3.1-8B,code_completion,code_completion_1,10,200,0.0,1.0,64,none,none,16.101312,4099.044739,62.106738,,32.484225,2.017489,7,66,59,2,5,70,0.842857,0.714286,0.285714,8.428571,9.428571,213.880634,72.502848,1497.164438,507.519936
llama32_1b_to_31_8b,llama_cross,meta-llama/Llama-3.2-1B,meta-llama/Llama-3.1-8B,code_completion,code_completion_1,10,200,0.9,1.0,64,none,none,17.218732,4123.416356,58.076287,,20.122805,1.168658,12,71,59,8,4,120,0.491667,0.333333,0.666667,4.916667,5.916667,215.627585,75.453203,2587.531025,905.438433
llama32_1b_to_31_8b,llama_cross,meta-llama/Llama-3.2-1B,meta-llama/Llama-3.1-8B,structured_extraction,structured_extraction_0,4,50,0.0,1.0,64,none,none,15.838529,4103.916481,63.137177,,31.139593,1.966066,13,65,52,0,13,52,1.0,1.0,0.0,4,5,88.60539,69.683483,1151.870065,905.885282
llama32_1b_to_31_8b,llama_cross,meta-llama/Llama-3.2-1B,meta-llama/Llama-3.1-8B,structured_extraction,structured_extraction_0,4,50,0.9,1.0,64,none,none,15.502348,4128.406909,64.506358,,26.449973,1.706191,15,64,49,5,10,60,0.816667,0.666667,0.333333,3.266667,4.266667,87.749324,71.440063,1316.23986,1071.600938
llama32_1b_to_31_8b,llama_cross,meta-llama/Llama-3.2-1B,meta-llama/Llama-3.1-8B,structured_extraction,structured_extraction_0,4,100,0.0,1.0,64,none,none,15.830205,4106.074422,63.170376,,31.550486,1.993056,13,65,52,0,13,52,1.0,1.0,0.0,4,5,86.813291,69.476049,1128.572779,903.188632
llama32_1b_to_31_8b,llama_cross,meta-llama/Llama-3.2-1B,meta-llama/Llama-3.1-8B,structured_extraction,structured_extraction_0,4,100,0.9,1.0,64,none,none,16.252407,4122.466232,61.529347,,29.352029,1.806011,14,67,53,2,12,56,0.946429,0.857143,0.142857,3.785714,4.785714,89.146426,71.679516,1248.049963,1003.51323
llama32_1b_to_31_8b,llama_cross,meta-llama/Llama-3.2-1B,meta-llama/Llama-3.1-8B,structured_extraction,structured_extraction_0,4,150,0.0,1.0,64,none,none,15.831098,4105.842739,63.166811,,31.663203,2.000064,13,65,52,0,13,52,1.0,1.0,0.0,4,5,86.129472,69.588153,1119.683142,904.645995
llama32_1b_to_31_8b,llama_cross,meta-llama/Llama-3.2-1B,meta-llama/Llama-3.1-8B,structured_extraction,structured_extraction_0,4,150,0.9,1.0,64,none,none,15.747117,4127.73961,63.503686,,28.514889,1.810801,14,65,51,2,12,56,0.910714,0.857143,0.142857,3.642857,4.642857,88.851702,71.727437,1243.923827,1004.184111
llama32_1b_to_31_8b,llama_cross,meta-llama/Llama-3.2-1B,meta-llama/Llama-3.1-8B,structured_extraction,structured_extraction_0,4,200,0.0,1.0,64,none,none,16.322848,4104.675811,61.263818,,30.091462,1.843518,14,67,53,1,13,56,0.946429,0.928571,0.071429,3.785714,4.785714,87.504237,69.387465,1225.059321,971.424505
llama32_1b_to_31_8b,llama_cross,meta-llama/Llama-3.2-1B,meta-llama/Llama-3.1-8B,structured_extraction,structured_extraction_0,4,200,0.9,1.0,64,none,none,15.755162,4125.632028,63.471262,,28.275788,1.7947,14,65,51,2,12,56,0.910714,0.857143,0.142857,3.642857,4.642857,90.204051,71.80174,1262.856708,1005.224354
llama32_1b_to_31_8b,llama_cross,meta-llama/Llama-3.2-1B,meta-llama/Llama-3.1-8B,structured_extraction,structured_extraction_0,6,50,0.0,1.0,64,none,none,15.842795,4102.81138,63.120175,,29.205404,1.84345,11,65,54,2,9,66,0.818182,0.818182,0.181818,4.909091,5.909091,129.082056,70.605542,1419.902621,776.660963
llama32_1b_to_31_8b,llama_cross,meta-llama/Llama-3.2-1B,meta-llama/Llama-3.1-8B,structured_extraction,structured_extraction_0,6,50,0.9,1.0,64,none,none,16.242364,4125.01533,61.567393,,26.738551,1.646223,12,67,55,3,9,72,0.763889,0.75,0.25,4.583333,5.583333,132.753937,73.474956,1593.04724,881.699476
llama32_1b_to_31_8b,llama_cross,meta-llama/Llama-3.2-1B,meta-llama/Llama-3.1-8B,structured_extraction,structured_extraction_0,6,100,0.0,1.0,64,none,none,15.604591,4101.357143,64.083705,,31.533898,2.020809,10,64,54,2,8,60,0.9,0.8,0.2,5.4,6.4,129.438472,70.715112,1294.384723,707.151118
llama32_1b_to_31_8b,llama_cross,meta-llama/Llama-3.2-1B,meta-llama/Llama-3.1-8B,structured_extraction,structured_extraction_0,6,100,0.9,1.0,64,none,none,15.747569,4127.621136,63.501864,,28.38847,1.802721,11,65,54,2,9,66,0.818182,0.818182,0.181818,4.909091,5.909091,131.87683,73.642893,1450.645125,810.071824
llama32_1b_to_31_8b,llama_cross,meta-llama/Llama-3.2-1B,meta-llama/Llama-3.1-8B,structured_extraction,structured_extraction_0,6,150,0.0,1.0,64,none,none,15.605238,4101.186919,64.081046,,31.555789,2.022128,10,64,54,1,9,60,0.9,0.9,0.1,5.4,6.4,129.409256,70.688465,1294.092558,706.884653
llama32_1b_to_31_8b,llama_cross,meta-llama/Llama-3.2-1B,meta-llama/Llama-3.1-8B,structured_extraction,structured_extraction_0,6,150,0.9,1.0,64,none,none,15.7528,4126.250648,63.480779,,28.598172,1.815434,11,65,54,2,9,66,0.818182,0.818182,0.181818,4.909091,5.909091,130.566382,73.512482,1436.230201,808.637307
llama32_1b_to_31_8b,llama_cross,meta-llama/Llama-3.2-1B,meta-llama/Llama-3.1-8B,structured_extraction,structured_extraction_0,6,200,0.0,1.0,64,none,none,15.590055,4105.181245,64.143457,,31.628642,2.02877,10,64,54,1,9,60,0.9,0.9,0.1,5.4,6.4,128.777304,70.77816,1287.773037,707.781604
llama32_1b_to_31_8b,llama_cross,meta-llama/Llama-3.2-1B,meta-llama/Llama-3.1-8B,structured_extraction,structured_extraction_0,6,200,0.9,1.0,64,none,none,16.711475,4128.899376,59.839121,,27.629237,1.653309,12,69,57,3,9,72,0.791667,0.75,0.25,4.75,5.75,131.885192,73.50496,1582.622298,882.059523
llama32_1b_to_31_8b,llama_cross,meta-llama/Llama-3.2-1B,meta-llama/Llama-3.1-8B,structured_extraction,structured_extraction_0,8,50,0.0,1.0,64,none,none,17.558394,4100.602832,56.952817,,36.10531,2.056299,8,72,64,0,8,64,1.0,1.0,0.0,8,9,173.214855,72.421137,1385.718843,579.369093
llama32_1b_to_31_8b,llama_cross,meta-llama/Llama-3.2-1B,meta-llama/Llama-3.1-8B,structured_extraction,structured_extraction_0,8,50,0.9,1.0,64,none,none,16.255186,4121.761431,61.518827,,32.733091,2.013701,8,67,59,1,7,64,0.921875,0.875,0.125,7.375,8.375,176.319521,76.150631,1410.556164,609.205049
llama32_1b_to_31_8b,llama_cross,meta-llama/Llama-3.2-1B,meta-llama/Llama-3.1-8B,structured_extraction,structured_extraction_0,8,100,0.0,1.0,64,none,none,17.068559,4101.107889,58.587256,,35.26513,2.066087,8,70,62,1,7,64,0.96875,0.875,0.125,7.75,8.75,172.366023,72.211583,1378.928185,577.692667
llama32_1b_to_31_8b,llama_cross,meta-llama/Llama-3.2-1B,meta-llama/Llama-3.1-8B,structured_extraction,structured_extraction_0,8,100,0.9,1.0,64,none,none,16.74121,4121.565861,59.732839,,30.32749,1.811547,9,69,60,3,6,72,0.833333,0.666667,0.333333,6.666667,7.666667,173.988191,75.551797,1565.893715,679.966173
llama32_1b_to_31_8b,llama_cross,meta-llama/Llama-3.2-1B,meta-llama/Llama-3.1-8B,structured_extraction,structured_extraction_0,8,150,0.0,1.0,64,none,none,16.802038,4106.6447,59.51659,,34.805032,2.071477,8,69,61,1,7,64,0.953125,0.875,0.125,7.625,8.625,172.239098,72.097435,1377.912783,576.779479
llama32_1b_to_31_8b,llama_cross,meta-llama/Llama-3.2-1B,meta-llama/Llama-3.1-8B,structured_extraction,structured_extraction_0,8,150,0.9,1.0,64,none,none,16.982281,4121.9434,58.884906,,34.320313,2.020948,8,70,62,1,7,64,0.96875,0.875,0.125,7.75,8.75,175.330661,76.133375,1402.645289,609.066998
llama32_1b_to_31_8b,llama_cross,meta-llama/Llama-3.2-1B,meta-llama/Llama-3.1-8B,structured_extraction,structured_extraction_0,8,200,0.0,1.0,64,none,none,16.325715,4103.955106,61.253061,,33.833633,2.072414,8,67,59,2,6,64,0.921875,0.75,0.25,7.375,8.375,171.84541,72.15706,1374.76328,577.256481
llama32_1b_to_31_8b,llama_cross,meta-llama/Llama-3.2-1B,meta-llama/Llama-3.1-8B,structured_extraction,structured_extraction_0,8,200,0.9,1.0,64,none,none,16.984771,4121.339133,58.876273,,34.274859,2.017976,8,70,62,1,7,64,0.96875,0.875,0.125,7.75,8.75,175.711589,76.100073,1405.692714,608.800584
llama32_1b_to_31_8b,llama_cross,meta-llama/Llama-3.2-1B,meta-llama/Llama-3.1-8B,structured_extraction,structured_extraction_0,10,50,0.0,1.0,64,none,none,15.822562,4108.057782,63.200889,,28.238618,1.784706,8,65,57,4,4,80,0.7125,0.5,0.5,7.125,8.125,211.260473,72.882667,1690.083785,583.061333
llama32_1b_to_31_8b,llama_cross,meta-llama/Llama-3.2-1B,meta-llama/Llama-3.1-8B,structured_extraction,structured_extraction_0,10,50,0.9,1.0,64,none,none,15.527029,4121.844588,64.403822,,30.415034,1.958844,7,64,57,2,5,70,0.814286,0.714286,0.285714,8.142857,9.142857,218.707606,78.194878,1530.95324,547.364147
llama32_1b_to_31_8b,llama_cross,meta-llama/Llama-3.2-1B,meta-llama/Llama-3.1-8B,structured_extraction,structured_extraction_0,10,100,0.0,1.0,64,none,none,16.087347,4102.603162,62.160654,,37.825003,2.351227,6,66,60,0,6,60,1.0,1.0,0.0,10,11,212.885308,73.799441,1277.311849,442.796646
llama32_1b_to_31_8b,llama_cross,meta-llama/Llama-3.2-1B,meta-llama/Llama-3.1-8B,structured_extraction,structured_extraction_0,10,100,0.9,1.0,64,none,none,15.768789,4122.066743,63.416411,,24.159019,1.532078,9,65,56,5,4,90,0.622222,0.444444,0.555556,6.222222,7.222222,218.46871,77.118678,1966.21839,694.068105
llama32_1b_to_31_8b,llama_cross,meta-llama/Llama-3.2-1B,meta-llama/Llama-3.1-8B,structured_extraction,structured_extraction_0,10,150,0.0,1.0,64,none,none,16.100046,4099.367075,62.111622,,37.916679,2.355066,6,66,60,0,6,60,1.0,1.0,0.0,10,11,212.129033,73.805317,1272.774198,442.831901
llama32_1b_to_31_8b,llama_cross,meta-llama/Llama-3.2-1B,meta-llama/Llama-3.1-8B,structured_extraction,structured_extraction_0,10,150,0.9,1.0,64,none,none,16.249118,4123.300755,61.541802,,31.597373,1.944559,7,67,60,2,5,70,0.857143,0.714286,0.285714,8.571429,9.571429,220.497091,78.471009,1543.479634,549.297063
llama32_1b_to_31_8b,llama_cross,meta-llama/Llama-3.2-1B,meta-llama/Llama-3.1-8B,structured_extraction,structured_extraction_0,10,200,0.0,1.0,64,none,none,16.091812,4101.464684,62.143404,,37.719479,2.344017,6,66,60,0,6,60,1.0,1.0,0.0,10,11,213.609697,73.857371,1281.658181,443.144228
llama32_1b_to_31_8b,llama_cross,meta-llama/Llama-3.2-1B,meta-llama/Llama-3.1-8B,structured_extraction,structured_extraction_0,10,200,0.9,1.0,64,none,none,15.998047,4125.503535,62.507629,,36.199605,2.262751,6,66,60,0,6,60,1.0,1.0,0.0,10,11,220.570078,79.138354,1323.42047,474.830121
llama32_1b_to_31_8b,llama_cross,meta-llama/Llama-3.2-1B,meta-llama/Llama-3.1-8B,structured_extraction,structured_extraction_1,4,50,0.0,1.0,64,none,none,15.845054,4102.226589,63.111178,,31.506099,1.988387,13,65,52,0,13,52,1.0,1.0,0.0,4,5,86.891427,69.604372,1129.588553,904.856831
llama32_1b_to_31_8b,llama_cross,meta-llama/Llama-3.2-1B,meta-llama/Llama-3.1-8B,structured_extraction,structured_extraction_1,4,50,0.9,1.0,64,none,none,15.501472,4128.640093,64.510001,,24.8641,1.603983,16,64,48,7,9,64,0.75,0.5625,0.4375,3,4,87.395878,71.397194,1398.334055,1142.355112
llama32_1b_to_31_8b,llama_cross,meta-llama/Llama-3.2-1B,meta-llama/Llama-3.1-8B,structured_extraction,structured_extraction_1,4,100,0.0,1.0,64,none,none,15.83357,4105.201867,63.156952,,31.428455,1.984925,13,65,52,0,13,52,1.0,1.0,0.0,4,5,87.278158,69.602606,1134.616057,904.833877
llama32_1b_to_31_8b,llama_cross,meta-llama/Llama-3.2-1B,meta-llama/Llama-3.1-8B,structured_extraction,structured_extraction_1,4,100,0.9,1.0,64,none,none,16.471574,4128.32447,60.710654,,24.81484,1.506525,17,68,51,5,12,68,0.75,0.705882,0.294118,3,4,87.830002,71.333904,1493.110033,1212.676366
llama32_1b_to_31_8b,llama_cross,meta-llama/Llama-3.2-1B,meta-llama/Llama-3.1-8B,structured_extraction,structured_extraction_1,4,150,0.0,1.0,64,none,none,15.845141,4102.203917,63.110829,,31.205402,1.969399,13,65,52,0,13,52,1.0,1.0,0.0,4,5,88.192484,69.761897,1146.502297,906.904656
llama32_1b_to_31_8b,llama_cross,meta-llama/Llama-3.2-1B,meta-llama/Llama-3.1-8B,structured_extraction,structured_extraction_1,4,150,0.9,1.0,64,none,none,15.995476,4126.166687,62.517677,,22.750884,1.422332,18,66,48,8,10,72,0.666667,0.555556,0.444444,2.666667,3.666667,87.942903,71.22412,1582.972261,1282.034167
llama32_1b_to_31_8b,llama_cross,meta-llama/Llama-3.2-1B,meta-llama/Llama-3.1-8B,structured_extraction,structured_extraction_1,4,200,0.0,1.0,64,none,none,15.840588,4103.383058,63.12897,,30.964486,1.954756,13,65,52,0,13,52,1.0,1.0,0.0,4,5,89.189352,69.918303,1159.461572,908.937937
llama32_1b_to_31_8b,llama_cross,meta-llama/Llama-3.2-1B,meta-llama/Llama-3.1-8B,structured_extraction,structured_extraction_1,4,200,0.9,1.0,64,none,none,15.533525,4120.120869,64.376889,,24.692034,1.589596,16,64,48,6,10,64,0.75,0.625,0.375,3,4,88.274856,71.613436,1412.397693,1145.814975
llama32_1b_to_31_8b,llama_cross,meta-llama/Llama-3.2-1B,meta-llama/Llama-3.1-8B,structured_extraction,structured_extraction_1,6,50,0.0,1.0,64,none,none,17.0417,4107.571447,58.679592,,34.227875,2.008478,10,70,60,0,10,60,1.0,1.0,0.0,6,7,130.408554,71.15946,1304.08554,711.594601
llama32_1b_to_31_8b,llama_cross,meta-llama/Llama-3.2-1B,meta-llama/Llama-3.1-8B,structured_extraction,structured_extraction_1,6,50,0.9,1.0,64,none,none,15.528184,4121.537899,64.39903,,28.041041,1.805816,11,64,53,4,7,66,0.80303,0.636364,0.363636,4.818182,5.818182,130.929231,73.885396,1440.22154,812.739358
llama32_1b_to_31_8b,llama_cross,meta-llama/Llama-3.2-1B,meta-llama/Llama-3.1-8B,structured_extraction,structured_extraction_1,6,100,0.0,1.0,64,none,none,17.036967,4108.712657,58.695895,,34.402865,2.019307,10,70,60,0,10,60,1.0,1.0,0.0,6,7,129.404668,71.150048,1294.046681,711.500475
llama32_1b_to_31_8b,llama_cross,meta-llama/Llama-3.2-1B,meta-llama/Llama-3.1-8B,structured_extraction,structured_extraction_1,6,100,0.9,1.0,64,none,none,15.762842,4123.621799,63.440335,,28.380498,1.800468,11,65,54,4,7,66,0.818182,0.636364,0.363636,4.909091,5.909091,131.357289,74.115929,1444.930182,815.275215
llama32_1b_to_31_8b,llama_cross,meta-llama/Llama-3.2-1B,meta-llama/Llama-3.1-8B,structured_extraction,structured_extraction_1,6,150,0.0,1.0,64,none,none,15.577371,4108.523749,64.195684,,31.595968,2.028325,10,64,54,2,8,60,0.9,0.8,0.2,5.4,6.4,128.581601,71.13448,1285.816015,711.344796
llama32_1b_to_31_8b,llama_cross,meta-llama/Llama-3.2-1B,meta-llama/Llama-3.1-8B,structured_extraction,structured_extraction_1,6,150,0.9,1.0,64,none,none,15.773029,4120.958636,63.399364,,26.148117,1.657774,12,65,53,5,7,72,0.736111,0.583333,0.416667,4.416667,5.416667,130.874642,73.675838,1570.495702,884.110057
llama32_1b_to_31_8b,llama_cross,meta-llama/Llama-3.2-1B,meta-llama/Llama-3.1-8B,structured_extraction,structured_extraction_1,6,200,0.0,1.0,64,none,none,16.316051,4106.385696,61.289339,,33.141883,2.031244,10,67,57,2,8,60,0.95,0.8,0.2,5.7,6.7,128.22721,71.04396,1282.272098,710.439604
llama32_1b_to_31_8b,llama_cross,meta-llama/Llama-3.2-1B,meta-llama/Llama-3.1-8B,structured_extraction,structured_extraction_1,6,200,0.9,1.0,64,none,none,15.776987,4119.92473,63.383457,,26.05214,1.651275,12,65,53,5,7,72,0.736111,0.583333,0.416667,4.416667,5.416667,131.52643,73.782368,1578.317154,885.388416
llama32_1b_to_31_8b,llama_cross,meta-llama/Llama-3.2-1B,meta-llama/Llama-3.1-8B,structured_extraction,structured_extraction_1,8,50,0.0,1.0,64,none,none,15.58601,4106.246467,64.160101,,32.524885,2.0868,8,64,56,2,6,64,0.875,0.75,0.25,7,8,170.105015,72.457465,1360.840123,579.659722
llama32_1b_to_31_8b,llama_cross,meta-llama/Llama-3.2-1B,meta-llama/Llama-3.1-8B,structured_extraction,structured_extraction_1,8,50,0.9,1.0,64,none,none,16.681554,4136.305314,59.946454,,27.213192,1.631334,10,69,59,4,6,80,0.7375,0.6,0.4,5.9,6.9,174.698394,75.728622,1746.983939,757.286221
llama32_1b_to_31_8b,llama_cross,meta-llama/Llama-3.2-1B,meta-llama/Llama-3.1-8B,structured_extraction,structured_extraction_1,8,100,0.0,1.0,64,none,none,17.539036,4105.128599,57.015675,,32.30891,1.842114,9,72,63,2,7,72,0.875,0.777778,0.222222,7,8,172.068169,72.167946,1548.613518,649.511512
llama32_1b_to_31_8b,llama_cross,meta-llama/Llama-3.2-1B,meta-llama/Llama-3.1-8B,structured_extraction,structured_extraction_1,8,100,0.9,1.0,64,none,none,15.507893,4126.930694,64.483292,,31.336981,2.020712,8,64,56,2,6,64,0.875,0.75,0.25,7,8,175.360813,76.606533,1402.886505,612.852265
llama32_1b_to_31_8b,llama_cross,meta-llama/Llama-3.2-1B,meta-llama/Llama-3.1-8B,structured_extraction,structured_extraction_1,8,150,0.0,1.0,64,none,none,17.535549,4105.944918,57.027013,,32.408637,1.848168,9,72,63,2,7,72,0.875,0.777778,0.222222,7,8,171.290111,72.193616,1541.611002,649.742548
llama32_1b_to_31_8b,llama_cross,meta-llama/Llama-3.2-1B,meta-llama/Llama-3.1-8B,structured_extraction,structured_extraction_1,8,150,0.9,1.0,64,none,none,15.503315,4128.149292,64.502333,,23.112305,1.490798,11,64,53,6,5,88,0.602273,0.454545,0.545455,4.818182,5.818182,173.554969,75.352674,1909.104662,828.879411
llama32_1b_to_31_8b,llama_cross,meta-llama/Llama-3.2-1B,meta-llama/Llama-3.1-8B,structured_extraction,structured_extraction_1,8,200,0.0,1.0,64,none,none,16.305831,4108.959464,61.327753,,30.079322,1.844697,9,67,58,3,6,72,0.805556,0.666667,0.333333,6.444444,7.444444,172.077012,72.164574,1548.693105,649.481164
llama32_1b_to_31_8b,llama_cross,meta-llama/Llama-3.2-1B,meta-llama/Llama-3.1-8B,structured_extraction,structured_extraction_1,8,200,0.9,1.0,64,none,none,15.534887,4119.759657,64.371245,,31.194366,2.00802,8,64,56,2,6,64,0.875,0.75,0.25,7,8,176.524694,76.626809,1412.197549,613.014472
llama32_1b_to_31_8b,llama_cross,meta-llama/Llama-3.2-1B,meta-llama/Llama-3.1-8B,structured_extraction,structured_extraction_1,10,50,0.0,1.0,64,none,none,17.284268,4107.781825,57.856082,,27.225113,1.575138,9,71,62,4,5,90,0.688889,0.555556,0.444444,6.888889,7.888889,213.508107,72.827475,1921.57296,655.447272
llama32_1b_to_31_8b,llama_cross,meta-llama/Llama-3.2-1B,meta-llama/Llama-3.1-8B,structured_extraction,structured_extraction_1,10,50,0.9,1.0,64,none,none,16.76155,4116.56439,59.660353,,25.96724,1.549215,9,69,60,5,4,90,0.666667,0.444444,0.555556,6.666667,7.666667,214.802569,77.067316,1933.223124,693.60584
llama32_1b_to_31_8b,llama_cross,meta-llama/Llama-3.2-1B,meta-llama/Llama-3.1-8B,structured_extraction,structured_extraction_1,10,100,0.0,1.0,64,none,none,16.56792,4104.317221,60.357606,,26.42292,1.594824,9,68,59,6,3,90,0.655556,0.333333,0.666667,6.555556,7.555556,209.811049,72.73604,1888.299442,654.624356
llama32_1b_to_31_8b,llama_cross,meta-llama/Llama-3.2-1B,meta-llama/Llama-3.1-8B,structured_extraction,structured_extraction_1,10,100,0.9,1.0,64,none,none,17.245304,4117.062829,57.9868,,21.783689,1.263166,11,71,60,6,5,110,0.545455,0.454545,0.545455,5.454545,6.454545,216.748202,76.558664,2384.230219,842.1453
llama32_1b_to_31_8b,llama_cross,meta-llama/Llama-3.2-1B,meta-llama/Llama-3.1-8B,structured_extraction,structured_extraction_1,10,150,0.0,1.0,64,none,none,15.561946,4112.596115,64.259314,,31.17234,2.003113,7,64,57,2,5,70,0.814286,0.714286,0.285714,8.142857,9.142857,215.758281,73.708063,1510.30797,515.95644
llama32_1b_to_31_8b,llama_cross,meta-llama/Llama-3.2-1B,meta-llama/Llama-3.1-8B,structured_extraction,structured_extraction_1,10,150,0.9,1.0,64,none,none,17.197696,4128.459978,58.147324,,33.12343,1.926039,7,71,64,2,5,70,0.914286,0.714286,0.285714,9.142857,10.142857,223.225192,78.839895,1562.576342,551.879265
llama32_1b_to_31_8b,llama_cross,meta-llama/Llama-3.2-1B,meta-llama/Llama-3.1-8B,structured_extraction,structured_extraction_1,10,200,0.0,1.0,64,none,none,15.816891,4109.530659,63.223549,,28.073133,1.774883,8,65,57,4,4,80,0.7125,0.5,0.5,7.125,8.125,212.583941,73.231895,1700.671528,585.855158
llama32_1b_to_31_8b,llama_cross,meta-llama/Llama-3.2-1B,meta-llama/Llama-3.1-8B,structured_extraction,structured_extraction_1,10,200,0.9,1.0,64,none,none,17.657588,4134.200066,56.632878,,34.334402,1.944456,7,73,66,1,6,70,0.942857,0.857143,0.142857,9.428571,10.428571,220.782831,78.78598,1545.47982,551.50186
