aXce1-z/LLMSpeculativeSampling-model-pair-search-v2/outputs/run_20260313_101519_int8_int8/trial_results.csv
pair_name,family,approx_model_name,target_model_name,task,prompt_id,gamma,top_k,top_p,temperature,max_tokens,approx_quant,target_quant,baseline_large_tps,baseline_large_elapsed_ms,avg_target_baseline_generate_ms_per_token,baseline_small_tps,speculative_tps,speedup,rounds,generated_tokens,accepted_count,resample_count,target_sample_count,proposed_draft_tokens,acceptance_rate,all_accept_round_rate,resample_round_rate,avg_accepted_per_round,avg_contributed_per_round,avg_draft_generate_ms_per_round,avg_target_verify_ms_per_round,draft_generate_ms_total,target_verify_ms_total
llama32_1b_to_31_8b,llama_cross,meta-llama/Llama-3.2-1B,meta-llama/Llama-3.1-8B,continuation,continuation_0,4,50,0.0,1.0,64,int8,int8,7.403023,9185.437055,135.079957,,9.460266,1.277892,16,68,52,5,11,64,0.8125,0.6875,0.3125,3.25,4.25,276.334155,170.680013,4421.346481,2730.880213
llama32_1b_to_31_8b,llama_cross,meta-llama/Llama-3.2-1B,meta-llama/Llama-3.1-8B,continuation,continuation_0,4,50,0.9,1.0,64,int8,int8,7.3021,9312.389466,136.946904,,10.684262,1.463177,14,68,54,1,13,56,0.964286,0.928571,0.071429,3.857143,4.857143,277.400111,174.855613,3883.601556,2447.978584
llama32_1b_to_31_8b,llama_cross,meta-llama/Llama-3.2-1B,meta-llama/Llama-3.1-8B,continuation,continuation_0,4,100,0.0,1.0,64,int8,int8,7.100692,9294.86909,140.83135,,8.188791,1.153238,18,66,48,8,10,72,0.666667,0.555556,0.444444,2.666667,3.666667,275.625146,170.02581,4961.252621,3060.464578
llama32_1b_to_31_8b,llama_cross,meta-llama/Llama-3.2-1B,meta-llama/Llama-3.1-8B,continuation,continuation_0,4,100,0.9,1.0,64,int8,int8,6.923082,9244.437541,144.444337,,9.93613,1.435218,14,64,50,3,11,56,0.892857,0.785714,0.214286,3.571429,4.571429,278.315519,179.482447,3896.41726,2512.754259
llama32_1b_to_31_8b,llama_cross,meta-llama/Llama-3.2-1B,meta-llama/Llama-3.1-8B,continuation,continuation_0,4,150,0.0,1.0,64,int8,int8,7.352234,9112.87598,136.013074,,10.60197,1.442007,14,67,53,2,12,56,0.946429,0.857143,0.142857,3.785714,4.785714,277.80854,171.349422,3889.319555,2398.891909
llama32_1b_to_31_8b,llama_cross,meta-llama/Llama-3.2-1B,meta-llama/Llama-3.1-8B,continuation,continuation_0,4,150,0.9,1.0,64,int8,int8,7.189005,9041.584912,139.101306,,10.416004,1.44888,14,65,51,2,12,56,0.910714,0.857143,0.142857,3.642857,4.642857,271.594603,171.914079,3802.324441,2406.79711
llama32_1b_to_31_8b,llama_cross,meta-llama/Llama-3.2-1B,meta-llama/Llama-3.1-8B,continuation,continuation_0,4,200,0.0,1.0,64,int8,int8,7.431208,8881.463663,134.567631,,9.883004,1.329932,15,66,51,3,12,60,0.85,0.8,0.2,3.4,4.4,272.235074,170.791888,4083.526105,2561.878322
llama32_1b_to_31_8b,llama_cross,meta-llama/Llama-3.2-1B,meta-llama/Llama-3.1-8B,continuation,continuation_0,4,200,0.9,1.0,64,int8,int8,7.208215,9156.220042,138.730607,,9.683996,1.343467,15,66,51,4,11,60,0.85,0.733333,0.266667,3.4,4.4,277.00125,175.145545,4155.018748,2627.183175
llama32_1b_to_31_8b,llama_cross,meta-llama/Llama-3.2-1B,meta-llama/Llama-3.1-8B,continuation,continuation_0,6,50,0.0,1.0,64,int8,int8,7.201293,9303.884908,138.863954,,10.457475,1.452166,11,67,56,3,8,66,0.848485,0.727273,0.272727,5.090909,6.090909,404.946694,174.759589,4454.413639,1922.355478
llama32_1b_to_31_8b,llama_cross,meta-llama/Llama-3.2-1B,meta-llama/Llama-3.1-8B,continuation,continuation_0,6,50,0.9,1.0,64,int8,int8,7.529472,9031.17808,132.811442,,8.825024,1.172064,13,68,55,5,8,78,0.705128,0.615385,0.384615,4.230769,5.230769,413.64988,176.551011,5377.448444,2295.163147
llama32_1b_to_31_8b,llama_cross,meta-llama/Llama-3.2-1B,meta-llama/Llama-3.1-8B,continuation,continuation_0,6,100,0.0,1.0,64,int8,int8,7.625357,9179.897548,131.141394,,10.715511,1.405247,11,70,59,2,9,66,0.893939,0.818182,0.181818,5.363636,6.363636,411.12832,179.906128,4522.411523,1978.967406
llama32_1b_to_31_8b,llama_cross,meta-llama/Llama-3.2-1B,meta-llama/Llama-3.1-8B,continuation,continuation_0,6,100,0.9,1.0,64,int8,int8,7.579564,9235.359229,131.933703,,9.942295,1.311724,12,70,58,3,9,72,0.805556,0.75,0.25,4.833333,5.833333,406.040607,178.044204,4872.487285,2136.530443
llama32_1b_to_31_8b,llama_cross,meta-llama/Llama-3.2-1B,meta-llama/Llama-3.1-8B,continuation,continuation_0,6,150,0.0,1.0,64,int8,int8,7.601749,9208.407672,131.548681,,10.763814,1.415966,11,70,59,3,8,66,0.893939,0.727273,0.272727,5.363636,6.363636,413.252434,175.025883,4545.776772,1925.284708
llama32_1b_to_31_8b,llama_cross,meta-llama/Llama-3.2-1B,meta-llama/Llama-3.1-8B,continuation,continuation_0,6,150,0.9,1.0,64,int8,int8,6.871612,9313.680278,145.526254,,9.036658,1.315071,12,64,52,6,6,72,0.722222,0.5,0.5,4.333333,5.333333,409.766082,177.73349,4917.192979,2132.801882
llama32_1b_to_31_8b,llama_cross,meta-llama/Llama-3.2-1B,meta-llama/Llama-3.1-8B,continuation,continuation_0,6,200,0.0,1.0,64,int8,int8,7.525882,9035.48575,132.87479,,8.740315,1.161367,13,68,55,5,8,78,0.705128,0.615385,0.384615,4.230769,5.230769,418.988944,176.875619,5446.856271,2299.383044
llama32_1b_to_31_8b,llama_cross,meta-llama/Llama-3.2-1B,meta-llama/Llama-3.1-8B,continuation,continuation_0,6,200,0.9,1.0,64,int8,int8,6.992087,9153.204027,143.018813,,9.042653,1.29327,12,64,52,6,6,72,0.722222,0.5,0.5,4.333333,5.333333,409.6418,177.447125,4915.701606,2129.365494
llama32_1b_to_31_8b,llama_cross,meta-llama/Llama-3.2-1B,meta-llama/Llama-3.1-8B,continuation,continuation_0,8,50,0.0,1.0,64,int8,int8,7.767766,9140.33707,128.737142,,8.70674,1.120881,11,71,60,4,7,88,0.681818,0.636364,0.363636,5.454545,6.454545,542.803202,195.49762,5970.835218,2150.47382
llama32_1b_to_31_8b,llama_cross,meta-llama/Llama-3.2-1B,meta-llama/Llama-3.1-8B,continuation,continuation_0,8,50,0.9,1.0,64,int8,int8,6.915523,9254.542071,144.60222,,10.740715,1.553131,8,64,56,2,6,64,0.875,0.75,0.25,7,8,545.061566,196.467716,4360.49253,1571.741726
llama32_1b_to_31_8b,llama_cross,meta-llama/Llama-3.2-1B,meta-llama/Llama-3.1-8B,continuation,continuation_0,8,100,0.0,1.0,64,int8,int8,7.287093,9057.11017,137.228942,,11.12935,1.527269,8,66,58,1,7,64,0.90625,0.875,0.125,7.25,8.25,543.911473,193.87547,4351.291783,1551.003763
llama32_1b_to_31_8b,llama_cross,meta-llama/Llama-3.2-1B,meta-llama/Llama-3.1-8B,continuation,continuation_0,8,100,0.9,1.0,64,int8,int8,7.10235,9151.900359,140.798467,,8.730953,1.229305,10,65,55,5,5,80,0.6875,0.5,0.5,5.5,6.5,541.861783,199.576659,5418.61783,1995.766593
llama32_1b_to_31_8b,llama_cross,meta-llama/Llama-3.2-1B,meta-llama/Llama-3.1-8B,continuation,continuation_0,8,150,0.0,1.0,64,int8,int8,7.450276,9127.178953,134.22322,,11.284942,1.514701,8,68,60,1,7,64,0.9375,0.875,0.125,7.5,8.5,554.541346,195.123077,4436.330766,1560.984613
llama32_1b_to_31_8b,llama_cross,meta-llama/Llama-3.2-1B,meta-llama/Llama-3.1-8B,continuation,continuation_0,8,150,0.9,1.0,64,int8,int8,7.532423,9293.157821,132.759397,,8.603377,1.142179,11,70,59,5,6,88,0.670455,0.545455,0.454545,5.363636,6.363636,540.701857,195.935524,5947.720422,2155.29076
llama32_1b_to_31_8b,llama_cross,meta-llama/Llama-3.2-1B,meta-llama/Llama-3.1-8B,continuation,continuation_0,8,200,0.0,1.0,64,int8,int8,7.518303,9044.594163,133.008738,,8.268379,1.099767,11,68,57,5,6,88,0.647727,0.545455,0.454545,5.181818,6.181818,551.437964,193.312935,6065.817608,2126.442282
llama32_1b_to_31_8b,llama_cross,meta-llama/Llama-3.2-1B,meta-llama/Llama-3.1-8B,continuation,continuation_0,8,200,0.9,1.0,64,int8,int8,7.387913,9204.223624,135.35623,,8.269757,1.119363,11,68,57,5,6,88,0.647727,0.545455,0.454545,5.181818,6.181818,547.47933,197.124355,6022.272632,2168.367905
llama32_1b_to_31_8b,llama_cross,meta-llama/Llama-3.2-1B,meta-llama/Llama-3.1-8B,continuation,continuation_0,10,50,0.0,1.0,64,int8,int8,7.712265,9206.115537,129.663599,,8.823591,1.144099,9,71,62,5,4,90,0.688889,0.444444,0.555556,6.888889,7.888889,694.388605,196.050728,6249.497442,1764.456554
llama32_1b_to_31_8b,llama_cross,meta-llama/Llama-3.2-1B,meta-llama/Llama-3.1-8B,continuation,continuation_0,10,50,0.9,1.0,64,int8,int8,7.931662,9203.619991,126.076986,,10.154341,1.280229,8,73,65,3,5,80,0.8125,0.625,0.375,8.125,9.125,693.569801,201.113025,5548.558407,1608.904201
llama32_1b_to_31_8b,llama_cross,meta-llama/Llama-3.2-1B,meta-llama/Llama-3.1-8B,continuation,continuation_0,10,100,0.0,1.0,64,int8,int8,7.785069,9248.473148,128.451016,,9.091824,1.167854,9,72,63,4,5,90,0.7,0.555556,0.444444,7,8,682.292035,194.169392,6140.628313,1747.524525
llama32_1b_to_31_8b,llama_cross,meta-llama/Llama-3.2-1B,meta-llama/Llama-3.1-8B,continuation,continuation_0,10,100,0.9,1.0,64,int8,int8,7.223131,9275.755588,138.444113,,9.255727,1.281401,8,67,59,4,4,80,0.7375,0.5,0.5,7.375,8.375,704.190431,197.03592,5633.52345,1576.287357
llama32_1b_to_31_8b,llama_cross,meta-llama/Llama-3.2-1B,meta-llama/Llama-3.1-8B,continuation,continuation_0,10,150,0.0,1.0,64,int8,int8,7.152405,9227.664857,139.813104,,12.51233,1.749388,6,66,60,0,6,60,1.0,1.0,0.0,10,11,678.890741,196.112142,4073.344448,1176.672854
llama32_1b_to_31_8b,llama_cross,meta-llama/Llama-3.2-1B,meta-llama/Llama-3.1-8B,continuation,continuation_0,10,150,0.9,1.0,64,int8,int8,7.950549,9307.533292,125.777477,,7.055314,0.8874,12,74,62,7,5,120,0.516667,0.416667,0.583333,5.166667,6.166667,673.738943,197.257006,8084.867319,2367.084073
llama32_1b_to_31_8b,llama_cross,meta-llama/Llama-3.2-1B,meta-llama/Llama-3.1-8B,continuation,continuation_0,10,200,0.0,1.0,64,int8,int8,6.999693,9143.258365,142.863412,,9.135003,1.305058,8,64,56,4,4,80,0.7,0.5,0.5,7,8,674.940768,197.339729,5399.526142,1578.717831
llama32_1b_to_31_8b,llama_cross,meta-llama/Llama-3.2-1B,meta-llama/Llama-3.1-8B,continuation,continuation_0,10,200,0.9,1.0,64,int8,int8,7.331136,9275.506056,136.404501,,8.438514,1.151051,9,68,59,4,5,90,0.655556,0.555556,0.444444,6.555556,7.555556,691.611859,200.434707,6224.506728,1803.912361
llama32_1b_to_31_8b,llama_cross,meta-llama/Llama-3.2-1B,meta-llama/Llama-3.1-8B,continuation,continuation_1,4,50,0.0,1.0,64,int8,int8,7.285895,9195.850965,137.251507,,9.840249,1.350589,15,67,52,2,13,60,0.866667,0.866667,0.133333,3.466667,4.466667,278.828577,172.86667,4182.428648,2593.000052
llama32_1b_to_31_8b,llama_cross,meta-llama/Llama-3.2-1B,meta-llama/Llama-3.1-8B,continuation,continuation_1,4,50,0.9,1.0,64,int8,int8,7.12197,9126.688127,140.410587,,9.499927,1.33389,15,65,50,4,11,60,0.833333,0.733333,0.266667,3.333333,4.333333,276.514948,177.363782,4147.724222,2660.456726
llama32_1b_to_31_8b,llama_cross,meta-llama/Llama-3.2-1B,meta-llama/Llama-3.1-8B,continuation,continuation_1,4,100,0.0,1.0,64,int8,int8,7.188271,9042.508558,139.115516,,10.90554,1.51713,13,65,52,0,13,52,1.0,1.0,0.0,4,5,282.422268,173.765031,3671.489483,2258.945408
llama32_1b_to_31_8b,llama_cross,meta-llama/Llama-3.2-1B,meta-llama/Llama-3.1-8B,continuation,continuation_1,4,100,0.9,1.0,64,int8,int8,7.303212,9037.119542,136.926054,,8.605154,1.17827,17,66,49,6,11,68,0.720588,0.647059,0.352941,2.882353,3.882353,276.936301,172.14025,4707.91712,2926.384245
llama32_1b_to_31_8b,llama_cross,meta-llama/Llama-3.2-1B,meta-llama/Llama-3.1-8B,continuation,continuation_1,4,150,0.0,1.0,64,int8,int8,7.390553,8930.319701,135.307874,,10.544485,1.426752,14,66,52,1,13,56,0.928571,0.928571,0.071429,3.714286,4.714286,273.744288,171.142193,3832.420026,2395.990703
llama32_1b_to_31_8b,llama_cross,meta-llama/Llama-3.2-1B,meta-llama/Llama-3.1-8B,continuation,continuation_1,4,150,0.9,1.0,64,int8,int8,7.116371,9133.868701,140.521057,,10.77313,1.513852,13,65,52,0,13,52,1.0,1.0,0.0,4,5,285.314169,176.531669,3709.084196,2294.911695
llama32_1b_to_31_8b,llama_cross,meta-llama/Llama-3.2-1B,meta-llama/Llama-3.1-8B,continuation,continuation_1,4,200,0.0,1.0,64,int8,int8,7.190064,8901.172515,139.080821,,11.081171,1.541178,13,64,51,1,12,52,0.980769,0.923077,0.076923,3.923077,4.923077,272.907105,169.08773,3547.792363,2198.140493
llama32_1b_to_31_8b,llama_cross,meta-llama/Llama-3.2-1B,meta-llama/Llama-3.1-8B,continuation,continuation_1,4,200,0.9,1.0,64,int8,int8,7.150591,9090.157141,139.848571,,10.60551,1.483165,13,65,52,0,13,52,1.0,1.0,0.0,4,5,289.606325,179.492635,3764.882222,2333.40426
llama32_1b_to_31_8b,llama_cross,meta-llama/Llama-3.2-1B,meta-llama/Llama-3.1-8B,continuation,continuation_1,6,50,0.0,1.0,64,int8,int8,7.418106,9031.955603,134.805308,,8.662725,1.167781,13,67,54,5,8,78,0.692308,0.615385,0.384615,4.153846,5.153846,416.097071,176.316482,5409.261921,2292.11427
llama32_1b_to_31_8b,llama_cross,meta-llama/Llama-3.2-1B,meta-llama/Llama-3.1-8B,continuation,continuation_1,6,50,0.9,1.0,64,int8,int8,7.455725,9388.758092,134.125116,,9.006435,1.207989,13,70,57,4,9,78,0.730769,0.692308,0.307692,4.384615,5.384615,416.327436,178.930752,5412.256672,2326.099781
llama32_1b_to_31_8b,llama_cross,meta-llama/Llama-3.2-1B,meta-llama/Llama-3.1-8B,continuation,continuation_1,6,100,0.0,1.0,64,int8,int8,7.527482,8900.719293,132.846557,,11.406154,1.515268,10,67,57,1,9,60,0.95,0.9,0.1,5.7,6.7,410.333397,174.15426,4103.33397,1741.542599
llama32_1b_to_31_8b,llama_cross,meta-llama/Llama-3.2-1B,meta-llama/Llama-3.1-8B,continuation,continuation_1,6,100,0.9,1.0,64,int8,int8,7.187693,9182.361516,139.12669,,9.28644,1.291992,12,66,54,5,7,72,0.75,0.583333,0.416667,4.5,5.5,410.397344,178.977621,4924.768128,2147.731457
llama32_1b_to_31_8b,llama_cross,meta-llama/Llama-3.2-1B,meta-llama/Llama-3.1-8B,continuation,continuation_1,6,150,0.0,1.0,64,int8,int8,7.566846,8854.416074,132.155464,,11.565085,1.528389,10,67,57,1,9,60,0.95,0.9,0.1,5.7,6.7,404.887728,171.627987,4048.877277,1716.279865
llama32_1b_to_31_8b,llama_cross,meta-llama/Llama-3.2-1B,meta-llama/Llama-3.1-8B,continuation,continuation_1,6,150,0.9,1.0,64,int8,int8,7.527739,9166.09868,132.84201,,10.61005,1.40946,11,69,58,2,9,66,0.878788,0.818182,0.181818,5.272727,6.272727,411.359753,177.092269,4524.957282,1948.014959
llama32_1b_to_31_8b,llama_cross,meta-llama/Llama-3.2-1B,meta-llama/Llama-3.1-8B,continuation,continuation_1,6,200,0.0,1.0,64,int8,int8,7.82598,8944.566125,127.779516,,10.847319,1.386065,11,70,59,2,9,66,0.893939,0.818182,0.181818,5.363636,6.363636,408.384423,175.48183,4492.228657,1930.300132
llama32_1b_to_31_8b,llama_cross,meta-llama/Llama-3.2-1B,meta-llama/Llama-3.1-8B,continuation,continuation_1,6,200,0.9,1.0,64,int8,int8,7.122992,8984.988761,140.390449,,8.390107,1.177891,13,64,51,7,6,78,0.653846,0.461538,0.538462,3.923077,4.923077,406.617892,177.592458,5286.0326,2308.701955
llama32_1b_to_31_8b,llama_cross,meta-llama/Llama-3.2-1B,meta-llama/Llama-3.1-8B,continuation,continuation_1,8,50,0.0,1.0,64,int8,int8,7.433415,9013.353899,134.52767,,10.001788,1.345517,9,67,58,2,7,72,0.805556,0.777778,0.222222,6.444444,7.444444,547.726734,193.418931,4929.540607,1740.770382
llama32_1b_to_31_8b,llama_cross,meta-llama/Llama-3.2-1B,meta-llama/Llama-3.1-8B,continuation,continuation_1,8,50,0.9,1.0,64,int8,int8,7.769663,9266.811729,128.705718,,8.607374,1.107818,11,72,61,5,6,88,0.693182,0.545455,0.454545,5.545455,6.545455,557.090553,200.194817,6127.996079,2202.142982
llama32_1b_to_31_8b,llama_cross,meta-llama/Llama-3.2-1B,meta-llama/Llama-3.1-8B,continuation,continuation_1,8,100,0.0,1.0,64,int8,int8,7.521148,8908.214846,132.958431,,9.156402,1.217421,10,67,57,4,6,80,0.7125,0.6,0.4,5.7,6.7,537.280327,191.384541,5372.803265,1913.84541
llama32_1b_to_31_8b,llama_cross,meta-llama/Llama-3.2-1B,meta-llama/Llama-3.1-8B,continuation,continuation_1,8,100,0.9,1.0,64,int8,int8,7.475069,9096.90577,133.778026,,10.05856,1.345614,9,68,59,3,6,72,0.819444,0.666667,0.333333,6.555556,7.555556,549.067024,198.647011,4941.60322,1787.823096
llama32_1b_to_31_8b,llama_cross,meta-llama/Llama-3.2-1B,meta-llama/Llama-3.1-8B,continuation,continuation_1,8,150,0.0,1.0,64,int8,int8,8.187578,8793.808858,122.136234,,8.762068,1.070166,11,72,61,4,7,88,0.693182,0.636364,0.363636,5.545455,6.545455,548.019318,196.011778,6028.212499,2156.129563
llama32_1b_to_31_8b,llama_cross,meta-llama/Llama-3.2-1B,meta-llama/Llama-3.1-8B,continuation,continuation_1,8,150,0.9,1.0,64,int8,int8,7.5161,9047.244988,133.04772,,10.391972,1.382628,9,68,59,3,6,72,0.819444,0.666667,0.333333,6.555556,7.555556,530.441212,193.400354,4773.970906,1740.603184
llama32_1b_to_31_8b,llama_cross,meta-llama/Llama-3.2-1B,meta-llama/Llama-3.1-8B,continuation,continuation_1,8,200,0.0,1.0,64,int8,int8,7.449365,8859.815805,134.239633,,11.16296,1.498512,8,66,58,2,6,64,0.90625,0.75,0.25,7.25,8.25,542.317986,193.302369,4338.543886,1546.418955
llama32_1b_to_31_8b,llama_cross,meta-llama/Llama-3.2-1B,meta-llama/Llama-3.1-8B,continuation,continuation_1,8,200,0.9,1.0,64,int8,int8,7.555004,9000.656671,132.362598,,10.212714,1.351781,9,68,59,3,6,72,0.819444,0.666667,0.333333,6.555556,7.555556,539.815432,196.729238,4858.338885,1770.563144
llama32_1b_to_31_8b,llama_cross,meta-llama/Llama-3.2-1B,meta-llama/Llama-3.1-8B,continuation,continuation_1,10,50,0.0,1.0,64,int8,int8,7.432572,9283.462468,134.542934,,9.553931,1.285414,8,69,61,3,5,80,0.7625,0.625,0.375,7.625,8.625,700.846433,198.338193,5606.771461,1586.705541
llama32_1b_to_31_8b,llama_cross,meta-llama/Llama-3.2-1B,meta-llama/Llama-3.1-8B,continuation,continuation_1,10,50,0.9,1.0,64,int8,int8,7.052058,9075.364323,141.802568,,7.133222,1.011509,10,64,54,6,4,100,0.54,0.4,0.6,5.4,6.4,690.351629,203.697354,6903.516288,2036.973539
llama32_1b_to_31_8b,llama_cross,meta-llama/Llama-3.2-1B,meta-llama/Llama-3.1-8B,continuation,continuation_1,10,100,0.0,1.0,64,int8,int8,7.388058,9068.68935,135.353572,,9.762653,1.32141,8,67,59,6,2,80,0.7375,0.25,0.75,7.375,8.375,660.540501,193.621963,5284.324005,1548.9757
llama32_1b_to_31_8b,llama_cross,meta-llama/Llama-3.2-1B,meta-llama/Llama-3.1-8B,continuation,continuation_1,10,100,0.9,1.0,64,int8,int8,7.532922,9292.543172,132.750617,,8.687123,1.153221,9,70,61,5,4,90,0.677778,0.444444,0.555556,6.777778,7.777778,690.34599,201.535354,6213.113906,1813.818189
llama32_1b_to_31_8b,llama_cross,meta-llama/Llama-3.2-1B,meta-llama/Llama-3.1-8B,continuation,continuation_1,10,150,0.0,1.0,64,int8,int8,8.030784,8965.501032,124.520848,,9.262696,1.153399,9,72,63,4,5,90,0.7,0.555556,0.444444,7,8,665.947731,194.278798,5993.529583,1748.509178
llama32_1b_to_31_8b,llama_cross,meta-llama/Llama-3.2-1B,meta-llama/Llama-3.1-8B,continuation,continuation_1,10,150,0.9,1.0,64,int8,int8,7.731953,9053.34041,129.333434,,7.939598,1.026856,10,70,60,7,3,100,0.6,0.3,0.7,6,7,677.903037,200.30714,6779.030371,2003.071404
llama32_1b_to_31_8b,llama_cross,meta-llama/Llama-3.2-1B,meta-llama/Llama-3.1-8B,continuation,continuation_1,10,200,0.0,1.0,64,int8,int8,7.23672,8843.785972,138.184156,,9.297239,1.284731,8,64,56,5,3,80,0.7,0.375,0.625,7,8,665.868253,191.009556,5326.946026,1528.076445
llama32_1b_to_31_8b,llama_cross,meta-llama/Llama-3.2-1B,meta-llama/Llama-3.1-8B,continuation,continuation_1,10,200,0.9,1.0,64,int8,int8,8.102429,9009.644416,123.419787,,7.477229,0.922838,11,73,62,7,4,110,0.563636,0.363636,0.636364,5.636364,6.636364,684.057795,200.345182,7524.635742,2203.796999
llama32_1b_to_31_8b,llama_cross,meta-llama/Llama-3.2-1B,meta-llama/Llama-3.1-8B,code_completion,code_completion_0,4,50,0.0,1.0,64,int8,int8,7.169529,9345.10432,139.479169,,9.531011,1.329377,15,67,52,4,11,60,0.866667,0.733333,0.266667,3.466667,4.466667,290.166649,176.136325,4352.499739,2642.044869
llama32_1b_to_31_8b,llama_cross,meta-llama/Llama-3.2-1B,meta-llama/Llama-3.1-8B,code_completion,code_completion_0,4,50,0.9,1.0,64,int8,int8,6.846794,9347.440727,146.053761,,9.777009,1.427969,14,64,50,2,12,56,0.892857,0.857143,0.142857,3.571429,4.571429,290.843126,174.437765,4071.80377,2442.128711
llama32_1b_to_31_8b,llama_cross,meta-llama/Llama-3.2-1B,meta-llama/Llama-3.1-8B,code_completion,code_completion_0,4,100,0.0,1.0,64,int8,int8,6.815807,9389.93687,146.717764,,9.785128,1.435652,14,64,50,3,11,56,0.892857,0.785714,0.214286,3.571429,4.571429,288.917231,175.948595,4044.84124,2463.280327
llama32_1b_to_31_8b,llama_cross,meta-llama/Llama-3.2-1B,meta-llama/Llama-3.1-8B,code_completion,code_completion_0,4,100,0.9,1.0,64,int8,int8,7.241753,9251.903739,138.088116,,8.46622,1.169084,17,67,50,7,10,68,0.735294,0.588235,0.411765,2.941176,3.941176,288.912899,174.378897,4911.519286,2964.441249
llama32_1b_to_31_8b,llama_cross,meta-llama/Llama-3.2-1B,meta-llama/Llama-3.1-8B,code_completion,code_completion_0,4,150,0.0,1.0,64,int8,int8,6.929396,9236.014184,144.312722,,9.551364,1.378383,14,64,50,3,11,56,0.892857,0.785714,0.214286,3.571429,4.571429,296.78368,179.502932,4154.971524,2513.041045
llama32_1b_to_31_8b,llama_cross,meta-llama/Llama-3.2-1B,meta-llama/Llama-3.1-8B,code_completion,code_completion_0,4,150,0.9,1.0,64,int8,int8,7.050265,9361.349703,141.838632,,9.277719,1.315939,15,66,51,3,12,60,0.85,0.8,0.2,3.4,4.4,294.013053,177.969255,4410.195793,2669.538828
llama32_1b_to_31_8b,llama_cross,meta-llama/Llama-3.2-1B,meta-llama/Llama-3.1-8B,code_completion,code_completion_0,4,200,0.0,1.0,64,int8,int8,7.257029,9094.631297,137.797444,,10.152432,1.398979,14,66,52,2,12,56,0.928571,0.857143,0.142857,3.714286,4.714286,287.100418,174.954074,4019.40585,2449.357041
llama32_1b_to_31_8b,llama_cross,meta-llama/Llama-3.2-1B,meta-llama/Llama-3.1-8B,code_completion,code_completion_0,4,200,0.9,1.0,64,int8,int8,7.123776,9264.749068,140.374986,,9.457631,1.327615,15,66,51,3,12,60,0.85,0.8,0.2,3.4,4.4,289.833888,173.204133,4347.508318,2598.061994
llama32_1b_to_31_8b,llama_cross,meta-llama/Llama-3.2-1B,meta-llama/Llama-3.1-8B,code_completion,code_completion_0,6,50,0.0,1.0,64,int8,int8,7.284295,9197.869923,137.281641,,11.032418,1.514548,10,67,57,1,9,60,0.95,0.9,0.1,5.7,6.7,424.757227,179.653242,4247.57227,1796.532423
llama32_1b_to_31_8b,llama_cross,meta-llama/Llama-3.2-1B,meta-llama/Llama-3.1-8B,code_completion,code_completion_0,6,50,0.9,1.0,64,int8,int8,7.612621,9195.256283,131.360804,,8.46377,1.111808,14,70,56,6,8,84,0.666667,0.571429,0.428571,4,5,413.069305,175.110358,5782.970268,2451.545019
llama32_1b_to_31_8b,llama_cross,meta-llama/Llama-3.2-1B,meta-llama/Llama-3.1-8B,code_completion,code_completion_0,6,100,0.0,1.0,64,int8,int8,6.970496,9181.556115,143.461814,,10.54756,1.513172,10,64,54,2,8,60,0.9,0.8,0.2,5.4,6.4,424.876273,179.044186,4248.762727,1790.441862
llama32_1b_to_31_8b,llama_cross,meta-llama/Llama-3.2-1B,meta-llama/Llama-3.1-8B,code_completion,code_completion_0,6,100,0.9,1.0,64,int8,int8,7.180157,9192.000001,139.272727,,7.070616,0.984744,16,66,50,12,4,96,0.520833,0.25,0.75,3.125,4.125,405.479815,175.473696,6487.677037,2807.579142
llama32_1b_to_31_8b,llama_cross,meta-llama/Llama-3.2-1B,meta-llama/Llama-3.1-8B,code_completion,code_completion_0,6,150,0.0,1.0,64,int8,int8,7.034665,9097.804051,142.153188,,10.770606,1.531076,10,64,54,2,8,60,0.9,0.8,0.2,5.4,6.4,417.078805,174.301213,4170.788055,1743.01213
llama32_1b_to_31_8b,llama_cross,meta-llama/Llama-3.2-1B,meta-llama/Llama-3.1-8B,code_completion,code_completion_0,6,150,0.9,1.0,64,int8,int8,7.245048,9247.69599,138.025313,,8.736961,1.205922,13,67,54,8,5,78,0.692308,0.384615,0.615385,4.153846,5.153846,409.622679,177.515026,5325.094826,2307.695333
llama32_1b_to_31_8b,llama_cross,meta-llama/Llama-3.2-1B,meta-llama/Llama-3.1-8B,code_completion,code_completion_0,6,200,0.0,1.0,64,int8,int8,7.283788,9198.51066,137.291204,,11.199959,1.537656,10,67,57,1,9,60,0.95,0.9,0.1,5.7,6.7,418.916036,176.457264,4189.160359,1764.572643
llama32_1b_to_31_8b,llama_cross,meta-llama/Llama-3.2-1B,meta-llama/Llama-3.1-8B,code_completion,code_completion_0,6,200,0.9,1.0,64,int8,int8,7.535109,9157.134213,132.71209,,9.501728,1.260994,12,69,57,3,9,72,0.791667,0.75,0.25,4.75,5.75,425.812899,176.684743,5109.754788,2120.216911
llama32_1b_to_31_8b,llama_cross,meta-llama/Llama-3.2-1B,meta-llama/Llama-3.1-8B,code_completion,code_completion_0,8,50,0.0,1.0,64,int8,int8,7.269392,9079.163326,137.563081,,8.853284,1.217885,10,66,56,4,6,80,0.7,0.6,0.4,5.6,6.6,549.278274,193.027602,5492.782741,1930.276022
llama32_1b_to_31_8b,llama_cross,meta-llama/Llama-3.2-1B,meta-llama/Llama-3.1-8B,code_completion,code_completion_0,8,50,0.9,1.0,64,int8,int8,7.004666,9279.528856,142.761982,,7.812596,1.115342,11,65,54,6,5,88,0.613636,0.454545,0.545455,4.909091,5.909091,560.172532,193.262556,6161.897847,2125.888118
llama32_1b_to_31_8b,llama_cross,meta-llama/Llama-3.2-1B,meta-llama/Llama-3.1-8B,code_completion,code_completion_0,8,100,0.0,1.0,64,int8,int8,7.550218,9138.808571,132.446501,,7.810205,1.034434,12,69,57,7,5,96,0.59375,0.416667,0.583333,4.75,5.75,542.525038,190.80744,6510.30045,2289.689279
llama32_1b_to_31_8b,llama_cross,meta-llama/Llama-3.2-1B,meta-llama/Llama-3.1-8B,code_completion,code_completion_0,8,100,0.9,1.0,64,int8,int8,7.497309,9203.301649,133.381183,,8.868865,1.18294,10,69,59,3,7,80,0.7375,0.7,0.3,5.9,6.9,576.930709,197.962015,5769.307086,1979.620151
llama32_1b_to_31_8b,llama_cross,meta-llama/Llama-3.2-1B,meta-llama/Llama-3.1-8B,code_completion,code_completion_0,8,150,0.0,1.0,64,int8,int8,7.919943,9090.973976,126.263527,,7.380728,0.931917,13,72,59,7,6,104,0.567308,0.461538,0.538462,4.538462,5.538462,554.783822,192.772117,7212.189691,2506.037525
llama32_1b_to_31_8b,llama_cross,meta-llama/Llama-3.2-1B,meta-llama/Llama-3.1-8B,code_completion,code_completion_0,8,150,0.9,1.0,64,int8,int8,7.42527,9292.591846,134.675244,,8.90179,1.198851,10,69,59,3,7,80,0.7375,0.7,0.3,5.9,6.9,576.003531,196.065438,5760.035308,1960.65438
llama32_1b_to_31_8b,llama_cross,meta-llama/Llama-3.2-1B,meta-llama/Llama-3.1-8B,code_completion,code_completion_0,8,200,0.0,1.0,64,int8,int8,7.743661,9168.790037,129.137888,,8.709774,1.124762,11,71,60,5,6,88,0.681818,0.545455,0.454545,5.454545,6.454545,542.039187,195.940026,5962.431055,2155.340287
llama32_1b_to_31_8b,llama_cross,meta-llama/Llama-3.2-1B,meta-llama/Llama-3.1-8B,code_completion,code_completion_0,8,200,0.9,1.0,64,int8,int8,7.516646,9179.625842,133.038056,,8.937013,1.188963,10,69,59,3,7,80,0.7375,0.7,0.3,5.9,6.9,573.304426,195.731781,5733.044255,1957.317806
llama32_1b_to_31_8b,llama_cross,meta-llama/Llama-3.2-1B,meta-llama/Llama-3.1-8B,code_completion,code_completion_0,10,50,0.0,1.0,64,int8,int8,7.68293,9111.107298,130.158676,,11.036123,1.436447,7,70,63,1,6,70,0.9,0.857143,0.142857,9,10,706.692492,195.446216,4946.847446,1368.123515
llama32_1b_to_31_8b,llama_cross,meta-llama/Llama-3.2-1B,meta-llama/Llama-3.1-8B,code_completion,code_completion_0,10,50,0.9,1.0,64,int8,int8,7.26813,9218.326777,137.586967,,9.463026,1.301989,8,67,59,4,4,80,0.7375,0.5,0.5,7.375,8.375,685.297351,196.022023,5482.37881,1568.176183
llama32_1b_to_31_8b,llama_cross,meta-llama/Llama-3.2-1B,meta-llama/Llama-3.1-8B,code_completion,code_completion_0,10,100,0.0,1.0,64,int8,int8,7.469683,9371.213864,133.874484,,10.750561,1.439226,7,70,63,1,6,70,0.9,0.857143,0.142857,9,10,728.082589,198.085187,5096.578125,1386.59631
llama32_1b_to_31_8b,llama_cross,meta-llama/Llama-3.2-1B,meta-llama/Llama-3.1-8B,code_completion,code_completion_0,10,100,0.9,1.0,64,int8,int8,7.866832,9152.350023,127.115973,,8.724783,1.109059,9,72,63,3,6,90,0.7,0.666667,0.333333,7,8,714.255633,199.221395,6428.300693,1792.992555
llama32_1b_to_31_8b,llama_cross,meta-llama/Llama-3.2-1B,meta-llama/Llama-3.1-8B,code_completion,code_completion_0,10,150,0.0,1.0,64,int8,int8,7.600172,9210.318175,131.575974,,10.853057,1.428002,7,70,63,1,6,70,0.9,0.857143,0.142857,9,10,717.787368,199.546555,5024.511576,1396.825883
llama32_1b_to_31_8b,llama_cross,meta-llama/Llama-3.2-1B,meta-llama/Llama-3.1-8B,code_completion,code_completion_0,10,150,0.9,1.0,64,int8,int8,7.978552,9274.865768,125.336024,,7.441616,0.932703,11,74,63,5,6,110,0.572727,0.545455,0.454545,5.727273,6.727273,703.707836,197.189722,7740.786196,2169.086944
llama32_1b_to_31_8b,llama_cross,meta-llama/Llama-3.2-1B,meta-llama/Llama-3.1-8B,code_completion,code_completion_0,10,200,0.0,1.0,64,int8,int8,7.540584,9283.100128,132.615716,,10.933497,1.449954,7,70,63,1,6,70,0.9,0.857143,0.142857,9,10,714.530903,196.103675,5001.716323,1372.725724
llama32_1b_to_31_8b,llama_cross,meta-llama/Llama-3.2-1B,meta-llama/Llama-3.1-8B,code_completion,code_completion_0,10,200,0.9,1.0,64,int8,int8,7.966169,9289.282742,125.530848,,7.429383,0.932617,11,74,63,5,6,110,0.572727,0.545455,0.454545,5.727273,6.727273,705.78402,196.637354,7763.624216,2163.010889
llama32_1b_to_31_8b,llama_cross,meta-llama/Llama-3.2-1B,meta-llama/Llama-3.1-8B,code_completion,code_completion_1,4,50,0.0,1.0,64,int8,int8,7.526058,9035.274796,132.871688,,9.957595,1.323082,15,68,53,2,13,60,0.883333,0.866667,0.133333,3.533333,4.533333,282.435052,170.595873,4236.525776,2558.938098
llama32_1b_to_31_8b,llama_cross,meta-llama/Llama-3.2-1B,meta-llama/Llama-3.1-8B,code_completion,code_completion_1,4,50,0.9,1.0,64,int8,int8,7.333251,9136.466481,136.365171,,8.335021,1.136607,18,67,49,7,11,72,0.680556,0.611111,0.388889,2.722222,3.722222,276.466051,168.010576,4976.388916,3024.190371
llama32_1b_to_31_8b,llama_cross,meta-llama/Llama-3.2-1B,meta-llama/Llama-3.1-8B,code_completion,code_completion_1,4,100,0.0,1.0,64,int8,int8,7.642008,8898.185108,130.855663,,9.97851,1.305745,15,68,53,2,13,60,0.883333,0.866667,0.133333,3.533333,4.533333,281.65689,170.434944,4224.853349,2556.524159
llama32_1b_to_31_8b,llama_cross,meta-llama/Llama-3.2-1B,meta-llama/Llama-3.1-8B,code_completion,code_completion_1,4,100,0.9,1.0,64,int8,int8,7.226679,8994.450189,138.376157,,9.458867,1.308882,15,65,50,3,12,60,0.833333,0.8,0.2,3.333333,4.333333,283.855134,172.074863,4257.827006,2581.122951
llama32_1b_to_31_8b,llama_cross,meta-llama/Llama-3.2-1B,meta-llama/Llama-3.1-8B,code_completion,code_completion_1,4,150,0.0,1.0,64,int8,int8,7.636452,8904.659122,130.950869,,9.957513,1.303945,15,68,53,2,13,60,0.883333,0.866667,0.133333,3.533333,4.533333,282.498853,170.57126,4237.482797,2558.568904
llama32_1b_to_31_8b,llama_cross,meta-llama/Llama-3.2-1B,meta-llama/Llama-3.1-8B,code_completion,code_completion_1,4,150,0.9,1.0,64,int8,int8,7.597675,8950.106885,131.619219,,8.551902,1.125595,18,68,50,8,10,72,0.694444,0.555556,0.444444,2.777778,3.777778,271.606355,168.004776,4888.914396,3024.085966
llama32_1b_to_31_8b,llama_cross,meta-llama/Llama-3.2-1B,meta-llama/Llama-3.1-8B,code_completion,code_completion_1,4,200,0.0,1.0,64,int8,int8,7.554995,9000.667344,132.362755,,10.118998,1.339378,15,68,53,2,13,60,0.883333,0.866667,0.133333,3.533333,4.533333,278.306803,167.506958,4174.60205,2512.604367
llama32_1b_to_31_8b,llama_cross,meta-llama/Llama-3.2-1B,meta-llama/Llama-3.1-8B,code_completion,code_completion_1,4,200,0.9,1.0,64,int8,int8,7.569069,8983.931496,132.11664,,8.386124,1.107947,18,68,50,7,11,72,0.694444,0.611111,0.388889,2.777778,3.777778,280.066332,168.261525,5041.193978,3028.70745
llama32_1b_to_31_8b,llama_cross,meta-llama/Llama-3.2-1B,meta-llama/Llama-3.1-8B,code_completion,code_completion_1,6,50,0.0,1.0,64,int8,int8,7.17594,9058.046261,139.354558,,9.909854,1.380983,11,65,54,3,8,66,0.818182,0.727273,0.272727,4.909091,5.909091,417.629253,175.88465,4593.921788,1934.731153
llama32_1b_to_31_8b,llama_cross,meta-llama/Llama-3.2-1B,meta-llama/Llama-3.1-8B,code_completion,code_completion_1,6,50,0.9,1.0,64,int8,int8,7.6348,9037.564279,130.979192,,7.467432,0.978078,16,69,53,10,6,96,0.552083,0.375,0.625,3.3125,4.3125,405.948929,169.121571,6495.182861,2705.945139
llama32_1b_to_31_8b,llama_cross,meta-llama/Llama-3.2-1B,meta-llama/Llama-3.1-8B,code_completion,code_completion_1,6,100,0.0,1.0,64,int8,int8,7.218193,9005.023295,138.53882,,10.148131,1.40591,11,65,54,3,8,66,0.818182,0.727273,0.272727,4.909091,5.909091,408.902077,170.66809,4497.922843,1877.348986
llama32_1b_to_31_8b,llama_cross,meta-llama/Llama-3.2-1B,meta-llama/Llama-3.1-8B,code_completion,code_completion_1,6,100,0.9,1.0,64,int8,int8,7.587757,9093.596022,131.791247,,8.319663,1.096459,14,69,55,7,7,84,0.654762,0.5,0.5,3.928571,4.928571,415.976437,173.859539,5823.670117,2434.033544
llama32_1b_to_31_8b,llama_cross,meta-llama/Llama-3.2-1B,meta-llama/Llama-3.1-8B,code_completion,code_completion_1,6,150,0.0,1.0,64,int8,int8,7.523442,9038.415688,132.917878,,9.614692,1.277964,12,68,56,3,9,72,0.777778,0.75,0.25,4.666667,5.666667,413.902748,172.856594,4966.832977,2074.279122
llama32_1b_to_31_8b,llama_cross,meta-llama/Llama-3.2-1B,meta-llama/Llama-3.1-8B,code_completion,code_completion_1,6,150,0.9,1.0,64,int8,int8,7.72549,8931.47198,129.441623,,8.31777,1.076666,14,69,55,7,7,84,0.654762,0.5,0.5,3.928571,4.928571,416.591666,173.381717,5832.283328,2427.344035
llama32_1b_to_31_8b,llama_cross,meta-llama/Llama-3.2-1B,meta-llama/Llama-3.1-8B,code_completion,code_completion_1,6,200,0.0,1.0,64,int8,int8,7.18274,8910.248164,139.222628,,9.789653,1.362941,11,64,53,3,8,66,0.80303,0.727273,0.272727,4.818182,5.818182,419.800374,171.817481,4617.804119,1889.992294
llama32_1b_to_31_8b,llama_cross,meta-llama/Llama-3.2-1B,meta-llama/Llama-3.1-8B,code_completion,code_completion_1,6,200,0.9,1.0,64,int8,int8,7.626102,9047.872748,131.128591,,8.365893,1.097008,14,69,55,7,7,84,0.654762,0.5,0.5,3.928571,4.928571,414.53427,172.032315,5803.479781,2408.452404
llama32_1b_to_31_8b,llama_cross,meta-llama/Llama-3.2-1B,meta-llama/Llama-3.1-8B,code_completion,code_completion_1,8,50,0.0,1.0,64,int8,int8,7.278591,8930.299634,137.389225,,10.864657,1.492687,8,65,57,1,7,64,0.890625,0.875,0.125,7.125,8.125,554.756432,189.780303,4438.051458,1518.242421
llama32_1b_to_31_8b,llama_cross,meta-llama/Llama-3.2-1B,meta-llama/Llama-3.1-8B,code_completion,code_completion_1,8,50,0.9,1.0,64,int8,int8,7.230208,8990.059434,138.308607,,6.68812,0.925025,13,65,52,10,3,104,0.5,0.230769,0.769231,4,5,551.453366,193.28508,7168.893757,2512.706041
llama32_1b_to_31_8b,llama_cross,meta-llama/Llama-3.2-1B,meta-llama/Llama-3.1-8B,code_completion,code_completion_1,8,100,0.0,1.0,64,int8,int8,7.077275,9184.326081,141.297324,,10.750262,1.518983,8,65,57,1,7,64,0.890625,0.875,0.125,7.125,8.125,561.735468,190.6666,4493.883744,1525.332801
llama32_1b_to_31_8b,llama_cross,meta-llama/Llama-3.2-1B,meta-llama/Llama-3.1-8B,code_completion,code_completion_1,8,100,0.9,1.0,64,int8,int8,7.169109,9066.677762,139.48735,,8.749213,1.220405,10,65,55,4,6,80,0.6875,0.6,0.4,5.5,6.5,548.434081,191.333734,5484.340809,1913.337339
llama32_1b_to_31_8b,llama_cross,meta-llama/Llama-3.2-1B,meta-llama/Llama-3.1-8B,code_completion,code_completion_1,8,150,0.0,1.0,64,int8,int8,7.214611,9009.495361,138.607621,,10.656727,1.477104,8,65,57,1,7,64,0.890625,0.875,0.125,7.125,8.125,565.154692,193.811734,4521.237537,1550.493874
llama32_1b_to_31_8b,llama_cross,meta-llama/Llama-3.2-1B,meta-llama/Llama-3.1-8B,code_completion,code_completion_1,8,150,0.9,1.0,64,int8,int8,7.066922,9197.780521,141.504316,,8.585709,1.214915,10,65,55,4,6,80,0.6875,0.6,0.4,5.5,6.5,562.310663,191.581973,5623.106633,1915.819733
llama32_1b_to_31_8b,llama_cross,meta-llama/Llama-3.2-1B,meta-llama/Llama-3.1-8B,code_completion,code_completion_1,8,200,0.0,1.0,64,int8,int8,7.940871,8941.085058,125.930775,,10.685758,1.345666,9,71,62,3,6,72,0.861111,0.666667,0.333333,6.888889,7.888889,546.657853,188.184854,4919.920681,1693.663682
llama32_1b_to_31_8b,llama_cross,meta-llama/Llama-3.2-1B,meta-llama/Llama-3.1-8B,code_completion,code_completion_1,8,200,0.9,1.0,64,int8,int8,7.230358,8989.873296,138.305743,,8.697912,1.202971,10,65,55,4,6,80,0.6875,0.6,0.4,5.5,6.5,550.712332,193.453459,5507.123316,1934.534586
llama32_1b_to_31_8b,llama_cross,meta-llama/Llama-3.2-1B,meta-llama/Llama-3.1-8B,code_completion,code_completion_1,10,50,0.0,1.0,64,int8,int8,7.847649,9047.295812,127.426702,,8.871865,1.130512,9,71,62,3,6,90,0.688889,0.666667,0.333333,6.888889,7.888889,694.296507,191.571887,6248.668563,1724.146983
llama32_1b_to_31_8b,llama_cross,meta-llama/Llama-3.2-1B,meta-llama/Llama-3.1-8B,code_completion,code_completion_1,10,50,0.9,1.0,64,int8,int8,7.070993,9051.062433,141.422851,,6.043509,0.85469,12,64,52,8,4,120,0.433333,0.333333,0.666667,4.333333,5.333333,683.699436,196.008608,8204.393229,2352.103297
llama32_1b_to_31_8b,llama_cross,meta-llama/Llama-3.2-1B,meta-llama/Llama-3.1-8B,code_completion,code_completion_1,10,100,0.0,1.0,64,int8,int8,8.149927,9079.836243,122.70049,,9.220951,1.131415,9,74,65,4,5,90,0.722222,0.555556,0.444444,7.222222,8.222222,694.590839,193.563854,6251.317548,1742.07469
llama32_1b_to_31_8b,llama_cross,meta-llama/Llama-3.2-1B,meta-llama/Llama-3.1-8B,code_completion,code_completion_1,10,100,0.9,1.0,64,int8,int8,8.151619,8832.600989,122.675014,,5.925998,0.726972,14,72,58,11,3,140,0.414286,0.214286,0.785714,4.142857,5.142857,671.529838,193.568128,9401.417733,2709.953791
llama32_1b_to_31_8b,llama_cross,meta-llama/Llama-3.2-1B,meta-llama/Llama-3.1-8B,code_completion,code_completion_1,10,150,0.0,1.0,64,int8,int8,7.267025,8944.513403,137.607899,,9.303837,1.280282,8,65,57,4,4,80,0.7125,0.5,0.5,7.125,8.125,678.884252,190.911087,5431.074019,1527.288694
llama32_1b_to_31_8b,llama_cross,meta-llama/Llama-3.2-1B,meta-llama/Llama-3.1-8B,code_completion,code_completion_1,10,150,0.9,1.0,64,int8,int8,7.593806,8954.666023,131.686265,,7.073627,0.9315,11,68,57,7,4,110,0.518182,0.363636,0.636364,5.181818,6.181818,677.010037,193.919844,7447.110412,2133.118285
llama32_1b_to_31_8b,llama_cross,meta-llama/Llama-3.2-1B,meta-llama/Llama-3.1-8B,code_completion,code_completion_1,10,200,0.0,1.0,64,int8,int8,7.240238,9115.722109,138.117002,,9.335386,1.289376,8,66,58,4,4,80,0.725,0.5,0.5,7.25,8.25,690.498986,189.655592,5523.99189,1517.244737
llama32_1b_to_31_8b,llama_cross,meta-llama/Llama-3.2-1B,meta-llama/Llama-3.1-8B,code_completion,code_completion_1,10,200,0.9,1.0,64,int8,int8,7.279991,9203.307632,137.3628,,5.395531,0.741145,14,67,53,12,2,140,0.378571,0.142857,0.857143,3.785714,4.785714,686.944173,197.140167,9617.218422,2759.962343
llama32_1b_to_31_8b,llama_cross,meta-llama/Llama-3.2-1B,meta-llama/Llama-3.1-8B,structured_extraction,structured_extraction_0,4,50,0.0,1.0,64,int8,int8,7.188925,9041.685526,139.102854,,10.604821,1.475161,13,65,52,0,13,52,1.0,1.0,0.0,4,5,294.223297,174.943083,3824.902858,2274.260084
llama32_1b_to_31_8b,llama_cross,meta-llama/Llama-3.2-1B,meta-llama/Llama-3.1-8B,structured_extraction,structured_extraction_0,4,50,0.9,1.0,64,int8,int8,7.340132,8991.663343,136.237323,,8.992559,1.225122,16,66,50,7,9,64,0.78125,0.5625,0.4375,3.125,4.125,282.293012,174.154996,4516.688192,2786.479942
llama32_1b_to_31_8b,llama_cross,meta-llama/Llama-3.2-1B,meta-llama/Llama-3.1-8B,structured_extraction,structured_extraction_0,4,100,0.0,1.0,64,int8,int8,7.220429,9002.234605,138.495917,,10.564387,1.463125,13,65,52,0,13,52,1.0,1.0,0.0,4,5,295.321259,175.647293,3839.176373,2283.414815
llama32_1b_to_31_8b,llama_cross,meta-llama/Llama-3.2-1B,meta-llama/Llama-3.1-8B,structured_extraction,structured_extraction_0,4,100,0.9,1.0,64,int8,int8,7.258138,9368.794633,137.776392,,10.521875,1.449666,14,68,54,1,13,56,0.964286,0.928571,0.071429,3.857143,4.857143,285.306807,174.061204,3994.295296,2436.856856
llama32_1b_to_31_8b,llama_cross,meta-llama/Llama-3.2-1B,meta-llama/Llama-3.1-8B,structured_extraction,structured_extraction_0,4,150,0.0,1.0,64,int8,int8,7.209611,9015.74355,138.703747,,10.66094,1.478712,13,65,52,0,13,52,1.0,1.0,0.0,4,5,292.831944,173.848933,3806.815268,2260.036129
llama32_1b_to_31_8b,llama_cross,meta-llama/Llama-3.2-1B,meta-llama/Llama-3.1-8B,structured_extraction,structured_extraction_0,4,150,0.9,1.0,64,int8,int8,7.192853,9036.748459,139.026899,,10.137441,1.409377,14,65,51,2,12,56,0.910714,0.857143,0.142857,3.642857,4.642857,280.069377,175.468356,3920.971272,2456.556982
llama32_1b_to_31_8b,llama_cross,meta-llama/Llama-3.2-1B,meta-llama/Llama-3.1-8B,structured_extraction,structured_extraction_0,4,200,0.0,1.0,64,int8,int8,7.254793,8959.594279,137.839912,,10.617828,1.46356,13,65,52,0,13,52,1.0,1.0,0.0,4,5,293.10155,175.527295,3810.320148,2281.854839
llama32_1b_to_31_8b,llama_cross,meta-llama/Llama-3.2-1B,meta-llama/Llama-3.1-8B,structured_extraction,structured_extraction_0,4,200,0.9,1.0,64,int8,int8,7.432169,9014.865333,134.550229,,9.68736,1.303437,15,67,52,3,12,60,0.866667,0.8,0.2,3.466667,4.466667,283.445116,175.405753,4251.676745,2631.086302
llama32_1b_to_31_8b,llama_cross,meta-llama/Llama-3.2-1B,meta-llama/Llama-3.1-8B,structured_extraction,structured_extraction_0,6,50,0.0,1.0,64,int8,int8,7.235343,8983.679634,138.210456,,9.942093,1.374101,11,65,54,2,9,66,0.818182,0.818182,0.181818,4.909091,5.909091,417.465954,174.156741,4592.125494,1915.724152
llama32_1b_to_31_8b,llama_cross,meta-llama/Llama-3.2-1B,meta-llama/Llama-3.1-8B,structured_extraction,structured_extraction_0,6,50,0.9,1.0,64,int8,int8,7.228351,8992.368588,138.344132,,9.860972,1.364208,11,65,54,3,8,66,0.818182,0.727273,0.272727,4.909091,5.909091,417.935593,178.585157,4597.291526,1964.436728
llama32_1b_to_31_8b,llama_cross,meta-llama/Llama-3.2-1B,meta-llama/Llama-3.1-8B,structured_extraction,structured_extraction_0,6,100,0.0,1.0,64,int8,int8,7.269441,9079.102087,137.562153,,11.244459,1.546812,10,66,56,1,9,60,0.933333,0.9,0.1,5.6,6.6,412.094711,172.030575,4120.947114,1720.30575
llama32_1b_to_31_8b,llama_cross,meta-llama/Llama-3.2-1B,meta-llama/Llama-3.1-8B,structured_extraction,structured_extraction_0,6,100,0.9,1.0,64,int8,int8,7.035451,9238.924117,142.137294,,9.880768,1.404426,11,65,54,2,9,66,0.818182,0.818182,0.181818,4.909091,5.909091,418.441197,176.932006,4602.853166,1946.252064
llama32_1b_to_31_8b,llama_cross,meta-llama/Llama-3.2-1B,meta-llama/Llama-3.1-8B,structured_extraction,structured_extraction_0,6,150,0.0,1.0,64,int8,int8,7.104562,9008.295978,140.754625,,10.831848,1.524633,10,64,54,3,7,60,0.9,0.7,0.3,5.4,6.4,414.817326,173.12931,4148.17326,1731.293103
llama32_1b_to_31_8b,llama_cross,meta-llama/Llama-3.2-1B,meta-llama/Llama-3.1-8B,structured_extraction,structured_extraction_0,6,150,0.9,1.0,64,int8,int8,7.461724,9113.175327,134.017284,,9.152608,1.226608,12,68,56,3,9,72,0.777778,0.75,0.25,4.666667,5.666667,433.636341,182.794799,5203.636092,2193.53759
llama32_1b_to_31_8b,llama_cross,meta-llama/Llama-3.2-1B,meta-llama/Llama-3.1-8B,structured_extraction,structured_extraction_0,6,200,0.0,1.0,64,int8,int8,7.330563,8866.986546,136.415178,,9.70113,1.323381,11,65,54,3,8,66,0.818182,0.727273,0.272727,4.909091,5.909091,429.103474,177.200964,4720.138215,1949.210604
llama32_1b_to_31_8b,llama_cross,meta-llama/Llama-3.2-1B,meta-llama/Llama-3.1-8B,structured_extraction,structured_extraction_0,6,200,0.9,1.0,64,int8,int8,7.456508,9119.549988,134.111029,,9.390439,1.259361,12,68,56,3,9,72,0.777778,0.75,0.25,4.666667,5.666667,420.946778,179.87152,5051.36133,2158.458243
llama32_1b_to_31_8b,llama_cross,meta-llama/Llama-3.2-1B,meta-llama/Llama-3.1-8B,structured_extraction,structured_extraction_0,8,50,0.0,1.0,64,int8,int8,7.939317,9068.789751,125.955413,,11.885,1.49698,8,72,64,0,8,64,1.0,1.0,0.0,8,9,560.940145,192.822001,4487.521157,1542.576005
llama32_1b_to_31_8b,llama_cross,meta-llama/Llama-3.2-1B,meta-llama/Llama-3.1-8B,structured_extraction,structured_extraction_0,8,50,0.9,1.0,64,int8,int8,8.054407,8939.205898,124.155637,,11.95257,1.483979,8,72,64,0,8,64,1.0,1.0,0.0,8,9,555.228369,194.285288,4441.826952,1554.282301
llama32_1b_to_31_8b,llama_cross,meta-llama/Llama-3.2-1B,meta-llama/Llama-3.1-8B,structured_extraction,structured_extraction_0,8,100,0.0,1.0,64,int8,int8,7.976241,9026.808186,125.372336,,12.084132,1.515016,8,72,64,0,8,64,1.0,1.0,0.0,8,9,551.066407,190.216091,4408.531258,1521.728727
llama32_1b_to_31_8b,llama_cross,meta-llama/Llama-3.2-1B,meta-llama/Llama-3.1-8B,structured_extraction,structured_extraction_0,8,100,0.9,1.0,64,int8,int8,7.710397,9208.346093,129.695015,,10.458393,1.356402,9,71,62,2,7,72,0.861111,0.777778,0.222222,6.888889,7.888889,555.56539,195.430477,5000.088512,1758.874295
llama32_1b_to_31_8b,llama_cross,meta-llama/Llama-3.2-1B,meta-llama/Llama-3.1-8B,structured_extraction,structured_extraction_0,8,150,0.0,1.0,64,int8,int8,8.116814,8870.475209,123.201045,,11.921522,1.468744,8,72,64,0,8,64,1.0,1.0,0.0,8,9,560.527277,190.901288,4484.218215,1527.210307
llama32_1b_to_31_8b,llama_cross,meta-llama/Llama-3.2-1B,meta-llama/Llama-3.1-8B,structured_extraction,structured_extraction_0,8,150,0.9,1.0,64,int8,int8,7.098592,9015.87257,140.873009,,8.525762,1.20105,10,64,54,5,5,80,0.675,0.5,0.5,5.4,6.4,553.641816,194.038628,5536.418164,1940.386281
llama32_1b_to_31_8b,llama_cross,meta-llama/Llama-3.2-1B,meta-llama/Llama-3.1-8B,structured_extraction,structured_extraction_0,8,200,0.0,1.0,64,int8,int8,8.087277,8902.873103,123.651015,,11.858901,1.466365,8,72,64,0,8,64,1.0,1.0,0.0,8,9,563.39356,191.914945,4507.148476,1535.319561
llama32_1b_to_31_8b,llama_cross,meta-llama/Llama-3.2-1B,meta-llama/Llama-3.1-8B,structured_extraction,structured_extraction_0,8,200,0.9,1.0,64,int8,int8,7.334013,9135.516705,136.350996,,8.980064,1.224441,10,67,57,4,6,80,0.7125,0.6,0.4,5.7,6.7,549.434172,193.615645,5494.341721,1936.156452
llama32_1b_to_31_8b,llama_cross,meta-llama/Llama-3.2-1B,meta-llama/Llama-3.1-8B,structured_extraction,structured_extraction_0,10,50,0.0,1.0,64,int8,int8,8.136092,8849.457534,122.909132,,9.092943,1.117606,9,72,63,4,5,90,0.7,0.555556,0.444444,7,8,687.089555,189.27823,6183.805995,1703.504071
llama32_1b_to_31_8b,llama_cross,meta-llama/Llama-3.2-1B,meta-llama/Llama-3.1-8B,structured_extraction,structured_extraction_0,10,50,0.9,1.0,64,int8,int8,7.449022,8725.977298,134.245805,,9.145352,1.227725,8,65,57,4,4,80,0.7125,0.5,0.5,7.125,8.125,686.128638,198.75774,5489.029107,1590.061924
llama32_1b_to_31_8b,llama_cross,meta-llama/Llama-3.2-1B,meta-llama/Llama-3.1-8B,structured_extraction,structured_extraction_0,10,100,0.0,1.0,64,int8,int8,7.725701,9060.66648,129.438093,,9.693874,1.254757,8,70,62,3,5,80,0.775,0.625,0.375,7.75,8.75,705.828281,193.144597,5646.626252,1545.156772
llama32_1b_to_31_8b,llama_cross,meta-llama/Llama-3.2-1B,meta-llama/Llama-3.1-8B,structured_extraction,structured_extraction_0,10,100,0.9,1.0,64,int8,int8,6.882133,9299.443083,145.303798,,11.792965,1.713563,6,64,58,1,5,60,0.966667,0.833333,0.166667,9.666667,10.666667,696.697298,203.67506,4180.18379,1222.050359
llama32_1b_to_31_8b,llama_cross,meta-llama/Llama-3.2-1B,meta-llama/Llama-3.1-8B,structured_extraction,structured_extraction_0,10,150,0.0,1.0,64,int8,int8,7.386006,9071.207956,135.391164,,10.808762,1.463411,7,67,60,1,6,70,0.857143,0.857143,0.142857,8.571429,9.571429,691.219488,190.583731,4838.536416,1334.086116
llama32_1b_to_31_8b,llama_cross,meta-llama/Llama-3.2-1B,meta-llama/Llama-3.1-8B,structured_extraction,structured_extraction_0,10,150,0.9,1.0,64,int8,int8,7.43614,8875.572231,134.478367,,8.27101,1.112272,9,66,57,5,4,90,0.633333,0.444444,0.555556,6.333333,7.333333,688.043496,195.208906,6192.391467,1756.880155
llama32_1b_to_31_8b,llama_cross,meta-llama/Llama-3.2-1B,meta-llama/Llama-3.1-8B,structured_extraction,structured_extraction_0,10,200,0.0,1.0,64,int8,int8,7.377573,8946.031275,135.545928,,12.08441,1.637993,6,66,60,0,6,60,1.0,1.0,0.0,10,11,711.672254,194.471857,4270.033524,1166.831139
llama32_1b_to_31_8b,llama_cross,meta-llama/Llama-3.2-1B,meta-llama/Llama-3.1-8B,structured_extraction,structured_extraction_0,10,200,0.9,1.0,64,int8,int8,8.19438,9030.579218,122.034854,,11.701234,1.427958,7,74,67,1,6,70,0.957143,0.857143,0.142857,9.571429,10.571429,699.675642,199.651832,4897.729497,1397.562824
llama32_1b_to_31_8b,llama_cross,meta-llama/Llama-3.2-1B,meta-llama/Llama-3.1-8B,structured_extraction,structured_extraction_1,4,50,0.0,1.0,64,int8,int8,7.49442,9073.416959,133.432602,,9.388053,1.252672,16,68,52,4,12,64,0.8125,0.75,0.25,3.25,4.25,277.336608,173.161683,4437.385727,2770.586932
llama32_1b_to_31_8b,llama_cross,meta-llama/Llama-3.2-1B,meta-llama/Llama-3.1-8B,structured_extraction,structured_extraction_1,4,50,0.9,1.0,64,int8,int8,7.220453,9002.204749,138.495458,,8.54484,1.183422,17,65,48,6,11,68,0.705882,0.647059,0.352941,2.823529,3.823529,277.832902,167.549929,4723.159334,2848.348788
llama32_1b_to_31_8b,llama_cross,meta-llama/Llama-3.2-1B,meta-llama/Llama-3.1-8B,structured_extraction,structured_extraction_1,4,100,0.0,1.0,64,int8,int8,7.592371,8824.648086,131.711165,,9.348968,1.231364,16,67,51,4,12,64,0.796875,0.75,0.25,3.1875,4.1875,275.83678,169.917444,4413.388473,2718.67911
llama32_1b_to_31_8b,llama_cross,meta-llama/Llama-3.2-1B,meta-llama/Llama-3.1-8B,structured_extraction,structured_extraction_1,4,100,0.9,1.0,64,int8,int8,7.246483,8831.871043,137.997985,,9.39487,1.296473,15,64,49,3,12,60,0.816667,0.8,0.2,3.266667,4.266667,277.41863,174.580836,4161.279451,2618.712535
llama32_1b_to_31_8b,llama_cross,meta-llama/Llama-3.2-1B,meta-llama/Llama-3.1-8B,structured_extraction,structured_extraction_1,4,150,0.0,1.0,64,int8,int8,7.485525,8950.60746,133.591156,,9.407547,1.256765,16,67,51,4,12,64,0.796875,0.75,0.25,3.1875,4.1875,274.541014,168.39512,4392.656228,2694.321921
llama32_1b_to_31_8b,llama_cross,meta-llama/Llama-3.2-1B,meta-llama/Llama-3.1-8B,structured_extraction,structured_extraction_1,4,150,0.9,1.0,64,int8,int8,7.477171,9094.348177,133.740414,,8.008431,1.071051,19,68,49,9,10,76,0.644737,0.526316,0.473684,2.578947,3.578947,273.934919,170.807427,5204.763464,3245.341109
llama32_1b_to_31_8b,llama_cross,meta-llama/Llama-3.2-1B,meta-llama/Llama-3.1-8B,structured_extraction,structured_extraction_1,4,200,0.0,1.0,64,int8,int8,7.266611,9082.638132,137.615729,,9.43972,1.299054,15,66,51,3,12,60,0.85,0.8,0.2,3.4,4.4,289.378342,174.43439,4340.67513,2616.515849
llama32_1b_to_31_8b,llama_cross,meta-llama/Llama-3.2-1B,meta-llama/Llama-3.1-8B,structured_extraction,structured_extraction_1,4,200,0.9,1.0,64,int8,int8,7.380527,8806.959064,135.491678,,7.957148,1.078127,18,65,47,9,9,72,0.652778,0.5,0.5,2.611111,3.611111,277.985705,173.652514,5003.742693,3125.745248
llama32_1b_to_31_8b,llama_cross,meta-llama/Llama-3.2-1B,meta-llama/Llama-3.1-8B,structured_extraction,structured_extraction_1,6,50,0.0,1.0,64,int8,int8,7.340456,9127.498851,136.231326,,9.515884,1.296362,12,67,55,4,8,72,0.763889,0.666667,0.333333,4.583333,5.583333,409.926004,174.16084,4919.112053,2089.930082
llama32_1b_to_31_8b,llama_cross,meta-llama/Llama-3.2-1B,meta-llama/Llama-3.1-8B,structured_extraction,structured_extraction_1,6,50,0.9,1.0,64,int8,int8,7.619715,8924.218443,131.238507,,7.591823,0.99634,15,68,53,8,7,90,0.588889,0.466667,0.533333,3.533333,4.533333,414.165015,180.450355,6212.475229,2706.755325
llama32_1b_to_31_8b,llama_cross,meta-llama/Llama-3.2-1B,meta-llama/Llama-3.1-8B,structured_extraction,structured_extraction_1,6,100,0.0,1.0,64,int8,int8,7.522154,8907.023049,132.940643,,9.56496,1.271572,12,67,55,4,8,72,0.763889,0.666667,0.333333,4.583333,5.583333,407.443397,173.604166,4889.320766,2083.249987
llama32_1b_to_31_8b,llama_cross,meta-llama/Llama-3.2-1B,meta-llama/Llama-3.1-8B,structured_extraction,structured_extraction_1,6,100,0.9,1.0,64,int8,int8,7.296344,8908.571617,137.054948,,8.374625,1.147784,13,65,52,5,8,78,0.666667,0.615385,0.384615,4,5,415.418268,178.969928,5400.437484,2326.609063
llama32_1b_to_31_8b,llama_cross,meta-llama/Llama-3.2-1B,meta-llama/Llama-3.1-8B,structured_extraction,structured_extraction_1,6,150,0.0,1.0,64,int8,int8,7.362557,8828.454101,135.822371,,10.170395,1.381367,11,65,54,3,8,66,0.818182,0.727273,0.272727,4.909091,5.909091,404.733302,173.517207,4452.066317,1908.689275
llama32_1b_to_31_8b,llama_cross,meta-llama/Llama-3.2-1B,meta-llama/Llama-3.1-8B,structured_extraction,structured_extraction_1,6,150,0.9,1.0,64,int8,int8,6.994197,9150.442319,142.975661,,7.713351,1.102821,14,64,50,8,6,84,0.595238,0.428571,0.571429,3.571429,4.571429,412.229321,177.893587,5771.210495,2490.510224
llama32_1b_to_31_8b,llama_cross,meta-llama/Llama-3.2-1B,meta-llama/Llama-3.1-8B,structured_extraction,structured_extraction_1,6,200,0.0,1.0,64,int8,int8,7.877405,8886.175151,126.945359,,11.353699,1.441299,10,70,60,0,10,60,1.0,1.0,0.0,6,7,435.431664,178.068779,4354.31664,1780.687786
llama32_1b_to_31_8b,llama_cross,meta-llama/Llama-3.2-1B,meta-llama/Llama-3.1-8B,structured_extraction,structured_extraction_1,6,200,0.9,1.0,64,int8,int8,7.652279,9016.921837,130.680027,,8.619558,1.126404,13,69,56,4,9,78,0.717949,0.692308,0.307692,4.307692,5.307692,430.380359,182.799152,5594.944667,2376.388975
llama32_1b_to_31_8b,llama_cross,meta-llama/Llama-3.2-1B,meta-llama/Llama-3.1-8B,structured_extraction,structured_extraction_1,8,50,0.0,1.0,64,int8,int8,7.898811,9115.295981,126.601333,,9.608815,1.216489,10,72,62,4,6,80,0.775,0.6,0.4,6.2,7.2,551.171757,194.885045,5511.717568,1948.850453
llama32_1b_to_31_8b,llama_cross,meta-llama/Llama-3.2-1B,meta-llama/Llama-3.1-8B,structured_extraction,structured_extraction_1,8,50,0.9,1.0,64,int8,int8,7.951703,8928.905271,125.759229,,8.015709,1.008049,12,71,59,7,5,96,0.614583,0.416667,0.583333,4.916667,5.916667,540.262314,194.944031,6483.147773,2339.328376
llama32_1b_to_31_8b,llama_cross,meta-llama/Llama-3.2-1B,meta-llama/Llama-3.1-8B,structured_extraction,structured_extraction_1,8,100,0.0,1.0,64,int8,int8,7.924296,8959.785908,126.194168,,10.562935,1.332981,9,71,62,2,7,72,0.861111,0.777778,0.222222,6.888889,7.888889,550.345262,193.108394,4953.10736,1737.975544
llama32_1b_to_31_8b,llama_cross,meta-llama/Llama-3.2-1B,meta-llama/Llama-3.1-8B,structured_extraction,structured_extraction_1,8,100,0.9,1.0,64,int8,int8,7.124243,8983.411126,140.365799,,8.399184,1.178958,10,64,54,5,5,80,0.675,0.5,0.5,5.4,6.4,560.590852,198.332811,5605.908522,1983.328106
llama32_1b_to_31_8b,llama_cross,meta-llama/Llama-3.2-1B,meta-llama/Llama-3.1-8B,structured_extraction,structured_extraction_1,8,150,0.0,1.0,64,int8,int8,7.282771,9062.48478,137.310375,,8.876989,1.218903,10,66,56,4,6,80,0.7,0.6,0.4,5.6,6.6,542.800912,197.603687,5428.009124,1976.036873
llama32_1b_to_31_8b,llama_cross,meta-llama/Llama-3.2-1B,meta-llama/Llama-3.1-8B,structured_extraction,structured_extraction_1,8,150,0.9,1.0,64,int8,int8,7.51705,9046.10194,133.030911,,8.424287,1.120691,11,68,57,5,6,88,0.647727,0.545455,0.454545,5.181818,6.181818,536.288064,194.577001,5899.168708,2140.347012
llama32_1b_to_31_8b,llama_cross,meta-llama/Llama-3.2-1B,meta-llama/Llama-3.1-8B,structured_extraction,structured_extraction_1,8,200,0.0,1.0,64,int8,int8,7.982051,8769.675793,125.281083,,11.954931,1.497727,8,70,62,1,7,64,0.96875,0.875,0.125,7.75,8.75,539.678188,188.779568,4317.425501,1510.236543
llama32_1b_to_31_8b,llama_cross,meta-llama/Llama-3.2-1B,meta-llama/Llama-3.1-8B,structured_extraction,structured_extraction_1,8,200,0.9,1.0,64,int8,int8,7.792576,8726.254443,128.327271,,8.297454,1.06479,11,68,57,5,6,88,0.647727,0.545455,0.454545,5.181818,6.181818,546.457982,195.565133,6011.037806,2151.21646
llama32_1b_to_31_8b,llama_cross,meta-llama/Llama-3.2-1B,meta-llama/Llama-3.1-8B,structured_extraction,structured_extraction_1,10,50,0.0,1.0,64,int8,int8,7.929967,8827.275038,126.103929,,11.698739,1.475257,7,70,63,2,5,70,0.9,0.714286,0.285714,9,10,660.657138,190.207386,4624.599964,1331.451702
llama32_1b_to_31_8b,llama_cross,meta-llama/Llama-3.2-1B,meta-llama/Llama-3.1-8B,structured_extraction,structured_extraction_1,10,50,0.9,1.0,64,int8,int8,7.801688,8716.062324,128.177387,,6.472757,0.829661,12,68,56,9,3,120,0.466667,0.25,0.75,4.666667,5.666667,674.525023,198.018538,8094.300274,2376.22245
llama32_1b_to_31_8b,llama_cross,meta-llama/Llama-3.2-1B,meta-llama/Llama-3.1-8B,structured_extraction,structured_extraction_1,10,100,0.0,1.0,64,int8,int8,8.077931,8789.379421,123.794076,,11.4966,1.423211,7,71,64,1,6,70,0.914286,0.857143,0.142857,9.142857,10.142857,682.217025,195.938122,4775.519175,1371.566857
llama32_1b_to_31_8b,llama_cross,meta-llama/Llama-3.2-1B,meta-llama/Llama-3.1-8B,structured_extraction,structured_extraction_1,10,100,0.9,1.0,64,int8,int8,7.636198,9035.910136,130.955219,,6.529544,0.855078,12,69,57,8,4,120,0.475,0.333333,0.666667,4.75,5.75,679.245216,198.46013,8150.942593,2381.521561
llama32_1b_to_31_8b,llama_cross,meta-llama/Llama-3.2-1B,meta-llama/Llama-3.1-8B,structured_extraction,structured_extraction_1,10,150,0.0,1.0,64,int8,int8,7.152723,9087.448647,139.806902,,7.619109,1.065204,10,65,55,7,3,100,0.55,0.3,0.7,5.5,6.5,657.824494,192.131991,6578.244941,1921.319914
llama32_1b_to_31_8b,llama_cross,meta-llama/Llama-3.2-1B,meta-llama/Llama-3.1-8B,structured_extraction,structured_extraction_1,10,150,0.9,1.0,64,int8,int8,8.105954,9005.726303,123.366114,,7.565838,0.933368,11,73,62,6,5,110,0.563636,0.454545,0.545455,5.636364,6.636364,677.872366,196.208263,7456.596027,2158.290896
llama32_1b_to_31_8b,llama_cross,meta-llama/Llama-3.2-1B,meta-llama/Llama-3.1-8B,structured_extraction,structured_extraction_1,10,200,0.0,1.0,64,int8,int8,7.026486,9108.393053,142.318641,,9.068757,1.290653,8,64,56,3,5,80,0.7,0.625,0.375,7,8,679.634001,199.037139,5437.072008,1592.297111
llama32_1b_to_31_8b,llama_cross,meta-llama/Llama-3.2-1B,meta-llama/Llama-3.1-8B,structured_extraction,structured_extraction_1,10,200,0.9,1.0,64,int8,int8,7.837301,8676.456198,127.594944,,6.930742,0.884328,11,68,57,8,3,110,0.518182,0.272727,0.727273,5.181818,6.181818,686.448088,202.302095,7550.928964,2225.32305
